DIT_DOCS/ARRI_LogC4_v1_LUT_Package/LUTs/ARRI_LogC4-to-HLG-1K_P3-D65_DW100_v1-65.cube
LUT_3D_SIZE 65
0.00000000 0.00000000 0.00000000
0.00000000 0.00009292 0.00003832
0.00000000 0.00053990 0.00044718
0.00000000 0.00114766 0.00103622
0.00026838 0.00170039 0.00165901
0.00164135 0.00186410 0.00208094
0.00438055 0.00146062 0.00221607
0.00812307 0.00113190 0.00265486
0.01283524 0.00110107 0.00355352
0.01871296 0.00142916 0.00488765
0.02634853 0.00193473 0.00660950
0.03644712 0.00239854 0.00868387
0.04967628 0.00279004 0.01113351
0.06666203 0.00318332 0.01402390
0.08789390 0.00374124 0.01743617
0.11355531 0.00432385 0.02138826
0.14346570 0.00479566 0.02586578
0.17730851 0.00507884 0.03085783
0.21479664 0.00530157 0.03638375
0.25576130 0.00550534 0.04246681
0.30010634 0.00573458 0.04912842
0.34770448 0.00575905 0.05636568
0.39814735 0.00573004 0.06417525
0.45043731 0.00656183 0.07256225
0.50282165 0.00766203 0.08147540
0.55286966 0.00906553 0.09086906
0.59877503 0.01131353 0.10070609
0.64008735 0.01354931 0.11090038
0.67718560 0.01547611 0.12138836
0.71076493 0.01678219 0.13210957
0.74150963 0.01722499 0.14301356
0.76992796 0.01793626 0.15412192
0.79639157 0.02016177 0.16546182
0.82123524 0.02211290 0.17695127
0.84471966 0.02251567 0.18851213
0.86704690 0.02136397 0.20009085
0.88839928 0.01935927 0.21161804
0.90898106 0.01547262 0.22293991
0.92894327 0.00875533 0.23398491
0.94822138 0.00166681 0.24512239
0.96630476 0.00286273 0.25766833
0.98200451 0.02891622 0.27438972
0.99351651 0.09912208 0.29935508
0.99939673 0.21822160 0.33578915
1.00000000 0.34129312 0.37996973
1.00000000 0.44689722 0.42788363
1.00000000 0.52996441 0.47658986
1.00000000 0.59317324 0.52415357
1.00000000 0.64211336 0.56912564
0.99997088 0.68208286 0.61105683
0.99994566 0.71690633 0.65033089
0.99995910 0.74883832 0.68760334
0.99997877 0.77888205 0.72329154
0.99999272 0.80748726 0.75772117
0.99999963 0.83491177 0.79118643
1.00000000 0.86121708 0.82370417
1.00000000 0.88631345 0.85500169
1.00000000 0.91005100 0.88473826
1.00000000 0.93223008 0.91267597
1.00000000 0.95240181 0.93828867
0.99999996 0.96979575 0.96058102
0.99999993 0.98344375 0.97823375
0.99999995 0.99261030 0.99018704
0.99999998 0.99757388 0.99670541
0.99999999 0.99962798 0.99941908
0.00015851 0.00000000 0.00002376
0.00010904 0.00009091 0.00022654
0.00003835 0.00052999 0.00064436
0.00005297 0.00113024 0.00123744
0.00046291 0.00168092 0.00184919
0.00182800 0.00183149 0.00224175
0.00459944 0.00138966 0.00233560
0.00837975 0.00102177 0.00275032
0.01311526 0.00096158 0.00364222
0.01900992 0.00128367 0.00498249
0.02668589 0.00178356 0.00671658
0.03686295 0.00224640 0.00880646
0.05022604 0.00264291 0.01127481
0.06740475 0.00305841 0.01418842
0.08886047 0.00363560 0.01762146
0.11470571 0.00425069 0.02158424
0.14472471 0.00473163 0.02605574
0.17860163 0.00500730 0.03102796
0.21606418 0.00526839 0.03652913
0.25696903 0.00551036 0.04258402
0.30123682 0.00576748 0.04921661
0.34874743 0.00583628 0.05642728
0.39909533 0.00585239 0.06421355
0.45128146 0.00665865 0.07258018
0.50354633 0.00773918 0.08147744
0.55346107 0.00913206 0.09085951
0.59924154 0.01138443 0.10068904
0.64045040 0.01362250 0.11087866
0.67746823 0.01555861 0.12136449
0.71098723 0.01686840 0.13208480
0.74168655 0.01732063 0.14298903
0.77006997 0.01805069 0.15409877
0.79650656 0.02027295 0.16544009
0.82132907 0.02221091 0.17693070
0.84479663 0.02260207 0.18849257
0.86711025 0.02144601 0.20007237
0.88845149 0.01944421 0.21160086
0.90902407 0.01557119 0.22292425
0.92897874 0.00887035 0.23397067
0.94825056 0.00179625 0.24510971
0.96632832 0.00299165 0.25765810
0.98202249 0.02900168 0.27438386
0.99352849 0.09918269 0.29935648
0.99940252 0.21827686 0.33580007
1.00000000 0.34133568 0.37998595
1.00000000 0.44692558 0.42790125
1.00000000 0.52998244 0.47660658
1.00000000 0.59318564 0.52416811
1.00000000 0.64212349 0.56913765
0.99997083 0.68209206 0.61106648
0.99994565 0.71691477 0.65033868
0.99995911 0.74884573 0.68760966
0.99997878 0.77888817 0.72329665
0.99999272 0.80749212 0.75772534
0.99999963 0.83491552 0.79118984
1.00000000 0.86121992 0.82370694
1.00000000 0.88631558 0.85500388
1.00000000 0.91005258 0.88473997
1.00000000 0.93223125 0.91267729
1.00000000 0.95240266 0.93828966
0.99999996 0.96979633 0.96058171
0.99999993 0.98344410 0.97823418
0.99999995 0.99261047 0.99018724
0.99999998 0.99757394 0.99670549
0.99999999 0.99962799 0.99941909
0.00064742 0.00000000 0.00041950
0.00059588 0.00013395 0.00063182
0.00051372 0.00055225 0.00105848
0.00050286 0.00113074 0.00164928
0.00086925 0.00167052 0.00222948
0.00220939 0.00180054 0.00255127
0.00503056 0.00129249 0.00255320
0.00887619 0.00084811 0.00291005
0.01365679 0.00072091 0.00378091
0.01959484 0.00101016 0.00512880
0.02735910 0.00147879 0.00688531
0.03769734 0.00192258 0.00900743
0.05132164 0.00231596 0.01151685
0.06885659 0.00276070 0.01447953
0.09069369 0.00336554 0.01795382
0.11682851 0.00403442 0.02193766
0.14700117 0.00453580 0.02640104
0.18090701 0.00480892 0.03134142
0.21830350 0.00514105 0.03680097
0.25908978 0.00545656 0.04280728
0.30321389 0.00577247 0.04938857
0.35056680 0.00592417 0.05655079
0.40074627 0.00601702 0.06429332
0.45274914 0.00680002 0.07262091
0.50480413 0.00785863 0.08148691
0.55448704 0.00924019 0.09084567
0.60005044 0.01150173 0.10065965
0.64107949 0.01374453 0.11083948
0.67795785 0.01569517 0.12132060
0.71137253 0.01701058 0.13203898
0.74199355 0.01747602 0.14294365
0.77031687 0.01823038 0.15405586
0.79670690 0.02044415 0.16539982
0.82149277 0.02235840 0.17689276
0.84493104 0.02272884 0.18845677
0.86722089 0.02156466 0.20003881
0.88854259 0.01957315 0.21156994
0.90909915 0.01572349 0.22289605
0.92904067 0.00905512 0.23394508
0.94830144 0.00201259 0.24508701
0.96636925 0.00321738 0.25763989
0.98205351 0.02917395 0.27437361
0.99354893 0.09932247 0.29935910
0.99941229 0.21840025 0.33581918
1.00000000 0.34142454 0.38001445
1.00000000 0.44697911 0.42793224
1.00000000 0.53001225 0.47663593
1.00000000 0.59320398 0.52419355
1.00000000 0.64213829 0.56915862
0.99997075 0.68210625 0.61108330
0.99994565 0.71692855 0.65035221
0.99995913 0.74885825 0.68762061
0.99997880 0.77889874 0.72330551
0.99999273 0.80750057 0.75773258
0.99999963 0.83492205 0.79119575
1.00000000 0.86122487 0.82371173
1.00000000 0.88631928 0.85500769
1.00000000 0.91005534 0.88474295
1.00000000 0.93223329 0.91267958
1.00000000 0.95240412 0.93829136
0.99999996 0.96979732 0.96058290
0.99999993 0.98344469 0.97823491
0.99999995 0.99261075 0.99018759
0.99999998 0.99757403 0.99670561
0.99999999 0.99962800 0.99941911
0.00130509 0.00014907 0.00103588
0.00125595 0.00034201 0.00125489
0.00117080 0.00073065 0.00168269
0.00114417 0.00127354 0.00225595
0.00147548 0.00179135 0.00278029
0.00277202 0.00191376 0.00297881
0.00565946 0.00133562 0.00282303
0.00961265 0.00078385 0.00307057
0.01449034 0.00053931 0.00389026
0.02054332 0.00073204 0.00523477
0.02848754 0.00110512 0.00701560
0.03910386 0.00147703 0.00918423
0.05312833 0.00182764 0.01176030
0.07115358 0.00227736 0.01480226
0.09345221 0.00288858 0.01834189
0.11988939 0.00360680 0.02236419
0.15018072 0.00412874 0.02683089
0.18405445 0.00440417 0.03174587
0.22131358 0.00482693 0.03716550
0.26190923 0.00524418 0.04311997
0.30582164 0.00565109 0.04964166
0.35295312 0.00592633 0.05674326
0.40290281 0.00613254 0.06442705
0.45465961 0.00691744 0.07269902
0.50643577 0.00797303 0.08151790
0.55581444 0.00935663 0.09083963
0.60109490 0.01163785 0.10062730
0.64189088 0.01388882 0.11078964
0.67858952 0.01585692 0.12126137
0.71187041 0.01717714 0.13197543
0.74239133 0.01765508 0.14287992
0.77063776 0.01843555 0.15399528
0.79696801 0.02063714 0.16534307
0.82170660 0.02251957 0.17683960
0.84510683 0.02286136 0.18840701
0.86736567 0.02168551 0.19999257
0.88866186 0.01970590 0.21152754
0.90919752 0.01588283 0.22285732
0.92912177 0.00926493 0.23391005
0.94836793 0.00228386 0.24505616
0.96642240 0.00353675 0.25761550
0.98209321 0.02947660 0.27436040
0.99357444 0.09961406 0.29936336
0.99942398 0.21865290 0.33584513
1.00000000 0.34159454 0.38005258
1.00000000 0.44707106 0.42797339
1.00000000 0.53005507 0.47667463
1.00000000 0.59322480 0.52422695
1.00000000 0.64215344 0.56918601
0.99997065 0.68212171 0.61110520
0.99994565 0.71694481 0.65036979
0.99995916 0.74887382 0.68763482
0.99997882 0.77891225 0.72331701
0.99999275 0.80751154 0.75774196
0.99999963 0.83493057 0.79120343
1.00000000 0.86123131 0.82371795
1.00000000 0.88632408 0.85501263
1.00000000 0.91005890 0.88474682
1.00000000 0.93223591 0.91268256
1.00000000 0.95240601 0.93829358
0.99999996 0.96979859 0.96058443
0.99999993 0.98344545 0.97823584
0.99999995 0.99261110 0.99018803
0.99999998 0.99757413 0.99670574
0.99999999 0.99962800 0.99941911
0.00188278 0.00079772 0.00179590
0.00184272 0.00097989 0.00201118
0.00177103 0.00134366 0.00241958
0.00175790 0.00185500 0.00294766
0.00209808 0.00235827 0.00339387
0.00338720 0.00251254 0.00343993
0.00638288 0.00191939 0.00306014
0.01055400 0.00125413 0.00312434
0.01567679 0.00084355 0.00383361
0.02202787 0.00083120 0.00513430
0.03034834 0.00100217 0.00691513
0.04144205 0.00120445 0.00912622
0.05604497 0.00142289 0.01178712
0.07466642 0.00179567 0.01493544
0.09742499 0.00233153 0.01856776
0.12408560 0.00302302 0.02266053
0.15438054 0.00351161 0.02716978
0.18809912 0.00376110 0.03210271
0.22510656 0.00424544 0.03752257
0.26540879 0.00476537 0.04345904
0.30901973 0.00528508 0.04994473
0.35585141 0.00572506 0.05699784
0.40550108 0.00609284 0.06462402
0.45694511 0.00692704 0.07283253
0.50837438 0.00802725 0.08159129
0.55738249 0.00945006 0.09086104
0.60232353 0.01177287 0.10060796
0.64284334 0.01403919 0.11074065
0.67933129 0.01602755 0.12119417
0.71245668 0.01734865 0.13189818
0.74286172 0.01783364 0.14279955
0.77101899 0.01863901 0.15391738
0.79727950 0.02082620 0.16526954
0.82196250 0.02267097 0.17677080
0.84531766 0.02297669 0.18834298
0.86753952 0.02178350 0.19993348
0.88880519 0.01981443 0.21147360
0.90931583 0.01602055 0.22280811
0.92921934 0.00946853 0.23386554
0.94844762 0.00259865 0.24501746
0.96648542 0.00398511 0.25758581
0.98213913 0.03001766 0.27434580
0.99360249 0.10021564 0.29937118
0.99943584 0.21916323 0.33587892
1.00000000 0.34192080 0.38010020
1.00000000 0.44723600 0.42802378
1.00000000 0.53012318 0.47672149
1.00000000 0.59325059 0.52426706
1.00000000 0.64216804 0.56921875
0.99997053 0.68213686 0.61113127
0.99994568 0.71696217 0.65039068
0.99995921 0.74889140 0.68765170
0.99997886 0.77892799 0.72333067
0.99999277 0.80752451 0.75775312
0.99999964 0.83494071 0.79121257
1.00000000 0.86123899 0.82372536
1.00000000 0.88632980 0.85501850
1.00000000 0.91006314 0.88475141
1.00000000 0.93223903 0.91268609
1.00000000 0.95240824 0.93829620
0.99999996 0.96980009 0.96058626
0.99999993 0.98344633 0.97823694
0.99999995 0.99261149 0.99018854
0.99999998 0.99757424 0.99670588
0.99999999 0.99962797 0.99941908
0.00199947 0.00227415 0.00255934
0.00195238 0.00246555 0.00276003
0.00187574 0.00283922 0.00312722
0.00188354 0.00336035 0.00357417
0.00229509 0.00389761 0.00390401
0.00371167 0.00415537 0.00382108
0.00688338 0.00373692 0.00318013
0.01152472 0.00301075 0.00295505
0.01722925 0.00239433 0.00343930
0.02425170 0.00210888 0.00459677
0.03332033 0.00198597 0.00629069
0.04522569 0.00189760 0.00848405
0.06064289 0.00183737 0.01120868
0.07993009 0.00196760 0.01445853
0.10306908 0.00224897 0.01819686
0.12980294 0.00267819 0.02240293
0.15992599 0.00294020 0.02703119
0.19331466 0.00302676 0.03208191
0.22991182 0.00342547 0.03760790
0.26977538 0.00397876 0.04362996
0.31295512 0.00458556 0.05016851
0.35937184 0.00520214 0.05724041
0.40861819 0.00577392 0.06485236
0.45965414 0.00672020 0.07301829
0.51064502 0.00794656 0.08172066
0.55920014 0.00948229 0.09093059
0.60373676 0.01188055 0.10062232
0.64393388 0.01417556 0.11070954
0.68017971 0.01619271 0.12113113
0.71312877 0.01751465 0.13181462
0.74340346 0.01800274 0.14270604
0.77146047 0.01883253 0.15382294
0.79764215 0.02100201 0.16517833
0.82226177 0.02280190 0.17668454
0.84556505 0.02306259 0.18826251
0.86774396 0.02184509 0.19985939
0.88897397 0.01988512 0.21140621
0.90945531 0.01612201 0.22274673
0.92933439 0.00965421 0.23381017
0.94854129 0.00295656 0.24496990
0.96655850 0.00461671 0.25755101
0.98219048 0.03095943 0.27433189
0.99363117 0.10137895 0.29938652
0.99944653 0.22011546 0.33592388
1.00000000 0.34250249 0.38015934
1.00000000 0.44751894 0.42808448
1.00000000 0.53023468 0.47677699
1.00000000 0.59328781 0.52431415
1.00000000 0.64218407 0.56925696
0.99997043 0.68215213 0.61116163
0.99994573 0.71698064 0.65041497
0.99995929 0.74891095 0.68767133
0.99997892 0.77894593 0.72334656
0.99999279 0.80753949 0.75776610
0.99999965 0.83495249 0.79122320
1.00000000 0.86124794 0.82373399
1.00000000 0.88633646 0.85502535
1.00000000 0.91006807 0.88475677
1.00000000 0.93224265 0.91269021
1.00000000 0.95241083 0.93829926
0.99999996 0.96980183 0.96058837
0.99999993 0.98344735 0.97823821
0.99999995 0.99261193 0.99018911
0.99999998 0.99757434 0.99670602
0.99999999 0.99962792 0.99941903
0.00145120 0.00492183 0.00329817
0.00136598 0.00514922 0.00347899
0.00122622 0.00558513 0.00379861
0.00116937 0.00620258 0.00415957
0.00154832 0.00691161 0.00436277
0.00305469 0.00748210 0.00411821
0.00659536 0.00754708 0.00328165
0.01213442 0.00697244 0.00261176
0.01897514 0.00628608 0.00266344
0.02726821 0.00585647 0.00347213
0.03767425 0.00549800 0.00487659
0.05088326 0.00506684 0.00687507
0.06739052 0.00457590 0.00954311
0.08738393 0.00420554 0.01278974
0.11079769 0.00390011 0.01657166
0.13745035 0.00360992 0.02090628
0.16722896 0.00321234 0.02574407
0.20011011 0.00276639 0.03106253
0.23612412 0.00270589 0.03687935
0.27537303 0.00306632 0.04319133
0.31794882 0.00361255 0.04997919
0.36378529 0.00431170 0.05723885
0.41247087 0.00506933 0.06496734
0.46294941 0.00617326 0.07317947
0.51336070 0.00762519 0.08187663
0.56134020 0.00938819 0.09104804
0.60537982 0.01190003 0.10068380
0.64519008 0.01424803 0.11071365
0.68115189 0.01631811 0.12108802
0.71389820 0.01765416 0.13173646
0.74402526 0.01815213 0.14260666
0.77196954 0.01901439 0.15371543
0.79806258 0.02116728 0.16507007
0.82261052 0.02291642 0.17657962
0.84585460 0.02312256 0.18816337
0.86798405 0.02187216 0.19976761
0.88917267 0.01991759 0.21132256
0.90961984 0.01618381 0.22267049
0.92947022 0.00981840 0.23374160
0.94865160 0.00336457 0.24491195
0.96664355 0.00547322 0.25751110
0.98224803 0.03244294 0.27432162
0.99365987 0.10338112 0.29941559
0.99945563 0.22166445 0.33598479
1.00000000 0.34340578 0.38023317
1.00000000 0.44794686 0.42815760
1.00000000 0.53040136 0.47684269
1.00000000 0.59334223 0.52436936
1.00000000 0.64220458 0.56930158
0.99997033 0.68216922 0.61119699
0.99994582 0.71700120 0.65044326
0.99995940 0.74893308 0.68769419
0.99997899 0.77896650 0.72336508
0.99999282 0.80755681 0.75778124
0.99999966 0.83496619 0.79123561
1.00000000 0.86125837 0.82374405
1.00000000 0.88634423 0.85503334
1.00000000 0.91007382 0.88476301
1.00000000 0.93224687 0.91269501
1.00000000 0.95241385 0.93830283
0.99999996 0.96980385 0.96059084
0.99999993 0.98344853 0.97823969
0.99999995 0.99261244 0.99018976
0.99999998 0.99757445 0.99670617
0.99999999 0.99962786 0.99941896
0.00094649 0.00857897 0.00447972
0.00082689 0.00884272 0.00465557
0.00062035 0.00934261 0.00495916
0.00047410 0.01006559 0.00528712
0.00073430 0.01098068 0.00543697
0.00211371 0.01197058 0.00510603
0.00562419 0.01279108 0.00407036
0.01196992 0.01318340 0.00271322
0.02038013 0.01330804 0.00199312
0.03066936 0.01338565 0.00207469
0.04315211 0.01326138 0.00284999
0.05821850 0.01273726 0.00432196
0.07607798 0.01187497 0.00663906
0.09685779 0.01077637 0.00955696
0.12055524 0.00943758 0.01310291
0.14711283 0.00779937 0.01743513
0.17651356 0.00603587 0.02247135
0.20882778 0.00431764 0.02816134
0.24416379 0.00309359 0.03447645
0.28265903 0.00271289 0.04136697
0.32445375 0.00279887 0.04872731
0.36950946 0.00324911 0.05648891
0.41741822 0.00400780 0.06460773
0.46711804 0.00521140 0.07307965
0.51673385 0.00693508 0.08192091
0.56394982 0.00901855 0.09114477
0.60734911 0.01169967 0.10076805
0.64667267 0.01415193 0.11075289
0.68228542 0.01632824 0.12107522
0.71478857 0.01771722 0.13167618
0.74474280 0.01825263 0.14251183
0.77255758 0.01917222 0.15360182
0.79854992 0.02132054 0.16494833
0.82301665 0.02301887 0.17645682
0.84619340 0.02316322 0.18804439
0.86826621 0.02187162 0.19965579
0.88940706 0.01991770 0.21121973
0.90981453 0.01620718 0.22257630
0.92963132 0.00995077 0.23365685
0.94878241 0.00379145 0.24484112
0.96674378 0.00649585 0.25746474
0.98231449 0.03438994 0.27431566
0.99369106 0.10623604 0.29946214
0.99946425 0.22373744 0.33606489
1.00000000 0.34457804 0.38032447
1.00000000 0.44849773 0.42824552
1.00000000 0.53061822 0.47692056
1.00000000 0.59341517 0.52443436
1.00000000 0.64223219 0.56935394
0.99997025 0.68219033 0.61123845
0.99994594 0.71702538 0.65047641
0.99995953 0.74895882 0.68772100
0.99997907 0.77899041 0.72338680
0.99999286 0.80757699 0.75779901
0.99999967 0.83498219 0.79125018
1.00000000 0.86127059 0.82375588
1.00000000 0.88635335 0.85504272
1.00000000 0.91008057 0.88477035
1.00000000 0.93225183 0.91270065
1.00000000 0.95241739 0.93830701
0.99999996 0.96980622 0.96059373
0.99999993 0.98344991 0.97824142
0.99999995 0.99261304 0.99019053
0.99999998 0.99757457 0.99670635
0.99999999 0.99962778 0.99941887
0.00088964 0.01327576 0.00625264
0.00077191 0.01355957 0.00643428
0.00054898 0.01409582 0.00674629
0.00032234 0.01489231 0.00708274
0.00040722 0.01599121 0.00723255
0.00151127 0.01742356 0.00685413
0.00473522 0.01914797 0.00560331
0.01129543 0.02100266 0.00358552
0.02121445 0.02279142 0.00202605
0.03379056 0.02442261 0.00133709
0.04867557 0.02559306 0.00144743
0.06577195 0.02598851 0.00221651
0.08514220 0.02548689 0.00362480
0.10693732 0.02398597 0.00552674
0.13123809 0.02141130 0.00812755
0.15800931 0.01799401 0.01194430
0.18732761 0.01418518 0.01678149
0.21933655 0.01018945 0.02262085
0.25416361 0.00674692 0.02944004
0.29196449 0.00454326 0.03712911
0.33292150 0.00326143 0.04542777
0.37703789 0.00274868 0.05413740
0.42393618 0.00298848 0.06309273
0.47257348 0.00398649 0.07221708
0.52109110 0.00585694 0.08151318
0.56726904 0.00824001 0.09101013
0.60981027 0.01111715 0.10075914
0.64849029 0.01373336 0.11077328
0.68364885 0.01609516 0.12107482
0.71584214 0.01760663 0.13163388
0.74558218 0.01823671 0.14242853
0.77324126 0.01926673 0.15349006
0.79911567 0.02144398 0.16481928
0.82348896 0.02310551 0.17631971
0.84658887 0.02318899 0.18790669
0.86859702 0.02185236 0.19952313
0.88968311 0.01989578 0.21109567
0.91004481 0.01619723 0.22246133
0.92982254 0.01003893 0.23355278
0.94893797 0.00417976 0.24475426
0.96686285 0.00751779 0.25740899
0.98239289 0.03639234 0.27431124
0.99372708 0.10912990 0.29952310
0.99947362 0.22592941 0.33616427
1.00000000 0.34585354 0.38043495
1.00000000 0.44911304 0.42835046
1.00000000 0.53086940 0.47701281
1.00000000 0.59350534 0.52451107
1.00000000 0.64226925 0.56941562
0.99997018 0.68221791 0.61128728
0.99994609 0.71705498 0.65051548
0.99995969 0.74898937 0.68775261
0.99997917 0.77901847 0.72341243
0.99999290 0.80760061 0.75781998
0.99999967 0.83500095 0.79126737
1.00000000 0.86128494 0.82376982
1.00000000 0.88636409 0.85505378
1.00000000 0.91008854 0.88477900
1.00000000 0.93225769 0.91270729
1.00000000 0.95242158 0.93831194
0.99999996 0.96980902 0.96059714
0.99999993 0.98345153 0.97824346
0.99999995 0.99261374 0.99019143
0.99999998 0.99757472 0.99670656
0.99999999 0.99962768 0.99941877
0.00136814 0.01920665 0.00863187
0.00126460 0.01950642 0.00882238
0.00103815 0.02007850 0.00915500
0.00073057 0.02096121 0.00952777
0.00058419 0.02227999 0.00972447
0.00124423 0.02422029 0.00936141
0.00391024 0.02694784 0.00796783
0.01022632 0.03045686 0.00541817
0.02133132 0.03438137 0.00295569
0.03611462 0.03820467 0.00143631
0.05339526 0.04126214 0.00085524
0.07248853 0.04313565 0.00100262
0.09326842 0.04366575 0.00162592
0.11594629 0.04274473 0.00259295
0.14082382 0.04025057 0.00400705
0.16812149 0.03615294 0.00637816
0.19800497 0.03048928 0.00984514
0.23047691 0.02360111 0.01478985
0.26545183 0.01706265 0.02144760
0.30306686 0.01139268 0.02968495
0.34348228 0.00724586 0.03902312
0.38672881 0.00448167 0.04907948
0.43249648 0.00312559 0.05940898
0.47979908 0.00316508 0.06975182
0.52685840 0.00468818 0.08001692
0.57163828 0.00709465 0.09020115
0.61301591 0.01006007 0.10037401
0.65081956 0.01284380 0.11060968
0.68535961 0.01546055 0.12100035
0.71713395 0.01717599 0.13157069
0.74658992 0.01798356 0.14234390
0.77404898 0.01921140 0.15337982
0.79977741 0.02148303 0.16468717
0.82403901 0.02314695 0.17617293
0.84704939 0.02318873 0.18775342
0.86898330 0.02181509 0.19937086
0.89000678 0.01986074 0.21094985
0.91031609 0.01616316 0.22232375
0.93004884 0.01008084 0.23342662
0.94912275 0.00449725 0.24464815
0.96700458 0.00844956 0.25734058
0.98248620 0.03828426 0.27430546
0.99376982 0.11187710 0.29959651
0.99948466 0.22808224 0.33628330
1.00000000 0.34714840 0.38056652
1.00000000 0.44976083 0.42847490
1.00000000 0.53114778 0.47712191
1.00000000 0.59361439 0.52460167
1.00000000 0.64231912 0.56948845
0.99997012 0.68225478 0.61134494
0.99994629 0.71709195 0.65056164
0.99995988 0.74902603 0.68778996
0.99997928 0.77905159 0.72344272
0.99999295 0.80762835 0.75784476
0.99999968 0.83502297 0.79128768
1.00000000 0.86130184 0.82378630
1.00000000 0.88637677 0.85506685
1.00000000 0.91009797 0.88478921
1.00000000 0.93226462 0.91271515
1.00000000 0.95242654 0.93831777
0.99999996 0.96981234 0.96060116
0.99999993 0.98345346 0.97824587
0.99999995 0.99261456 0.99019250
0.99999998 0.99757489 0.99670680
0.99999999 0.99962757 0.99941865
0.00195855 0.02691012 0.01163830
0.00186680 0.02724677 0.01184377
0.00163738 0.02789518 0.01221182
0.00125609 0.02892308 0.01265075
0.00088682 0.03053213 0.01294914
0.00110349 0.03304210 0.01269572
0.00315762 0.03679479 0.01131417
0.00904169 0.04192438 0.00844797
0.02052332 0.04798154 0.00495371
0.03693906 0.05399859 0.00239339
0.05638597 0.05903151 0.00100821
0.07747641 0.06255150 0.00059179
0.09971945 0.06441730 0.00070211
0.12329652 0.06461235 0.00104389
0.14869285 0.06306360 0.00158813
0.17640776 0.05960430 0.00261648
0.20682190 0.05399820 0.00439946
0.24009025 0.04618646 0.00729909
0.27611627 0.03675488 0.01214228
0.31463178 0.02664565 0.01958312
0.35542254 0.01807317 0.02916118
0.39838660 0.01124631 0.04044097
0.44327166 0.00654448 0.05244904
0.48916414 0.00420778 0.06457748
0.53445993 0.00431664 0.07647901
0.57745412 0.00604542 0.08798169
0.61729598 0.00870897 0.09909177
0.65391342 0.01148762 0.10992027
0.68759989 0.01432202 0.12064273
0.71878860 0.01626842 0.13136777
0.74784737 0.01732767 0.14219654
0.77503179 0.01886382 0.15324377
0.80056633 0.02133043 0.16454310
0.82468580 0.02307068 0.17601613
0.84758701 0.02311937 0.18758712
0.86943333 0.02174083 0.19920147
0.89038448 0.01981117 0.21078352
0.91063388 0.01611327 0.22216319
0.93031520 0.01008578 0.23327668
0.94934124 0.00474591 0.24452026
0.96717277 0.00928252 0.25725686
0.98259723 0.04005987 0.27429647
0.99382085 0.11450798 0.29968229
0.99949803 0.23020043 0.33642369
1.00000000 0.34846276 0.38072196
1.00000000 0.45044533 0.42862191
1.00000000 0.53146001 0.47725077
1.00000000 0.59374854 0.52470867
1.00000000 0.64238644 0.56957449
0.99997008 0.68230399 0.61141308
0.99994652 0.71713823 0.65061621
0.99996010 0.74907008 0.68783414
0.99997941 0.77909067 0.72347855
0.99999300 0.80766089 0.75787407
0.99999969 0.83504883 0.79131171
1.00000000 0.86132173 0.82380579
1.00000000 0.88639174 0.85508230
1.00000000 0.91010912 0.88480130
1.00000000 0.93227283 0.91272443
1.00000000 0.95243240 0.93832466
0.99999996 0.96981626 0.96060593
0.99999993 0.98345574 0.97824871
0.99999995 0.99261554 0.99019376
0.99999998 0.99757510 0.99670709
0.99999999 0.99962743 0.99941851
0.00236389 0.03699769 0.01534444
0.00229990 0.03740579 0.01557291
0.00210219 0.03819831 0.01599476
0.00170846 0.03946567 0.01653417
0.00120879 0.04146610 0.01699454
0.00108746 0.04461090 0.01694946
0.00253210 0.04934728 0.01571646
0.00757719 0.05585874 0.01264786
0.01846178 0.06360715 0.00811844
0.03571435 0.07137880 0.00429780
0.05693898 0.07810740 0.00195265
