DIT_DOCS/ARRI_LogC4_v1_LUT_Package/LUTs/ARRI_LogC4-to-HLG_1K_Rec2100-P3lim-D65_DW100_v1_65.cube
LUT_3D_SIZE 65
0.00000000 0.00000000 0.00000000
0.00000000 0.00005381 0.00003756
0.00000000 0.00046545 0.00044727
0.00020330 0.00104830 0.00103675
0.00080523 0.00164078 0.00165784
0.00206605 0.00199109 0.00207175
0.00426252 0.00199574 0.00219091
0.00734160 0.00225855 0.00261558
0.01136005 0.00298289 0.00350292
0.01649875 0.00418799 0.00481370
0.02324141 0.00587974 0.00649643
0.03214859 0.00812604 0.00853502
0.04377890 0.01105314 0.01095968
0.05869419 0.01478495 0.01381913
0.07734252 0.01944366 0.01717896
0.09988381 0.02505512 0.02105743
0.12614238 0.03158384 0.02545345
0.15581968 0.03896266 0.03036553
0.18867804 0.04708744 0.03577762
0.22450841 0.05595962 0.04174480
0.26324631 0.06549723 0.04825593
0.30479601 0.07571740 0.05535425
0.34906488 0.08655548 0.06301410
0.39572941 0.09798902 0.07122571
0.44400318 0.11005064 0.08000579
0.49257947 0.12257966 0.08923709
0.53946498 0.13551106 0.09886022
0.58282318 0.14888540 0.10888167
0.62205870 0.16257083 0.11919819
0.65744645 0.17639899 0.12968495
0.68955890 0.19036542 0.14032174
0.71894918 0.20463387 0.15119453
0.74609101 0.21932603 0.16236558
0.77143294 0.23425575 0.17371252
0.79531522 0.24923232 0.18511372
0.81797427 0.26416430 0.19650951
0.83957263 0.27907159 0.20790426
0.86022760 0.29406761 0.21934575
0.88003619 0.30931980 0.23088728
0.89917914 0.32461308 0.24231763
0.91783664 0.33974311 0.25339818
0.93606158 0.35508317 0.26425475
0.95358253 0.37236264 0.27599860
0.96953670 0.39555364 0.29155497
0.98228359 0.43113415 0.31621214
0.98999716 0.48428227 0.35557419
0.99286641 0.54764670 0.40821397
0.99289350 0.60831109 0.46697957
0.99191128 0.65989965 0.52520799
0.99086919 0.70217310 0.57897966
0.99024311 0.73726827 0.62707075
0.99022601 0.76757080 0.66998669
0.99045679 0.79515547 0.70941236
0.99062946 0.82124436 0.74673076
0.99076819 0.84633752 0.78259019
0.99130562 0.87049457 0.81694990
0.99278223 0.89360713 0.84946236
0.99488677 0.91561699 0.88019533
0.99700846 0.93632155 0.90911398
0.99866653 0.95524404 0.93571522
0.99966514 0.97160633 0.95893339
1.00000000 0.98445658 0.97734440
1.00000000 0.99307689 0.98980155
1.00000000 0.99772719 0.99657135
1.00000000 0.99964427 0.99937974
0.00000596 0.00000000 0.00001928
0.00003160 0.00006704 0.00022221
0.00012047 0.00047147 0.00064011
0.00036193 0.00104817 0.00123273
0.00095370 0.00164190 0.00184218
0.00221656 0.00198799 0.00222629
0.00443521 0.00197146 0.00230352
0.00754088 0.00221571 0.00270326
0.01157727 0.00292739 0.00358259
0.01673564 0.00412605 0.00489557
0.02351952 0.00582462 0.00658841
0.03250135 0.00809386 0.00864200
0.04425221 0.01106449 0.01108785
0.05934090 0.01485592 0.01397178
0.07818895 0.01958084 0.01735345
0.10089361 0.02525250 0.02124413
0.12724868 0.03182038 0.02563547
0.15695303 0.03922234 0.03053217
0.18978958 0.04735415 0.03591995
0.22556949 0.05622039 0.04185732
0.26424094 0.06574539 0.04833810
0.30571380 0.07595375 0.05541123
0.34990307 0.08677777 0.06304922
0.39648604 0.09819597 0.07124297
0.44467653 0.11023785 0.08000688
0.49316198 0.12274560 0.08922494
0.53994552 0.13565786 0.09883932
0.58320497 0.14901673 0.10885669
0.62235731 0.16268728 0.11917095
0.65767985 0.17650171 0.12965687
0.68974253 0.19045676 0.14029440
0.71909484 0.20471649 0.15116937
0.74620795 0.21940020 0.16234239
0.77152789 0.23432141 0.17369074
0.79539298 0.24928974 0.18509293
0.81803831 0.26421418 0.19648959
0.83962547 0.27911516 0.20788545
0.86027100 0.29410708 0.21932890
0.88007172 0.30935630 0.23087269
0.89920831 0.32464649 0.24230485
0.91786069 0.33977321 0.25338673
0.93608144 0.35511016 0.26424446
0.95359873 0.37238750 0.27598999
0.96954930 0.39557878 0.29154979
0.98229201 0.43116405 0.31621395
0.99000097 0.48431953 0.35558594
0.99286739 0.54768198 0.40823087
0.99289332 0.60833895 0.46699686
0.99191078 0.65991974 0.52522320
0.99086871 0.70218705 0.57899196
0.99024279 0.73727798 0.62708029
0.99022589 0.76757773 0.66999393
0.99045677 0.79516064 0.70941796
0.99062945 0.82124837 0.74673522
0.99076816 0.84634068 0.78259381
0.99130562 0.87049706 0.81695281
0.99278231 0.89360907 0.84946465
0.99488688 0.91561848 0.88019711
0.99700856 0.93632267 0.90911534
0.99866659 0.95524485 0.93571624
0.99966518 0.97160688 0.95893411
1.00000000 0.98445691 0.97734484
1.00000000 0.99307705 0.98980177
1.00000000 0.99772725 0.99657142
1.00000000 0.99964428 0.99937976
0.00038198 0.00000000 0.00040828
0.00040536 0.00014145 0.00062000
0.00048359 0.00052655 0.00104537
0.00070605 0.00108364 0.00163409
0.00127478 0.00167113 0.00221097
0.00253175 0.00201012 0.00252421
0.00478149 0.00195508 0.00250878
0.00792900 0.00215701 0.00284842
0.01199650 0.00283133 0.00370264
0.01719748 0.00400513 0.00501494
0.02406723 0.00570580 0.00672492
0.03320082 0.00801087 0.00880837
0.04518803 0.01105756 0.01129808
0.06059814 0.01495534 0.01423276
0.07978807 0.01979496 0.01765791
0.10275097 0.02556944 0.02157399
0.12924282 0.03220581 0.02596213
0.15896942 0.03964829 0.03083543
0.19174893 0.04779648 0.03618481
0.22742955 0.05665588 0.04207137
0.26597765 0.06616446 0.04849978
0.30731265 0.07635739 0.05552772
0.35136174 0.08716100 0.06312482
0.39780254 0.09855523 0.07128370
0.44584786 0.11056480 0.08001579
0.49417477 0.12303673 0.08920751
0.54078101 0.13591598 0.09880395
0.58386873 0.14924751 0.10881215
0.62287613 0.16289173 0.11912138
0.65808513 0.17668177 0.12960537
0.69006141 0.19061638 0.14024409
0.71934805 0.20486001 0.15112284
0.74641152 0.21952831 0.16229946
0.77169338 0.23443433 0.17365057
0.79552862 0.24938820 0.18505489
0.81815004 0.26429963 0.19645346
0.83971761 0.27919004 0.20785173
0.86034668 0.29417482 0.21929876
0.88013366 0.30941904 0.23084666
0.89925914 0.32470402 0.24228209
0.91790262 0.33982501 0.25336630
0.93611610 0.35515642 0.26422598
0.95362707 0.37242996 0.27597435
0.96957127 0.39562221 0.29154042
0.98230663 0.43121608 0.31621703
0.99000761 0.48438408 0.35560624
0.99286903 0.54774353 0.40826043
0.99289288 0.60838782 0.46702730
0.99190978 0.65995492 0.52524999
0.99086780 0.70221134 0.57901357
0.99024220 0.73729476 0.62709695
0.99022568 0.76758964 0.67000653
0.99045674 0.79516951 0.70942767
0.99062943 0.82125526 0.74674295
0.99076812 0.84634613 0.78260006
0.99130561 0.87050137 0.81695785
0.99278244 0.89361242 0.84946862
0.99488707 0.91562106 0.88020019
0.99700873 0.93632460 0.90911771
0.99866671 0.95524625 0.93571800
0.99966523 0.97160783 0.95893534
1.00000000 0.98445748 0.97734560
1.00000000 0.99307731 0.98980213
1.00000000 0.99772733 0.99657155
1.00000000 0.99964429 0.99937977
0.00095741 0.00021759 0.00101476
0.00098273 0.00039185 0.00123240
0.00105633 0.00074972 0.00165754
0.00126191 0.00127344 0.00222720
0.00180372 0.00184167 0.00274765
0.00304150 0.00218283 0.00294019
0.00532533 0.00208479 0.00276868
0.00853296 0.00221554 0.00299570
0.01265902 0.00280850 0.00378983
0.01795223 0.00391741 0.00508463
0.02498200 0.00559441 0.00680787
0.03437028 0.00792761 0.00892972
0.04671983 0.01106000 0.01148412
0.06257476 0.01508329 0.01449630
0.08218185 0.02005325 0.01798817
0.10541677 0.02594255 0.02194989
0.13201568 0.03265620 0.02635146
0.16171480 0.04014179 0.03121056
0.19437654 0.04831189 0.03652777
0.22989642 0.05717031 0.04236411
0.26826205 0.06666981 0.04873612
0.30940430 0.07685477 0.05571078
0.35326405 0.08764202 0.06325435
0.39951663 0.09901338 0.07136366
0.44737146 0.11098716 0.08004807
0.49549087 0.12341659 0.08919859
0.54186548 0.13625509 0.09876527
0.58472936 0.14955175 0.10875638
0.62354830 0.16316153 0.11905546
0.65861019 0.17691906 0.12953477
0.69047497 0.19082600 0.14017406
0.71967706 0.20504756 0.15105750
0.74667661 0.21969482 0.16223908
0.77190932 0.23458031 0.17359433
0.79570585 0.24951488 0.18500203
0.81829613 0.26440919 0.19640375
0.83983811 0.27928576 0.20780565
0.86044571 0.29426096 0.21925759
0.88021467 0.30949891 0.23081121
0.89932558 0.32477739 0.24225122
0.91795743 0.33989100 0.25333856
0.93616149 0.35521506 0.26420067
0.95366424 0.37248353 0.27595266
0.96960008 0.39567752 0.29152719
0.98232574 0.43128324 0.31622050
0.99001620 0.48446810 0.35563264
0.99287097 0.54782420 0.40829939
0.99289207 0.60845201 0.46706758
0.99190831 0.66000098 0.52528541
0.99086651 0.70224290 0.57904202
0.99024137 0.73731637 0.62711876
0.99022538 0.76760490 0.67002292
0.99045669 0.79518086 0.70944026
0.99062941 0.82126409 0.74675293
0.99076806 0.84635314 0.78260815
0.99130562 0.87050693 0.81696438
0.99278261 0.89361677 0.84947376
0.99488732 0.91562440 0.88020419
0.99700896 0.93632711 0.90912078
0.99866686 0.95524806 0.93572028
0.99966530 0.97160906 0.95893693
1.00000000 0.98445820 0.97734657
1.00000000 0.99307764 0.98980258
1.00000000 0.99772742 0.99657168
1.00000000 0.99964428 0.99937977
0.00165101 0.00089324 0.00176529
0.00168829 0.00105920 0.00197897
0.00177586 0.00139567 0.00238465
0.00198697 0.00188944 0.00291014
0.00252242 0.00244071 0.00335619
0.00374784 0.00280832 0.00340529
0.00608230 0.00270330 0.00302049
0.00940436 0.00274143 0.00306375
0.01367248 0.00319226 0.00373325
0.01917817 0.00417536 0.00496378
0.02651487 0.00577832 0.00666624
0.03632213 0.00810045 0.00880976
0.04919099 0.01128495 0.01143201
0.06558816 0.01539705 0.01453610
0.08561609 0.02044920 0.01811372
0.10905715 0.02640347 0.02215018
0.13566471 0.03315393 0.02660597
0.16523435 0.04065120 0.03149539
0.19767918 0.04883036 0.03682825
0.23294816 0.05768925 0.04265754
0.27105165 0.06719152 0.04900695
0.31193454 0.07738258 0.05594788
0.35554972 0.08816661 0.06344379
0.40156613 0.09952659 0.07149942
0.44918666 0.11147144 0.08012445
0.49705408 0.12386073 0.08921853
0.54314959 0.13665794 0.09874058
0.58574596 0.14991731 0.10870241
0.62434145 0.16348776 0.11898194
0.65923026 0.17720643 0.12945021
0.69096456 0.19107932 0.14008671
0.72006789 0.20527319 0.15097410
0.74699262 0.21989408 0.16216120
0.77216750 0.23475394 0.17352171
0.79591822 0.24966459 0.18493412
0.81847140 0.26453785 0.19634033
0.83998278 0.27939744 0.20774723
0.86056467 0.29436082 0.21920547
0.88031207 0.30959092 0.23076620
0.89940544 0.32486186 0.24221209
0.91802334 0.33996679 0.25330337
0.93621612 0.35528208 0.26416842
0.95370904 0.37254473 0.27592483
0.96963478 0.39574141 0.29150982
0.98234869 0.43136231 0.31622377
0.99002636 0.48456836 0.35566413
0.99287306 0.54792102 0.40834644
0.99289085 0.60852912 0.46711636
0.99190634 0.66005612 0.52532824
0.99086484 0.70228043 0.57907628
0.99024032 0.73734188 0.62714487
0.99022501 0.76762281 0.67004244
0.99045665 0.79519417 0.70945518
0.99062940 0.82127447 0.74676476
0.99076800 0.84636142 0.78261774
0.99130562 0.87051352 0.81697213
0.99278281 0.89362193 0.84947987
0.99488763 0.91562837 0.88020894
0.99700924 0.93633009 0.90912442
0.99866704 0.95525022 0.93572299
0.99966539 0.97161050 0.95893881
1.00000000 0.98445904 0.97734771
1.00000000 0.99307802 0.98980310
1.00000000 0.99772752 0.99657182
1.00000000 0.99964425 0.99937974
0.00233365 0.00233932 0.00252847
0.00238132 0.00251529 0.00272801
0.00248629 0.00286233 0.00309432
0.00272423 0.00336391 0.00354425
0.00329813 0.00393759 0.00388668
0.00456819 0.00437839 0.00383013
0.00699471 0.00440926 0.00322004
0.01056390 0.00437811 0.00299069
0.01517094 0.00464513 0.00342528
0.02113383 0.00545725 0.00449021
0.02904753 0.00693252 0.00607220
0.03953500 0.00917259 0.00815637
0.05311937 0.01230849 0.01079441
0.07011659 0.01637575 0.01395641
0.09049586 0.02135103 0.01760919
0.11401250 0.02720506 0.02174431
0.14047672 0.03385118 0.02631953
0.16976782 0.04125054 0.03133392
0.20185443 0.04936875 0.03679594
0.23674232 0.05819326 0.04273401
0.27446608 0.06769169 0.04916546
0.31499265 0.07789201 0.05615014
0.35828165 0.08868549 0.06364998
0.40399178 0.10005232 0.07168036
0.45131673 0.11198510 0.08025421
0.49887481 0.12434715 0.08928603
0.54463536 0.13711185 0.09875057
0.58691651 0.15033873 0.10866848
0.62525261 0.16386979 0.11891445
0.65994301 0.17754603 0.12936036
0.69152907 0.19137969 0.13998654
0.72052055 0.20554051 0.15087404
0.74736041 0.22012922 0.16206521
0.77246931 0.23495760 0.17343099
0.79616730 0.24983893 0.18484897
0.81867741 0.26468653 0.19626102
0.84015303 0.27952542 0.20767444
0.86070481 0.29447413 0.21914055
0.88042693 0.30969428 0.23070988
0.89949976 0.32495580 0.24216280
0.91810123 0.34005054 0.25325896
0.93628073 0.35535573 0.26412767
0.95376199 0.37261245 0.27588980
0.96967575 0.39581331 0.29148765
0.98237569 0.43145316 0.31622650
0.99003818 0.48468524 0.35570074
0.99287530 0.54803449 0.40840185
0.99288920 0.60861955 0.46717394
0.99190386 0.66012062 0.52537873
0.99086278 0.70232413 0.57911653
0.99023905 0.73737143 0.62717542
0.99022456 0.76764349 0.67006519
0.99045659 0.79520953 0.70947253
0.99062938 0.82128647 0.74677850
0.99076793 0.84637102 0.78262889
0.99130562 0.87052117 0.81698114
0.99278305 0.89362793 0.84948699
0.99488800 0.91563299 0.88021448
0.99700958 0.93633356 0.90912867
0.99866726 0.95525271 0.93572614
0.99966549 0.97161218 0.95894099
1.00000000 0.98446002 0.97734902
1.00000000 0.99307844 0.98980369
1.00000000 0.99772761 0.99657197
1.00000000 0.99964420 0.99937969
0.00300555 0.00486822 0.00329114
0.00305329 0.00507810 0.00347128
0.00315576 0.00548194 0.00379242
0.00338836 0.00606600 0.00416482
0.00396415 0.00677832 0.00440233
0.00528858 0.00746442 0.00423070
0.00789906 0.00786392 0.00350528
0.01193465 0.00790587 0.00289530
0.01721370 0.00810387 0.00292573
0.02403047 0.00884166 0.00364201
0.03294433 0.01021669 0.00489549
0.04448014 0.01231087 0.00672047
0.05898722 0.01523286 0.00920740
0.07659572 0.01900021 0.01227302
0.09721645 0.02358703 0.01589281
0.12066563 0.02900386 0.02009099
0.14682847 0.03524007 0.02483858
0.17568169 0.04228203 0.03010334
0.20724916 0.05014118 0.03587501
0.24159493 0.05879475 0.04212964
0.27878170 0.06820878 0.04885111
0.31881051 0.07837329 0.05605893
0.36164587 0.08916347 0.06370505
0.40693572 0.10054741 0.07181185
0.45386468 0.11248792 0.08039562
0.50102295 0.12484456 0.08939326
0.54636753 0.13759640 0.09880560
0.58826870 0.15080568 0.10867173
0.62629922 0.16430509 0.11886984
0.66076032 0.17794075 0.12927832
0.69217755 0.19173345 0.13988203
0.72104268 0.20585767 0.15076173
0.74778684 0.22040881 0.16195239
0.77282103 0.23519932 0.17332132
0.79645884 0.25004484 0.18474447
0.81891932 0.26486086 0.19616306
0.84035342 0.27967403 0.20758434
0.86087008 0.29460407 0.21905992
0.88056262 0.30981121 0.23063955
0.89961135 0.32506072 0.24210090
0.91819350 0.34014307 0.25320305
0.93635726 0.35543688 0.26407662
0.95382463 0.37268753 0.27584612
0.96972414 0.39589437 0.29145973
0.98240751 0.43155756 0.31622849
0.99005201 0.48482130 0.35574323
0.99287778 0.54816720 0.40846686
0.99288711 0.60872544 0.46724166
0.99190085 0.66019608 0.52543808
0.99086030 0.70237515 0.57916375
0.99023753 0.73740583 0.62721116
0.99022403 0.76766752 0.67009174
0.99045653 0.79522738 0.70949274
0.99062935 0.82130043 0.74679451
0.99076784 0.84638220 0.78264189
0.99130561 0.87053010 0.81699167
0.99278334 0.89363493 0.84949529
0.99488843 0.91563837 0.88022094
0.99700997 0.93633760 0.90913362
0.99866752 0.95525563 0.93572981
0.99966561 0.97161412 0.95894353
1.00000000 0.98446114 0.97735054
1.00000000 0.99307892 0.98980437
1.00000000 0.99772771 0.99657213
1.00000000 0.99964413 0.99937961
0.00419237 0.00836759 0.00453947
0.00424182 0.00861274 0.00471281
0.00433874 0.00907643 0.00501599
0.00454707 0.00975222 0.00535845
0.00506915 0.01063340 0.00555957
0.00631799 0.01165648 0.00534787
0.00890219 0.01266038 0.00452415
0.01334098 0.01347152 0.00342463
0.01958519 0.01429860 0.00283956
0.02776774 0.01545282 0.00290396
0.03820991 0.01702378 0.00352137
0.05118073 0.01904724 0.00475867
0.06676742 0.02162677 0.00675776
0.08499865 0.02478357 0.00933800
0.10582398 0.02854130 0.01257439
0.12915995 0.03302382 0.01661254
0.15496454 0.03834529 0.02144000
0.18330389 0.04455093 0.02699644
0.21424705 0.05173648 0.03324569
0.24791321 0.05988511 0.04007651
0.28439919 0.06896978 0.04739605
0.32375437 0.07893355 0.05513869
0.36595737 0.08962771 0.06321267
0.41065333 0.10099294 0.07162548
0.45702518 0.11294036 0.08038538
0.50363665 0.12531043 0.08945504
0.54843823 0.13807595 0.09887231
0.58986129 0.15129289 0.10870834
0.62751804 0.16477891 0.11885761
0.66170556 0.17838494 0.12921708
0.69292572 0.19214202 0.13978462
0.72164582 0.20623097 0.15064523
0.74828123 0.22074186 0.16182718
0.77323077 0.23548902 0.17319409
0.79680010 0.25029189 0.18461980
0.81920370 0.26506931 0.19604422
0.84058981 0.27985038 0.20747395
0.86106562 0.29475634 0.21896040
0.88072361 0.30994612 0.23055205
0.89974404 0.32517985 0.24202338
0.91830334 0.34024687 0.25313293
0.93644835 0.35552743 0.26401288
0.95389909 0.37277176 0.27579189
0.96978157 0.39598668 0.29142490
0.98244521 0.43167840 0.31622961
0.99006834 0.48498042 0.35579272
0.99288066 0.54832298 0.40854331
0.99288457 0.60884993 0.46732146
0.99189724 0.66028482 0.52550802
0.99085735 0.70243509 0.57921933
0.99023575 0.73744620 0.62725316
0.99022342 0.76769569 0.67012289
0.99045645 0.79524830 0.70951646
0.99062932 0.82131682 0.74681331
0.99076773 0.84639533 0.78265716
0.99130560 0.87054059 0.81700403
0.99278367 0.89364316 0.84950504
0.99488893 0.91564471 0.88022852
0.99701043 0.93634235 0.90913943
0.99866782 0.95525905 0.93573413
0.99966575 0.97161641 0.95894652
1.00000000 0.98446247 0.97735233
1.00000000 0.99307948 0.98980516
1.00000000 0.99772782 0.99657230
1.00000000 0.99964405 0.99937952
0.00609204 0.01288862 0.00640954
0.00614427 0.01315525 0.00658342
0.00623322 0.01365651 0.00688518
0.00640217 0.01440119 0.00722462
0.00683410 0.01544196 0.00742519
0.00794436 0.01683941 0.00720612
0.01042416 0.01860812 0.00629401
0.01509023 0.02066640 0.00479925
0.02233128 0.02290943 0.00370877
0.03206969 0.02535406 0.00326938
0.04420451 0.02787788 0.00338485
0.05863636 0.03035796 0.00394717
0.07532295 0.03280549 0.00493465
0.09428415 0.03526712 0.00630014
0.11551338 0.03788077 0.00838007
0.13893781 0.04096887 0.01161580
0.16459151 0.04477263 0.01598435
0.19259230 0.04946185 0.02148682
0.22301802 0.05529851 0.02811106
0.25602170 0.06232291 0.03563792
0.29173562 0.07056473 0.04384634
0.33027193 0.07993872 0.05252260
0.37164624 0.09027275 0.06145379
0.41552305 0.10146467 0.07057301
0.46110525 0.11334559 0.07984034
0.50694512 0.12571173 0.08922862
0.55100659 0.13850614 0.09881429
0.59179908 0.15175741 0.10871254
0.62897547 0.16525658 0.11885387
0.66281983 0.17885510 0.12917431
0.69379910 0.19259303 0.13970087
0.72234638 0.20665760 0.15053304
0.74885505 0.22113241 0.16169662
0.77370740 0.23583482 0.17305369
0.79719863 0.25058998 0.18447663
0.81953729 0.26532196 0.19590404
0.84086831 0.28006371 0.20734139
0.86129691 0.29493892 0.21883928
0.88091471 0.31010560 0.23044436
0.89990202 0.32531847 0.24192723
0.91843436 0.34036597 0.25304573
0.93655704 0.35563049 0.26393384
0.95398786 0.37286776 0.27572495
0.96984993 0.39609303 0.29138174
0.98249004 0.43181927 0.31622970
0.99008774 0.48516727 0.35585059
0.99288406 0.54850646 0.40863342
0.99288154 0.60899675 0.46741570
0.99189296 0.66038953 0.52559061
0.99085392 0.70250580 0.57928490
0.99023371 0.73749379 0.62730262
0.99022276 0.76772889 0.67015954
0.99045641 0.79527297 0.70954437
0.99062929 0.82133615 0.74683545
0.99076758 0.84641084 0.78267517
0.99130557 0.87055298 0.81701862
0.99278404 0.89365288 0.84951655
0.99488952 0.91565218 0.88023747
0.99701097 0.93634796 0.90914628
0.99866818 0.95526308 0.93573922
0.99966591 0.97161910 0.95895004
1.00000000 0.98446402 0.97735444
1.00000000 0.99308014 0.98980609
1.00000000 0.99772795 0.99657251
1.00000000 0.99964395 0.99937941
0.00873151 0.01863609 0.00887322
0.00879102 0.01892062 0.00905160
0.00888523 0.01946031 0.00936549
0.00904156 0.02028989 0.00973193
0.00942544 0.02153413 0.00998208
0.01044671 0.02338874 0.00982329
0.01284140 0.02605277 0.00890617
0.01761964 0.02958646 0.00717674
0.02565578 0.03372812 0.00565296
0.03680317 0.03806798 0.00482098
0.05045702 0.04206914 0.00459779
0.06614134 0.04545431 0.00473754
0.08369017 0.04821858 0.00504591
0.10316203 0.05047083 0.00545988
0.12470066 0.05238365 0.00616964
0.14841962 0.05421246 0.00759006
0.17441701 0.05621831 0.01016495
0.20266799 0.05881279 0.01439051
0.23309290 0.06251999 0.02051352
0.26581421 0.06754931 0.02826685
0.30096947 0.07411964 0.03728431
0.33872565 0.08219700 0.04715397
0.37916624 0.09162422 0.05740034
0.42201069 0.10226210 0.06776443
0.46652362 0.11384152 0.07806427
0.51128553 0.12608443 0.08821876
0.55432139 0.13886827 0.09831099
0.59425552 0.15215367 0.10849381
0.63078654 0.16568626 0.11875629
0.66417638 0.17930533 0.12910227
0.69484294 0.19305252 0.13961372
0.72317195 0.20711710 0.15042343
0.74952543 0.22157193 0.16156501
0.77426228 0.23623714 0.17290533
0.79766280 0.25094531 0.18431886
0.81992693 0.26562802 0.19574436
0.84119491 0.28032428 0.20718663
0.86156937 0.29516176 0.21869517
0.88114083 0.31029844 0.23031423
0.90008970 0.32548375 0.24180965
0.91859045 0.34050591 0.25293842
0.93668670 0.35575029 0.26383653
0.95409376 0.37297895 0.27564271
0.96993141 0.39621677 0.29132852
0.98254343 0.43198435 0.31622845
0.99011086 0.48538730 0.35591836
0.99288813 0.54872293 0.40873976
0.99287799 0.60917014 0.46752710
0.99188798 0.66051323 0.52568821
0.99085001 0.70258929 0.57936221
0.99023153 0.73754990 0.62736077
0.99022216 0.76776803 0.67020260
0.99045644 0.79530208 0.70957722
0.99062929 0.82135900 0.74686158
0.99076741 0.84642918 0.78269645
0.99130553 0.87056764 0.81703588
0.99278448 0.89366438 0.84953017
0.99489022 0.91566102 0.88024805
0.99701161 0.93635458 0.90915439
0.99866860 0.95526785 0.93574523
0.99966610 0.97162229 0.95895420
1.00000000 0.98446586 0.97735693
1.00000000 0.99308092 0.98980719
1.00000000 0.99772810 0.99657276
1.00000000 0.99964383 0.99937928
0.01225098 0.02611217 0.01199795
0.01233487 0.02643438 0.01219009
0.01247059 0.02705148 0.01253639
0.01267450 0.02802485 0.01296559
0.01309517 0.02954856 0.01332113
0.01412321 0.03194020 0.01330403
0.01649927 0.03555750 0.01250595
0.02131714 0.04058496 0.01071676
0.02967921 0.04666857 0.00868480
0.04168124 0.05295292 0.00739059
0.05644394 0.05858689 0.00685698
0.07313861 0.06313360 0.00677092
0.09139199 0.06657144 0.00679480
0.11124301 0.06907506 0.00673974
0.13295095 0.07085725 0.00662734
0.15681463 0.07211665 0.00669149
0.18308152 0.07303039 0.00728220
0.21182808 0.07388552 0.00902426
0.24296337 0.07513727 0.01269867
0.27626800 0.07741368 0.01898310
0.31159843 0.08132512 0.02769051
0.34904153 0.08710167 0.03834485
0.38875047 0.09472370 0.05001219
0.43052169 0.10408780 0.06207558
0.47373597 0.11485220 0.07404455
0.51707618 0.12664874 0.08562184
0.55872313 0.13924787 0.09678436
0.59748749 0.15248368 0.10766706
0.63313380 0.16602603 0.11832593
0.66589870 0.17967761 0.12886321
0.69613715 0.19346448 0.13945085
0.72417227 0.20756533 0.15028357
0.75032259 0.22203135 0.16142121
0.77491382 0.23668109 0.17274823
0.79820430 0.25135427 0.18414940
0.82038076 0.26599172 0.19556839
0.84157593 0.28064092 0.20701174
0.86188837 0.29543568 0.21852867
0.88140684 0.31053532 0.23016077
0.90031156 0.32568501 0.24166861
0.91877574 0.34067422 0.25280822
0.93684103 0.35589258 0.26371784
0.95421994 0.37310987 0.27554221
0.97002850 0.39636220 0.29126314
0.98260705 0.43217874 0.31622539
0.99013846 0.48564692 0.35599770
0.99289308 0.54897858 0.40886523
0.99287388 0.60937499 0.46765874
0.99188225 0.66065933 0.52580346
0.99084570 0.70268775 0.57945321
0.99022940 0.73761588 0.62742888
0.99022177 0.76781403 0.67025304
0.99045665 0.79533637 0.70961581
0.99062935 0.82138598 0.74689237
0.99076723 0.84645088 0.78272160
0.99130548 0.87058499 0.81705629
0.99278500 0.89367799 0.84954628
0.99489103 0.91567148 0.88026058
0.99701236 0.93636242 0.90916398
0.99866910 0.95527348 0.93575234
0.99966633 0.97162605 0.95895911
1.00000000 0.98446804 0.97735987
1.00000000 0.99308184 0.98980849
1.00000000 0.99772829 0.99657306
1.00000000 0.99964369 0.99937913
0.01685570 0.03589540 0.01589630
0.01698399 0.03628896 0.01611100
0.01720467 0.03704978 0.01650960
0.01752751 0.03826048 0.01703620
0.01808331 0.04016811 0.01755099
0.01922549 0.04317402 0.01775367
0.02163627 0.04772876 0.01717257
0.02634608 0.05405150 0.01539782
0.03448253 0.06169130 0.01282165
0.04659711 0.06955198 0.01086172
0.06188093 0.07664170 0.00987497
