DIT_DOCS/ARRI_LogC4_v1_LUT_Package/LUTs/ARRI_LogC4-to-Gamma26_P3-DCI_v1-65.cube
LUT_3D_SIZE 65
0.00000000 0.00000000 0.00000000
0.00000000 0.00028329 0.00016192
0.00000000 0.00127921 0.00108048
0.00000000 0.00263655 0.00240396
0.00078017 0.00391598 0.00383823
0.00356676 0.00444229 0.00491866
0.00894203 0.00384028 0.00547777
0.01599681 0.00337698 0.00669858
0.02452466 0.00340860 0.00885706
0.03500623 0.00397844 0.01192095
0.04829014 0.00504316 0.01578346
0.06518700 0.00625116 0.02028371
0.08629171 0.00747724 0.02529702
0.11199185 0.00846641 0.03074695
0.14242722 0.00926057 0.03663849
0.17746557 0.01069151 0.04303980
0.21683211 0.01176401 0.04995146
0.26007107 0.01224511 0.05739937
0.30661929 0.01292416 0.06544288
0.35591063 0.01477637 0.07413468
0.40735176 0.01768647 0.08346981
0.46022907 0.02204916 0.09340973
0.51373580 0.02818926 0.10386071
0.56709407 0.03461805 0.11462670
0.61960379 0.04016127 0.12549121
0.67074681 0.04360832 0.13621569
0.72011951 0.04655467 0.14669540
0.76765796 0.04616436 0.15668314
0.81340076 0.04101154 0.16602427
0.85731130 0.03162695 0.17475113
0.89888308 0.02348619 0.18334152
0.93668879 0.02808914 0.19295826
0.96803566 0.06085744 0.20558245
0.98949984 0.12640178 0.22349863
0.99981689 0.20562733 0.24713722
1.00000000 0.27656958 0.27330254
1.00000000 0.33258138 0.29959908
1.00000000 0.37591574 0.32521370
1.00000000 0.41147927 0.35045740
1.00000000 0.44345562 0.37603283
0.99984430 0.47448590 0.40266077
0.99982298 0.50583926 0.43085917
0.99986320 0.53816598 0.46113786
0.99990376 0.57161284 0.49373930
0.99995269 0.60605933 0.52865225
0.99998516 0.64142230 0.56588276
1.00000000 0.67749740 0.60522305
1.00000000 0.71396593 0.64626878
1.00000000 0.75039657 0.68843557
1.00000000 0.78619204 0.73084145
1.00000000 0.82070237 0.77254251
1.00000000 0.85325526 0.81256283
0.99999988 0.88317332 0.84983584
0.99999984 0.90985365 0.88336100
0.99999989 0.93286689 0.91252104
0.99999995 0.95197303 0.93696303
0.99999998 0.96714535 0.95657297
1.00000000 0.97857844 0.97149979
1.00000000 0.98667212 0.98216470
1.00000000 0.99199556 0.98923625
1.00000000 0.99523004 0.99356290
1.00000000 0.99707404 0.99604407
1.00000000 0.99810806 0.99744138
1.00000000 0.99869345 0.99823400
1.00000000 0.99897810 0.99861944
0.00042403 0.00000000 0.00010469
0.00036543 0.00034980 0.00055624
0.00028983 0.00132433 0.00148436
0.00037856 0.00265943 0.00280645
0.00123102 0.00392792 0.00421301
0.00399755 0.00442675 0.00523323
0.00941334 0.00375676 0.00571190
0.01652501 0.00323189 0.00688592
0.02509499 0.00322405 0.00903008
0.03561141 0.00376967 0.01209867
0.04892156 0.00481625 0.01596622
0.06583523 0.00602336 0.02046120
0.08695011 0.00726994 0.02545472
0.11265751 0.00830171 0.03087126
0.14310270 0.00912775 0.03671896
0.17815905 0.01053430 0.04307092
0.21755402 0.01158746 0.04993535
0.26083210 0.01205502 0.05734185
0.30742477 0.01269995 0.06534990
0.35675091 0.01465917 0.07401590
0.40820787 0.01767050 0.08333119
0.46107803 0.02203781 0.09325412
0.51455471 0.02813260 0.10369149
0.56786655 0.03444740 0.11444547
0.62031929 0.03987220 0.12530087
0.67139593 0.04335264 0.13602574
0.72069946 0.04626227 0.14651295
0.76817000 0.04588940 0.15651324
0.81384832 0.04081381 0.16587025
0.85769587 0.03160268 0.17461796
0.89920216 0.02373599 0.18323705
0.93693821 0.02848148 0.19288961
0.96820522 0.06136145 0.20556098
0.98958237 0.12704325 0.22353223
0.99984517 0.20615846 0.24719804
1.00000000 0.27694074 0.27336903
1.00000000 0.33282301 0.29966044
1.00000000 0.37607447 0.32526773
1.00000000 0.41159052 0.35050486
1.00000000 0.44354094 0.37607550
0.99984323 0.47455584 0.40269974
0.99982264 0.50589821 0.43089475
0.99986338 0.53821613 0.46117044
0.99990425 0.57165518 0.49376884
0.99995307 0.60609486 0.52867890
0.99998536 0.64145193 0.56590659
1.00000000 0.67752183 0.60524398
1.00000000 0.71398591 0.64628691
1.00000000 0.75041270 0.68845098
1.00000000 0.78620484 0.73085418
1.00000000 0.82071235 0.77255278
1.00000000 0.85326286 0.81257089
0.99999988 0.88317895 0.84984195
0.99999984 0.90985770 0.88336547
0.99999989 0.93286970 0.91252421
0.99999995 0.95197490 0.93696519
0.99999998 0.96714654 0.95657436
1.00000000 0.97857915 0.97150064
1.00000000 0.98667252 0.98216518
1.00000000 0.99199577 0.98923650
1.00000000 0.99523014 0.99356301
1.00000000 0.99707408 0.99604412
1.00000000 0.99810807 0.99744140
1.00000000 0.99869346 0.99823401
1.00000000 0.99897810 0.99861945
0.00147615 0.00011837 0.00094889
0.00141857 0.00057543 0.00141094
0.00133030 0.00149593 0.00233910
0.00138595 0.00277284 0.00363625
0.00216757 0.00400701 0.00496589
0.00487749 0.00446185 0.00584079
0.01034445 0.00367301 0.00613652
0.01754598 0.00302130 0.00719210
0.02618719 0.00291163 0.00928820
0.03675917 0.00338134 0.01235410
0.05010519 0.00435132 0.01622686
0.06703341 0.00552124 0.02071551
0.08814986 0.00678194 0.02568217
0.11385697 0.00788144 0.03105041
0.14431263 0.00877636 0.03683313
0.17940228 0.01011966 0.04311024
0.21885377 0.01113397 0.04990365
0.26220725 0.01156904 0.05724738
0.30887991 0.01215280 0.06520030
0.35826392 0.01430962 0.07382438
0.40974196 0.01750376 0.08310489
0.46259207 0.02187661 0.09299510
0.51601110 0.02782263 0.10340172
0.56923947 0.03382553 0.11412530
0.62159212 0.03891794 0.12495557
0.67254930 0.04241982 0.13567833
0.72172774 0.04538942 0.14617928
0.76907684 0.04513221 0.15620228
0.81463917 0.04029531 0.16558980
0.85837030 0.03159311 0.17438103
0.89976110 0.02427890 0.18305140
0.93737552 0.02934125 0.19276618
0.96850178 0.06233470 0.20552095
0.98972705 0.12817211 0.22358834
0.99989328 0.20708740 0.24730386
1.00000000 0.27759024 0.27348606
1.00000000 0.33324452 0.29976872
1.00000000 0.37634925 0.32536276
1.00000000 0.41178172 0.35058800
1.00000000 0.44368716 0.37615000
0.99984136 0.47467597 0.40276766
0.99982208 0.50599994 0.43095677
0.99986376 0.53830298 0.46122724
0.99990514 0.57172871 0.49382037
0.99995375 0.60615666 0.52872539
0.99998572 0.64150346 0.56594815
1.00000000 0.67756433 0.60528048
1.00000000 0.71402066 0.64631854
1.00000000 0.75044075 0.68847783
1.00000000 0.78622709 0.73087636
1.00000000 0.82072967 0.77257066
1.00000000 0.85327604 0.81258491
0.99999988 0.88318870 0.84985256
0.99999984 0.90986469 0.88337323
0.99999989 0.93287454 0.91252969
0.99999995 0.95197812 0.93696889
0.99999998 0.96714857 0.95657675
1.00000000 0.97858036 0.97150208
1.00000000 0.98667319 0.98216600
1.00000000 0.99199611 0.98923692
1.00000000 0.99523029 0.99356320
1.00000000 0.99707414 0.99604420
1.00000000 0.99810810 0.99744143
1.00000000 0.99869347 0.99823402
1.00000000 0.99897811 0.99861946
0.00286874 0.00076205 0.00228794
0.00282458 0.00118313 0.00275321
0.00275009 0.00202887 0.00366265
0.00280907 0.00321552 0.00489575
0.00355952 0.00438915 0.00608655
0.00617250 0.00482094 0.00670389
0.01169372 0.00390271 0.00667409
0.01903244 0.00305531 0.00749062
0.02780386 0.00273231 0.00946223
0.03847560 0.00300529 0.01248649
0.05187535 0.00377618 0.01634687
0.06881053 0.00480932 0.02082666
0.08990716 0.00600999 0.02577336
0.11559299 0.00713167 0.03110288
0.14605020 0.00806533 0.03683133
0.18118211 0.00930922 0.04304630
0.22071165 0.01027821 0.04978472
0.26416484 0.01065872 0.05708037
0.31093298 0.01114086 0.06498893
0.36037383 0.01356091 0.07357795
0.41185537 0.01698609 0.08282423
0.46465547 0.02133839 0.09267436
0.51798038 0.02699900 0.10303487
0.57108696 0.03245742 0.11370718
0.62329865 0.03702802 0.12449427
0.67407556 0.04088622 0.13522685
0.72307891 0.04413647 0.14574800
0.77026486 0.04413294 0.15579856
0.81566762 0.03983624 0.16523133
0.85924860 0.03176853 0.17407514
0.90049276 0.02505508 0.18280659
0.93795038 0.03046408 0.19259936
0.96889170 0.06359495 0.20546311
0.98991560 0.12961086 0.22365828
0.99995283 0.20828125 0.24744205
1.00000000 0.27843062 0.27364051
1.00000000 0.33379047 0.29991191
1.00000000 0.37670356 0.32548802
1.00000000 0.41202692 0.35069710
1.00000000 0.44387439 0.37624741
0.99983893 0.47483024 0.40285633
0.99982143 0.50613119 0.43103773
0.99986433 0.53841550 0.46130141
0.99990635 0.57182425 0.49388768
0.99995468 0.60623707 0.52878614
0.99998621 0.64157054 0.56600246
1.00000000 0.67761967 0.60532819
1.00000000 0.71406587 0.64635985
1.00000000 0.75047722 0.68851288
1.00000000 0.78625601 0.73090529
1.00000000 0.82075216 0.77259395
1.00000000 0.85329312 0.81260314
0.99999987 0.88320132 0.84986633
0.99999984 0.90987372 0.88338328
0.99999989 0.93288077 0.91253675
0.99999995 0.95198224 0.93697366
0.99999999 0.96715116 0.95657980
1.00000000 0.97858188 0.97150392
1.00000000 0.98667402 0.98216702
1.00000000 0.99199652 0.98923743
1.00000000 0.99523047 0.99356343
1.00000000 0.99707422 0.99604429
1.00000000 0.99810813 0.99744146
1.00000000 0.99869349 0.99823404
1.00000000 0.99897812 0.99861947
0.00407772 0.00227434 0.00403497
0.00406428 0.00266569 0.00448669
0.00404468 0.00344629 0.00534323
0.00417576 0.00454883 0.00645977
0.00499516 0.00567050 0.00745450
0.00758529 0.00614708 0.00772926
0.01322387 0.00519459 0.00720778
0.02085882 0.00411074 0.00759361
0.02995395 0.00341172 0.00928824
0.04088201 0.00329403 0.01216491
0.05443162 0.00366262 0.01594379
0.07141036 0.00437616 0.02038766
0.09248423 0.00533434 0.02532466
0.11813125 0.00631503 0.03064414
0.14857708 0.00714674 0.03636188
0.18374997 0.00817634 0.04257563
0.22335878 0.00905417 0.04933181
0.26690328 0.00933632 0.05665157
0.31373928 0.00967392 0.06458200
0.36318996 0.01230336 0.07319171
0.41461384 0.01592976 0.08244528
0.46729672 0.02022348 0.09227955
0.52046126 0.02551771 0.10260121
0.57338173 0.03039755 0.11322082
0.62537890 0.03484921 0.12397722
0.67592970 0.03883307 0.13470523
0.72471000 0.04256246 0.14524569
0.77168226 0.04322266 0.15533717
0.81689104 0.03958526 0.16481897
0.86029547 0.03214402 0.17371717
0.90137005 0.02591653 0.18251221
0.93864307 0.03159375 0.19239296
0.96936156 0.06494200 0.20538690
0.99013999 0.13122602 0.22373808
1.00000000 0.20965839 0.24760712
1.00000000 0.27941577 0.27382694
1.00000000 0.33443551 0.30008505
1.00000000 0.37712271 0.32563909
1.00000000 0.41231638 0.35082814
1.00000000 0.44409514 0.37636404
0.99983603 0.47501240 0.40296234
0.99982077 0.50628663 0.43113451
0.99986513 0.53854913 0.46139011
0.99990787 0.57193794 0.49396823
0.99995582 0.60633287 0.52885884
0.99998681 0.64165050 0.56606745
1.00000000 0.67768563 0.60538527
1.00000000 0.71411976 0.64640926
1.00000000 0.75052067 0.68855477
1.00000000 0.78629042 0.73093984
1.00000000 0.82077889 0.77262174
1.00000000 0.85331341 0.81262486
0.99999987 0.88321628 0.84988270
0.99999984 0.90988441 0.88339520
0.99999989 0.93288812 0.91254511
0.99999995 0.95198707 0.93697926
0.99999999 0.96715417 0.95658337
1.00000000 0.97858365 0.97150605
1.00000000 0.98667497 0.98216818
1.00000000 0.99199698 0.98923800
1.00000000 0.99523067 0.99356367
1.00000000 0.99707429 0.99604438
1.00000000 0.99810815 0.99744149
1.00000000 0.99869350 0.99823405
1.00000000 0.99897813 0.99861948
0.00433583 0.00539608 0.00601657
0.00432910 0.00579709 0.00644051
0.00433910 0.00658102 0.00721560
0.00455452 0.00767808 0.00816461
0.00555273 0.00883079 0.00889672
0.00839030 0.00946684 0.00882816
0.01429199 0.00881658 0.00767758
0.02262908 0.00756433 0.00734201
0.03252003 0.00634921 0.00848035
0.04410286 0.00565861 0.01097364
0.05809323 0.00539980 0.01448315
0.07529017 0.00556226 0.01878552
0.09642182 0.00597739 0.02369303
0.12205481 0.00650048 0.02901661
0.15248817 0.00691254 0.03477394
0.18768452 0.00740838 0.04108866
0.22733032 0.00795477 0.04799766
0.27089148 0.00797163 0.05549056
0.31768996 0.00807749 0.06359740
0.36702734 0.01060470 0.07237297
0.41826130 0.01428003 0.08176202
0.47069617 0.01849279 0.09168199
0.52357726 0.02353071 0.10203774
0.57618833 0.02841567 0.11266758
0.62786785 0.03314851 0.12342906
0.67811564 0.03740241 0.13416168
0.72661181 0.04163007 0.14472252
0.77332414 0.04294075 0.15485131
0.81830671 0.03985245 0.16437440
0.86151272 0.03281141 0.17331719
0.90239794 0.02681264 0.18217048
0.93945863 0.03266845 0.19214637
0.96991498 0.06631826 0.20529143
0.99040124 0.13298564 0.22382844
1.00000000 0.21120698 0.24780054
1.00000000 0.28054559 0.27404694
1.00000000 0.33518450 0.30028961
1.00000000 0.37761245 0.32581723
1.00000000 0.41265478 0.35098211
1.00000000 0.44435268 0.37650067
0.99983271 0.47522456 0.40308635
0.99982012 0.50646759 0.43124770
0.99986615 0.53870479 0.46149387
0.99990970 0.57207045 0.49406246
0.99995718 0.60644459 0.52894392
0.99998749 0.64174378 0.56614351
1.00000000 0.67776257 0.60545204
1.00000000 0.71418260 0.64646704
1.00000000 0.75057133 0.68860375
1.00000000 0.78633053 0.73098020
1.00000000 0.82081003 0.77265417
1.00000000 0.85333702 0.81265017
0.99999987 0.88323366 0.84990175
0.99999985 0.90989679 0.88340904
0.99999990 0.93289662 0.91255479
0.99999995 0.95199265 0.93698574
0.99999999 0.96715764 0.95658748
1.00000000 0.97858567 0.97150848
1.00000000 0.98667605 0.98216950
1.00000000 0.99199749 0.98923864
1.00000000 0.99523087 0.99356393
1.00000000 0.99707436 0.99604446
1.00000000 0.99810818 0.99744152
1.00000000 0.99869351 0.99823406
1.00000000 0.99897814 0.99861949
0.00327240 0.01071374 0.00824219
0.00321710 0.01117726 0.00863710
0.00315680 0.01206621 0.00933447
0.00328655 0.01331789 0.01012870
0.00425705 0.01474050 0.01060698
0.00727670 0.01588093 0.01015750
0.01382328 0.01604978 0.00842269
0.02359545 0.01494203 0.00695221
0.03508708 0.01340413 0.00705681
0.04807165 0.01227373 0.00870506
0.06313263 0.01137669 0.01153807
0.08100408 0.01082373 0.01541620
0.10245969 0.01042932 0.02017369
0.12821369 0.01009303 0.02540019
0.15867617 0.00958044 0.03115629
0.19385548 0.00892319 0.03765580
0.23342628 0.00847213 0.04486971
0.27683315 0.00761774 0.05273786
0.32338328 0.00699127 0.06127493
0.37238529 0.00885787 0.07048884
0.42320457 0.01230017 0.08028619
0.47517544 0.01641033 0.09053744
0.52757130 0.02147814 0.10112975
0.57969308 0.02676928 0.11191972
0.63090322 0.03214910 0.12278436
0.68072771 0.03693957 0.13357573
0.72884854 0.04172213 0.14418081
0.77523798 0.04355690 0.15434809
0.81995277 0.04078003 0.16390177
0.86293229 0.03383549 0.17287516
0.90360312 0.02778695 0.18177863
0.94041818 0.03372728 0.19185656
0.97056605 0.06775611 0.20517644
0.99070559 0.13492593 0.22393374
1.00000000 0.21296192 0.24802888
1.00000000 0.28185044 0.27430730
1.00000000 0.33606189 0.30053162
1.00000000 0.37819154 0.32602762
1.00000000 0.41305580 0.35116324
1.00000000 0.44465693 0.37666089
0.99982894 0.47547402 0.40323153
0.99981951 0.50667958 0.43138012
0.99986744 0.53888676 0.46161528
0.99991187 0.57222523 0.49417276
0.99995873 0.60657504 0.52904351
0.99998826 0.64185269 0.56623253
1.00000000 0.67785242 0.60553018
1.00000000 0.71425599 0.64653463
1.00000000 0.75063048 0.68866101
1.00000000 0.78637735 0.73102737
1.00000000 0.82084637 0.77269206
1.00000000 0.85336455 0.81267973
0.99999987 0.88325392 0.84992398
0.99999985 0.90991122 0.88342517
0.99999990 0.93290651 0.91256606
0.99999995 0.95199913 0.93699327
0.99999999 0.96716166 0.95659224
1.00000000 0.97858799 0.97151130
1.00000000 0.98667728 0.98217103
1.00000000 0.99199807 0.98923937
1.00000000 0.99523111 0.99356423
1.00000000 0.99707444 0.99604456
1.00000000 0.99810820 0.99744155
1.00000000 0.99869352 0.99823407
1.00000000 0.99897815 0.99861950
0.00248882 0.01775680 0.01150516
0.00236397 0.01828651 0.01189957
0.00220000 0.01928721 0.01257891
0.00212752 0.02070645 0.01331962
0.00282985 0.02243546 0.01369238
0.00551871 0.02420119 0.01304456
0.01187379 0.02552655 0.01085411
0.02301838 0.02593680 0.00780752
0.03679992 0.02561596 0.00607604
0.05225650 0.02511990 0.00605286
0.06945466 0.02439823 0.00754945
0.08888350 0.02337408 0.01044962
0.11124711 0.02228745 0.01467773
0.13746001 0.02094212 0.01936572
0.16808020 0.01898204 0.02476254
0.20317985 0.01638205 0.03134518
0.24249168 0.01373335 0.03885867
0.28548764 0.01079241 0.04721010
0.33149212 0.00846024 0.05644953
0.37985423 0.00847999 0.06648449
0.42995467 0.01103491 0.07713778
0.48116750 0.01478841 0.08817063
0.53280473 0.01976621 0.09939337
0.58419302 0.02547824 0.11064933
0.63472692 0.03151246 0.12182734
0.68394192 0.03737582 0.13283068
0.73154981 0.04282479 0.14355945
0.77752167 0.04502911 0.15379367
0.82190430 0.04231619 0.16338018
0.86461216 0.03519126 0.17237663
0.90503022 0.02885975 0.18132616
0.94155475 0.03480929 0.19151700
0.97133585 0.06929792 0.20504137
0.99106214 0.13709414 0.22406058
1.00000000 0.21496918 0.24830230
1.00000000 0.28336993 0.27461854
1.00000000 0.33709917 0.30082034
1.00000000 0.37888382 0.32627782
1.00000000 0.41353726 0.35137776
1.00000000 0.44502117 0.37684998
0.99982475 0.47577081 0.40340248
0.99981903 0.50693035 0.43153590
0.99986907 0.53910120 0.46175808
0.99991442 0.57240723 0.49430250
0.99996052 0.60672829 0.52916065
0.99998909 0.64198060 0.56633724
1.00000000 0.67795793 0.60562207
1.00000000 0.71434218 0.64661410
1.00000000 0.75069995 0.68872833
1.00000000 0.78643234 0.73108280
1.00000000 0.82088904 0.77273656
1.00000000 0.85339687 0.81271444
0.99999987 0.88327770 0.84995007
0.99999985 0.90992815 0.88344410
0.99999990 0.93291810 0.91257927
0.99999996 0.95200672 0.93700209
0.99999999 0.96716636 0.95659782
1.00000000 0.97859071 0.97151459
1.00000000 0.98667872 0.98217280
1.00000000 0.99199875 0.98924022
1.00000000 0.99523138 0.99356457
1.00000000 0.99707453 0.99604467
1.00000000 0.99810823 0.99744158
1.00000000 0.99869353 0.99823408
1.00000000 0.99897816 0.99861951
0.00250092 0.02644811 0.01592250
0.00228745 0.02701953 0.01632398
0.00190432 0.02808628 0.01701397
0.00152829 0.02960814 0.01776687
0.00185465 0.03156717 0.01814514
0.00401524 0.03389813 0.01743706
0.00981424 0.03642113 0.01487992
0.02120605 0.03883770 0.01051385
0.03726042 0.04088918 0.00679507
0.05599285 0.04271259 0.00492145
0.07648514 0.04413928 0.00494752
0.09859268 0.04479104 0.00643210
0.12283188 0.04448930 0.00899021
0.15011058 0.04284786 0.01204810
0.18112158 0.03943640 0.01614185
0.21608378 0.03439461 0.02219346
0.25493993 0.02847240 0.02945151
0.29727927 0.02174456 0.03792568
0.34245715 0.01599622 0.04788541
0.38989430 0.01251085 0.05904214
0.43897912 0.01280426 0.07107724
0.48912710 0.01515695 0.08353699
0.53969634 0.01935340 0.09602551
0.59005022 0.02516173 0.10829002
0.63962835 0.03187590 0.12019786
0.68799542 0.03884397 0.13169613
0.73490403 0.04485850 0.14271501
0.78032156 0.04721759 0.15309920
0.82427440 0.04431566 0.16275239
0.86663931 0.03676584 0.17178296
0.90674495 0.02997088 0.18078699
0.94291544 0.03589279 0.19111232
0.97225360 0.07094390 0.20488196
0.99148319 0.13951103 0.22421594
1.00000000 0.21726052 0.24863341
1.00000000 0.28513713 0.27499416
1.00000000 0.33832552 0.30116765
1.00000000 0.37971315 0.32657759
1.00000000 0.41411799 0.35163355
1.00000000 0.44546011 0.37707439
0.99982030 0.47612642 0.40360470
0.99981897 0.50722899 0.43171991
0.99987129 0.53935540 0.46192671
0.99991752 0.57262238 0.49445571
0.99996259 0.60690917 0.52929900
0.99999002 0.64213147 0.56646089
1.00000000 0.67808234 0.60573056
1.00000000 0.71444381 0.64670789
1.00000000 0.75078187 0.68880775
1.00000000 0.78649718 0.73114819
1.00000000 0.82093936 0.77278906
1.00000000 0.85343500 0.81275537
0.99999987 0.88330574 0.84998084
0.99999986 0.90994811 0.88346642
0.99999991 0.93293178 0.91259485
0.99999996 0.95201567 0.93701250
0.99999999 0.96717191 0.95660440
1.00000000 0.97859392 0.97151848
1.00000000 0.98668042 0.98217490
1.00000000 0.99199955 0.98924122
1.00000000 0.99523170 0.99356498
1.00000000 0.99707463 0.99604480
1.00000000 0.99810826 0.99744161
1.00000000 0.99869355 0.99823410
1.00000000 0.99897818 0.99861953
0.00317597 0.03725432 0.02153817
0.00293799 0.03785108 0.02195276
0.00247559 0.03895007 0.02267162
0.00193262 0.04051663 0.02347995
0.00183850 0.04260712 0.02394881
0.00327298 0.04534357 0.02332766
0.00800160 0.04885682 0.02066192
0.01859459 0.05318560 0.01551739
0.03637182 0.05812556 0.00971452
0.05894688 0.06350396 0.00581790
0.08402887 0.06863364 0.00418956
0.11011854 0.07243951 0.00428138
0.13709623 0.07436729 0.00532398
0.16579189 0.07411592 0.00681232
0.19718628 0.07137450 0.00897540
0.23191843 0.06588460 0.01281355
0.27021185 0.05739078 0.01817111
0.31180209 0.04596375 0.02539477
0.35605507 0.03538301 0.03527850
0.40248337 0.02641612 0.04725973
0.45043246 0.02188893 0.06090679
0.49933421 0.02063098 0.07544129
0.54859130 0.02243823 0.09000169
0.59761958 0.02736668 0.10405591
0.64593905 0.03414775 0.11733651
0.69317836 0.04174312 0.12979421
0.73915531 0.04791928 0.14139689
0.78383757 0.05005101 0.15209713
0.82722409 0.04661969 0.16190277
0.86914106 0.03837515 0.17101216
0.90884416 0.03097183 0.18010455
0.94456917 0.03688091 0.19060750
0.97336179 0.07263861 0.20468337
0.99198723 0.14216077 0.22440317
1.00000000 0.21984525 0.24903510
1.00000000 0.28717188 0.27544952
1.00000000 0.33976277 0.30158767
1.00000000 0.38069991 0.32693864
1.00000000 0.41481577 0.35194001
1.00000000 0.44598870 0.37734173
0.99981626 0.47655317 0.40384450
0.99982003 0.50758561 0.43193769
0.99987458 0.53965770 0.46212622
0.99992144 0.57287750 0.49463700
0.99996509 0.60712328 0.52946270
0.99999107 0.64230986 0.56660718
1.00000000 0.67822939 0.60585888
1.00000000 0.71456390 0.64681881
1.00000000 0.75087867 0.68890166
1.00000000 0.78657382 0.73122549
1.00000000 0.82099883 0.77285111
1.00000000 0.85348005 0.81280375
0.99999987 0.88333889 0.85001721
0.99999987 0.90997170 0.88349279
0.99999992 0.93294794 0.91261327
0.99999996 0.95202625 0.93702479
0.99999999 0.96717846 0.95661217
1.00000000 0.97859772 0.97152307
1.00000000 0.98668243 0.98217738
1.00000000 0.99200049 0.98924240
1.00000000 0.99523208 0.99356545
1.00000000 0.99707476 0.99604496
1.00000000 0.99810830 0.99744166
1.00000000 0.99869357 0.99823412
1.00000000 0.99897820 0.99861954
0.00445031 0.05093008 0.02848771
0.00423393 0.05153800 0.02890465
0.00376852 0.05263987 0.02963816
0.00311047 0.05419733 0.03049668
0.00260183 0.05631630 0.03108106
0.00309378 0.05926566 0.03064001
0.00641186 0.06345603 0.02809319
0.01579940 0.06932535 0.02259271
0.03394606 0.07705707 0.01506728
0.06008597 0.08640456 0.00891622
0.09049434 0.09606697 0.00525716
0.12180619 0.10396226 0.00385450
0.15265534 0.10900923 0.00367657
0.18348589 0.11102292 0.00392465
0.21549811 0.11001893 0.00462376
0.24982828 0.10580754 0.00623349
0.28718058 0.09792430 0.00916551
0.32773037 0.08611851 0.01359613
0.37114828 0.07168595 0.02098145
0.41680021 0.05586442 0.03204197
0.46382584 0.04394186 0.04647286
0.51160515 0.03610940 0.06321147
0.55953567 0.03298835 0.08048761
0.60709097 0.03500077 0.09716982
0.65391831 0.04030513 0.11261750
0.69977236 0.04722788 0.12665318
0.74457821 0.05256498 0.13925629
0.78831972 0.05370319 0.15052835
0.83097132 0.04915054 0.16063477
0.87229940 0.03980408 0.16991448
0.91146947 0.03165654 0.17917126
0.94661750 0.03761871 0.18993267
0.97472362 0.07429121 0.20441001
0.99260338 0.14500711 0.22461609
1.00000000 0.22271849 0.24951730
1.00000000 0.28948261 0.27600016
1.00000000 0.34142424 0.30209585
1.00000000 0.38185922 0.32737436
1.00000000 0.41564594 0.35230806
0.99999911 0.44662136 0.37766077
0.99981405 0.47706378 0.40412900
0.99982346 0.50801135 0.43219557
0.99987975 0.54001765 0.46236247
0.99992663 0.57318056 0.49485173
0.99996820 0.60737714 0.52965661
0.99999232 0.64252110 0.56678043
1.00000000 0.67840336 0.60601079
1.00000000 0.71470592 0.64695008
1.00000000 0.75099313 0.68901276
1.00000000 0.78666442 0.73131692
1.00000000 0.82106915 0.77292449
1.00000000 0.85353334 0.81286096
0.99999988 0.88337809 0.85006021
0.99999988 0.90999961 0.88352398
0.99999992 0.93296706 0.91263504
0.99999997 0.95203876 0.93703933
0.99999999 0.96718622 0.95662137
1.00000000 0.97860221 0.97152850
1.00000000 0.98668481 0.98218031
1.00000000 0.99200161 0.98924380
1.00000000 0.99523253 0.99356602
1.00000000 0.99707491 0.99604515
1.00000000 0.99810835 0.99744171
1.00000000 0.99869360 0.99823415
1.00000000 0.99897822 0.99861957
0.00545241 0.06813706 0.03682804
0.00525594 0.06874347 0.03723127
0.00479849 0.06982458 0.03795305
0.00407452 0.07133208 0.03883613
0.00333365 0.07339871 0.03953308
0.00317806 0.07639535 0.03933458
0.00526970 0.08095359 0.03710287
0.01280411 0.08787683 0.03164050
0.02966506 0.09779182 0.02299498
0.05798366 0.11053404 0.01422470
0.09319369 0.12445300 0.00817629
