DIT_DOCS/ARRI_LogC4_v1_LUT_Package/LUTs/ARRI_LogC4-to-St2084-1K_P3-D65_DW100_v1-65.cube
LUT_3D_SIZE 65
0.00000000 0.00000000 0.00000000
0.00000000 0.00000000 0.00000000
0.00000000 0.00026019 0.00019094
0.00000000 0.00080454 0.00068411
0.00000000 0.00134851 0.00125618
0.00104036 0.00154677 0.00168791
0.00445694 0.00115754 0.00188965
0.00975041 0.00084946 0.00257727
0.01707271 0.00086310 0.00403164
0.02669894 0.00119867 0.00631256
0.03926483 0.00167045 0.00946936
0.05530047 0.00222983 0.01357655
0.07505848 0.00302514 0.01874119
0.09855109 0.00406222 0.02506107
0.12545488 0.00551380 0.03261738
0.15499468 0.00719678 0.04135485
0.18606670 0.00915640 0.05113690
0.21764820 0.01144394 0.06180906
0.24903157 0.01335602 0.07319879
0.27974453 0.01597597 0.08525787
0.30957541 0.01812417 0.09784960
0.33838189 0.02084828 0.11092679
0.36611557 0.02321234 0.12435507
0.39273466 0.02587409 0.13803208
0.41818887 0.03188100 0.15190295
0.44250421 0.03748620 0.16576797
0.46568744 0.04224262 0.17951472
0.48772852 0.04873310 0.19312304
0.50867914 0.05474506 0.20647659
0.52861495 0.05739828 0.21945401
0.54758778 0.05748439 0.23204412
0.56562615 0.05981985 0.24433619
0.58277619 0.06865982 0.25640009
0.59914480 0.07763058 0.26815550
0.61483584 0.08060638 0.27952872
0.62993092 0.07375517 0.29049963
0.64449010 0.05679904 0.30110062
0.65855882 0.03600861 0.31140154
0.67217790 0.02823474 0.32148688
0.68544596 0.03635061 0.33127945
0.69846289 0.04884554 0.34068151
0.71124267 0.05962863 0.34976554
0.72357794 0.07110642 0.35904267
0.73486004 0.09735510 0.36980397
0.74396285 0.16961722 0.38432175
0.74966456 0.27858738 0.40480733
0.75182710 0.38185881 0.42999811
0.75182710 0.45890713 0.45655601
0.75182710 0.51004501 0.48223264
0.75182710 0.54363701 0.50639154
0.75182710 0.56772144 0.52913069
0.75182710 0.58750519 0.55078844
0.75179745 0.60582461 0.57194943
0.75179507 0.62376211 0.59298769
0.75180667 0.64146866 0.61396159
0.75181793 0.65873476 0.63465015
0.75182477 0.67531647 0.65472290
0.75182710 0.69111480 0.67408388
0.75182710 0.70597987 0.69257604
0.75182710 0.71957678 0.70976498
0.75182710 0.73134861 0.72487574
0.75182710 0.74060565 0.73691730
0.75182710 0.74682261 0.74509388
0.75182705 0.75017970 0.74955016
0.75182703 0.75156481 0.75140303
0.00000000 0.00000000 0.00000000
0.00000000 0.00000000 0.00000000
0.00000000 0.00016554 0.00032985
0.00000000 0.00071544 0.00085141
0.00000000 0.00126849 0.00144054
0.00125957 0.00145686 0.00186432
0.00475587 0.00101801 0.00203443
0.01013495 0.00065942 0.00271073
0.01751678 0.00063460 0.00417619
0.02718747 0.00093274 0.00648181
0.03981300 0.00137866 0.00967424
0.05593724 0.00193194 0.01382397
0.07582621 0.00276760 0.01904113
0.09949621 0.00385334 0.02541912
0.12658006 0.00534507 0.03302660
0.15621931 0.00710491 0.04179103
0.18728758 0.00908699 0.05156184
0.21878221 0.01144664 0.06219701
0.25003663 0.01337340 0.07353103
0.28061038 0.01592654 0.08552488
0.31030849 0.01801755 0.09805208
0.33899448 0.02088834 0.11107516
0.36662416 0.02344236 0.12445797
0.39315517 0.02628699 0.13809904
0.41853687 0.03222991 0.15194030
0.44279243 0.03771947 0.16578278
0.46592579 0.04240831 0.17951497
0.48792498 0.04891704 0.19311593
0.50884114 0.05493813 0.20646552
0.52874863 0.05760913 0.21944119
0.54769801 0.05774436 0.23203139
0.56571685 0.06014697 0.24432492
0.58285100 0.06895537 0.25639012
0.59920676 0.07785506 0.26814629
0.61488736 0.08075926 0.27951986
0.62997388 0.07385217 0.29049100
0.64452594 0.05686275 0.30109236
0.65858856 0.03608652 0.31139425
0.67220248 0.02840082 0.32148077
0.68546631 0.03666112 0.33127427
0.69847979 0.04917115 0.34067698
0.71125671 0.05988404 0.34976154
0.72358946 0.07126035 0.35903938
0.73486907 0.09742132 0.36980217
0.74396900 0.16965150 0.38432311
0.74966754 0.27862343 0.40481317
0.75182710 0.38189084 0.43000600
0.75182710 0.45893142 0.45656382
0.75182710 0.51006183 0.48223949
0.75182710 0.54364817 0.50639724
0.75182710 0.56772883 0.52913535
0.75182710 0.58751024 0.55079220
0.75179745 0.60582827 0.57195252
0.75179508 0.62376492 0.59299028
0.75180667 0.64147088 0.61396376
0.75181793 0.65873652 0.63465194
0.75182477 0.67531786 0.65472434
0.75182710 0.69111587 0.67408501
0.75182710 0.70598067 0.69257692
0.75182710 0.71957736 0.70976564
0.75182710 0.73134901 0.72487620
0.75182710 0.74060588 0.73691759
0.75182710 0.74682272 0.74509402
0.75182705 0.75017974 0.74955021
0.75182703 0.75156482 0.75140304
0.00034925 0.00000000 0.00008002
0.00023183 0.00000000 0.00026203
0.00002598 0.00003939 0.00064484
0.00000000 0.00059391 0.00121211
0.00016816 0.00115795 0.00182067
0.00172073 0.00133223 0.00220967
0.00535823 0.00080349 0.00229969
0.01089369 0.00033930 0.00293477
0.01838858 0.00022051 0.00440620
0.02815335 0.00042739 0.00675189
0.04090061 0.00080457 0.01001022
0.05720238 0.00132742 0.01424490
0.07734450 0.00221577 0.01956958
0.10133456 0.00337568 0.02606559
0.12870584 0.00493436 0.03377144
0.15846923 0.00685033 0.04258750
0.18948305 0.00892016 0.05234383
0.22079278 0.01140581 0.06291690
0.25180070 0.01339989 0.07415687
0.28212061 0.01579632 0.08603554
0.31158139 0.01778817 0.09844745
0.34005511 0.02092353 0.11137070
0.36750342 0.02380027 0.12466667
0.39388189 0.02693367 0.13823664
0.41913841 0.03279490 0.15201856
0.44329105 0.03810104 0.16581538
0.46633866 0.04267773 0.17951735
0.48826581 0.04921447 0.19310221
0.50912259 0.05525483 0.20644326
0.52898116 0.05795754 0.21941536
0.54788995 0.05817069 0.23200583
0.56587499 0.06066933 0.24430222
0.58298157 0.06942483 0.25637011
0.59931496 0.07820791 0.26812813
0.61497733 0.08099941 0.27950286
0.63004888 0.07401926 0.29047482
0.64458844 0.05702372 0.30107727
0.65864042 0.03633594 0.31138101
0.67224533 0.02883563 0.32146975
0.68550178 0.03729390 0.33126498
0.69850926 0.04978272 0.34066885
0.71128122 0.06034200 0.34975427
0.72360960 0.07152541 0.35903332
0.73488481 0.09753682 0.36979888
0.74397969 0.16971259 0.38432544
0.74967274 0.27868600 0.40482326
0.75182710 0.38194687 0.43001980
0.75182710 0.45897418 0.45657757
0.75182710 0.51009138 0.48225154
0.75182710 0.54366759 0.50640724
0.75182710 0.56774154 0.52914347
0.75182710 0.58751885 0.55079875
0.75179743 0.60583450 0.57195790
0.75179509 0.62376972 0.59299477
0.75180669 0.64147469 0.61396753
0.75181794 0.65873957 0.63465505
0.75182477 0.67532025 0.65472684
0.75182710 0.69111771 0.67408699
0.75182710 0.70598206 0.69257846
0.75182710 0.71957837 0.70976680
0.75182710 0.73134969 0.72487701
0.75182710 0.74060629 0.73691809
0.75182710 0.74682291 0.74509426
0.75182705 0.75017980 0.74955030
0.75182703 0.75156482 0.75140305
0.00087566 0.00000000 0.00053014
0.00077490 0.00000000 0.00074396
0.00059642 0.00007741 0.00117711
0.00047549 0.00063725 0.00179135
0.00081660 0.00121568 0.00240579
0.00243432 0.00140022 0.00270880
0.00628010 0.00077174 0.00263820
0.01206774 0.00014929 0.00316595
0.01976924 0.00000000 0.00460407
0.02972935 0.00000000 0.00698009
0.04270493 0.00012788 0.01031672
0.05930251 0.00055656 0.01466994
0.07982073 0.00145409 0.02015618
0.10422309 0.00265368 0.02683167
0.13188638 0.00425231 0.03468435
0.16169195 0.00637513 0.04358734
0.19252407 0.00860885 0.05335183
0.22351504 0.01117598 0.06386845
0.25415065 0.01323756 0.07501183
0.28410863 0.01546580 0.08676184
0.31324221 0.01737861 0.09903677
0.34143050 0.02089173 0.11183213
0.36863925 0.02417286 0.12500758
0.39481873 0.02765487 0.13847189
0.41991339 0.03343547 0.15216131
0.44393379 0.03852484 0.16588393
0.46687163 0.04296674 0.17953417
0.48870672 0.04954796 0.19308891
0.50948752 0.05562066 0.20641299
0.52928336 0.05836387 0.21937734
0.54813993 0.05866897 0.23196699
0.56608133 0.06128091 0.24426715
0.58315218 0.06997466 0.25633925
0.59945646 0.07861862 0.26810060
0.61509505 0.08128507 0.27947772
0.63014700 0.07425612 0.29045155
0.64467021 0.05733971 0.30105598
0.65870828 0.03689274 0.31136244
0.67230138 0.02970901 0.32145442
0.68554815 0.03831366 0.33125217
0.69854779 0.05066549 0.34065765
0.71131331 0.06096069 0.34974419
0.72363603 0.07186824 0.35902477
0.73490544 0.09769004 0.36979407
0.74399365 0.16979802 0.38432821
0.74967946 0.27877130 0.40483636
0.75182710 0.38202229 0.43003797
0.75182710 0.45903120 0.45659575
0.75182710 0.51013032 0.48226746
0.75182710 0.54369280 0.50642039
0.75182710 0.56775780 0.52915410
0.75182710 0.58752974 0.55080728
0.75179742 0.60584238 0.57196488
0.75179511 0.62377581 0.59300060
0.75180671 0.64147958 0.61397242
0.75181796 0.65874349 0.63465910
0.75182478 0.67532334 0.65473010
0.75182710 0.69112011 0.67408956
0.75182710 0.70598387 0.69258045
0.75182710 0.71957968 0.70976829
0.75182710 0.73135058 0.72487806
0.75182710 0.74060682 0.73691873
0.75182710 0.74682315 0.74509456
0.75182705 0.75017987 0.74955039
0.75182703 0.75156482 0.75140305
0.00134907 0.00011772 0.00120048
0.00127062 0.00031389 0.00144180
0.00113381 0.00071732 0.00191224
0.00107656 0.00131156 0.00254933
0.00151574 0.00194367 0.00314105
0.00327697 0.00221401 0.00330775
0.00744645 0.00157092 0.00296944
0.01368663 0.00077938 0.00326795
0.02182473 0.00023565 0.00456764
0.03222442 0.00000423 0.00690435
0.04565608 0.00000475 0.01027750
0.06274690 0.00023293 0.01474042
0.08377957 0.00100308 0.02041470
0.10860974 0.00209747 0.02731290
0.13643488 0.00357594 0.03535725
0.16607241 0.00578829 0.04440493
0.19650013 0.00810902 0.05425135
0.22697737 0.01061186 0.06478769
0.25707897 0.01271611 0.07591121
0.28654650 0.01484319 0.08759674
0.31525228 0.01678449 0.09977862
0.34307870 0.02074592 0.11246340
0.36999031 0.02444810 0.12551171
0.39592705 0.02830594 0.13884773
0.42082703 0.03401984 0.15241240
0.44469035 0.03888837 0.16602638
0.46749911 0.04320041 0.17959441
0.48922660 0.04986167 0.19309564
0.50991893 0.05598680 0.20638627
0.52964176 0.05877458 0.21933262
0.54843741 0.05917390 0.23191643
0.56632761 0.06190982 0.24421910
0.58335630 0.07054308 0.25629607
0.59962606 0.07904199 0.26806212
0.61523630 0.08158809 0.27944313
0.63026480 0.07455259 0.29042023
0.64476840 0.05782655 0.30102785
0.65878980 0.03781555 0.31133812
0.67236875 0.03113000 0.32143433
0.68560387 0.03972742 0.33123547
0.69859410 0.05177169 0.34064310
0.71135191 0.06168690 0.34973105
0.72366784 0.07225944 0.35901356
0.73493028 0.09787367 0.36978755
0.74401038 0.16990763 0.38433108
0.74968740 0.27888025 0.40485196
0.75182710 0.38211700 0.43005989
0.75182710 0.45910158 0.45661774
0.75182710 0.51017747 0.48228669
0.75182710 0.54372273 0.50643620
0.75182710 0.56777675 0.52916682
0.75182710 0.58754233 0.55081746
0.75179740 0.60585148 0.57197320
0.75179513 0.62378292 0.59300754
0.75180674 0.64148532 0.61397824
0.75181798 0.65874813 0.63466392
0.75182479 0.67532701 0.65473397
0.75182710 0.69112295 0.67409262
0.75182710 0.70598601 0.69258283
0.75182710 0.71958123 0.70977007
0.75182710 0.73135162 0.72487930
0.75182710 0.74060743 0.73691948
0.75182710 0.74682342 0.74509490
0.75182705 0.75017994 0.74955048
0.75182703 0.75156480 0.75140303
0.00140050 0.00194122 0.00206249
0.00132268 0.00218895 0.00232022
0.00119696 0.00268157 0.00280265
0.00119485 0.00339590 0.00341657
0.00178941 0.00419363 0.00392534
0.00385947 0.00470396 0.00394098
0.00851352 0.00436099 0.00323665
0.01561090 0.00352480 0.00310284
0.02468760 0.00271904 0.00404203
0.03603628 0.00221419 0.00614917
0.05037409 0.00194367 0.00939032
0.06829414 0.00186913 0.01383579
0.08999587 0.00226409 0.01962647
0.11515263 0.00296816 0.02670971
0.14285259 0.00397968 0.03495044
0.17198441 0.00579743 0.04421483
0.20169116 0.00777669 0.05428792
0.23138963 0.00987054 0.06503617
0.26074277 0.01188796 0.07635631
0.28954914 0.01399762 0.08818793
0.31769203 0.01619538 0.10045632
0.34505490 0.02047068 0.11315392
0.37159216 0.02448871 0.12614578
0.39722771 0.02871668 0.13938011
0.42189000 0.03439528 0.15281273
0.44556502 0.03907487 0.16629064
0.46822183 0.04329836 0.17974186
0.48982470 0.05010599 0.19315678
0.51041582 0.05632032 0.20638677
0.53005575 0.05916318 0.21929545
0.54878230 0.05965987 0.23186127
0.56661427 0.06253219 0.24416055
0.58359474 0.07110672 0.25624031
0.59982476 0.07945577 0.26801114
0.61540214 0.08188338 0.27939712
0.63040330 0.07486906 0.29037892
0.64488392 0.05840707 0.30099122
0.65888578 0.03895460 0.31130665
0.67244814 0.03286944 0.32140826
0.68566962 0.04131374 0.33121367
0.69864879 0.05294379 0.34062414
0.71139753 0.06242086 0.34971398
0.72370541 0.07265254 0.35899913
0.73495956 0.09807133 0.36977896
0.74403003 0.17004046 0.38433388
0.74969660 0.27901664 0.40487010
0.75182710 0.38223431 0.43008568
0.75182710 0.45918706 0.45664369
0.75182710 0.51023349 0.48230934
0.75182710 0.54375751 0.50645478
0.75182710 0.56779841 0.52918171
0.75182710 0.58755659 0.55082934
0.75179739 0.60586182 0.57198288
0.75179517 0.62379106 0.59301562
0.75180678 0.64149197 0.61398503
0.75181800 0.65875352 0.63466954
0.75182480 0.67533129 0.65473849
0.75182710 0.69112626 0.67409619
0.75182710 0.70598851 0.69258559
0.75182710 0.71958304 0.70977214
0.75182710 0.73135283 0.72488074
0.75182710 0.74060813 0.73692035
0.75182710 0.74682373 0.74509529
0.75182705 0.75018001 0.74955058
0.75182703 0.75156476 0.75140299
0.00081509 0.00568955 0.00320888
0.00069502 0.00603255 0.00347421
0.00049662 0.00669855 0.00395466
0.00041943 0.00767170 0.00452781
0.00101119 0.00886309 0.00492228
0.00333165 0.00997693 0.00471433
0.00875178 0.01045979 0.00365266
0.01735553 0.00997248 0.00276669
0.02821785 0.00922988 0.00294951
0.04137817 0.00878908 0.00444095
0.05738290 0.00845563 0.00715951
0.07664915 0.00809422 0.01122646
0.09915838 0.00787386 0.01684234
0.12441952 0.00781378 0.02386211
0.15159903 0.00785267 0.03215147
0.17982567 0.00827375 0.04164601
0.20845178 0.00901878 0.05212440
0.23706775 0.00993859 0.06339073
0.26541806 0.01138222 0.07529987
0.29334970 0.01324740 0.08770387
0.32075082 0.01568514 0.10046282
0.34750669 0.01997315 0.11350262
0.37355479 0.02410952 0.12667862
0.39879904 0.02868264 0.13996371
0.42315582 0.03437556 0.15333896
0.44659304 0.03894023 0.16669870
0.46906250 0.04316225 0.18001697
0.49051572 0.05022062 0.19331426
0.51098819 0.05658296 0.20644916
0.53053273 0.05950371 0.21929044
0.54918064 0.06011235 0.23181683
0.56694654 0.06314593 0.24409968
0.58387224 0.07166947 0.25617533
0.60005690 0.07986304 0.26794806
0.61559652 0.08216200 0.27933854
0.63056602 0.07516297 0.29032584
0.64501988 0.05896696 0.30094411
0.65899891 0.04007250 0.31126615
0.67254187 0.03455715 0.32137455
0.68574734 0.04281607 0.33118534
0.69871350 0.05402581 0.34059948
0.71145150 0.06308982 0.34969202
0.72374981 0.07301677 0.35898073
0.73499410 0.09827591 0.36976786
0.74405315 0.17020089 0.38433654
0.74970734 0.27918778 0.40489113
0.75182710 0.38237999 0.43011593
0.75182710 0.45929112 0.45667419
0.75182710 0.51030017 0.48233595
0.75182710 0.54379802 0.50647657
0.75182710 0.56782322 0.52919914
0.75182710 0.58757285 0.55084322
0.75179738 0.60587368 0.57199419
0.75179522 0.62380049 0.59302505
0.75180683 0.64149971 0.61399296
0.75181803 0.65875983 0.63467611
0.75182481 0.67533630 0.65474377
0.75182710 0.69113014 0.67410036
0.75182710 0.70599142 0.69258882
0.75182710 0.71958514 0.70977455
0.75182710 0.73135423 0.72488242
0.75182710 0.74060894 0.73692136
0.75182710 0.74682407 0.74509574
0.75182705 0.75018008 0.74955068
0.75182703 0.75156471 0.75140295
0.00042248 0.01147966 0.00529454
0.00026187 0.01191862 0.00558403
0.00000000 0.01275750 0.00609752
0.00000000 0.01399421 0.00669130
0.00020518 0.01561886 0.00705953
0.00242176 0.01749508 0.00671214
0.00801244 0.01925682 0.00523870
0.01811551 0.02043530 0.00315142
0.03158848 0.02120876 0.00200721
0.04774545 0.02191376 0.00222532
0.06647765 0.02232658 0.00379055
0.08772033 0.02213400 0.00682730
0.11113989 0.02143911 0.01163279
0.13630079 0.02033364 0.01791689
0.16266427 0.01866454 0.02569007
0.18969718 0.01658620 0.03515685
0.21697903 0.01485343 0.04603430
0.24427196 0.01329078 0.05806819
0.27139448 0.01305234 0.07103699
0.29823703 0.01373127 0.08464243
0.32469469 0.01570121 0.09857364
0.35066139 0.01941983 0.11259331
0.37606110 0.02328921 0.12648412
0.40078041 0.02808305 0.14021479
0.42472564 0.03380547 0.15378876
0.44784457 0.03834961 0.16716969
0.47006795 0.04269900 0.18040975
0.49133028 0.05013804 0.19359147
0.51165616 0.05671837 0.20660646
0.53108637 0.05975122 0.21934788
0.54964230 0.06050250 0.23180596
0.56733211 0.06374153 0.24405151
0.58419524 0.07223456 0.25610970
0.60032814 0.08027101 0.26787683
0.61582452 0.08242405 0.27926835
0.63075754 0.07541088 0.29026018
0.64518037 0.05943580 0.30088491
0.65913278 0.04102732 0.31121472
0.67265302 0.03598127 0.32133132
0.68583967 0.04408120 0.33114874
0.69879046 0.05493044 0.34056763
0.71151568 0.06364864 0.34966391
0.72380253 0.07333598 0.35895742
0.73503506 0.09848785 0.36975368
0.74408051 0.17039609 0.38433901
0.74972000 0.27940234 0.40491563
0.75182710 0.38256071 0.43015150
0.75182710 0.45941781 0.45671015
0.75182710 0.51037964 0.48236733
0.75182710 0.54384536 0.50650223
0.75182710 0.56785183 0.52921962
0.75182710 0.58759155 0.55085951
0.75179737 0.60588744 0.57200746
0.75179529 0.62381153 0.59303613
0.75180689 0.64150884 0.61400228
0.75181807 0.65876728 0.63468382
0.75182483 0.67534221 0.65474997
0.75182710 0.69113470 0.67410525
0.75182710 0.70599485 0.69259261
0.75182710 0.71958760 0.70977738
0.75182710 0.73135588 0.72488439
0.75182710 0.74060989 0.73692254
0.75182710 0.74682448 0.74509627
0.75182705 0.75018016 0.74955080
0.75182703 0.75156465 0.75140289
0.00052254 0.01950991 0.00859938
0.00033601 0.02001225 0.00892089
0.00000000 0.02096546 0.00948654
0.00000000 0.02239071 0.01013503
0.00000000 0.02437764 0.01052580
0.00159264 0.02700543 0.01007787
0.00697055 0.03022945 0.00815874
0.01790152 0.03378433 0.00485112
0.03420875 0.03733470 0.00221975
0.05407214 0.04073211 0.00102185
0.07616391 0.04349402 0.00131319
0.09965317 0.04509145 0.00293967
0.12410060 0.04527099 0.00592691
0.14928521 0.04375200 0.01015305
0.17498759 0.04024923 0.01604109
0.20092288 0.03525471 0.02449289
0.22692517 0.02993985 0.03499041
0.25291316 0.02427436 0.04743874
0.27876678 0.02052869 0.06157521
0.30441756 0.01810219 0.07694069
0.32978239 0.01798932 0.09287760
0.35478326 0.01988497 0.10882344
0.37935142 0.02260534 0.12433261
0.40337284 0.02716790 0.13927000
0.42675653 0.03274593 0.15361254
0.44943515 0.03729379 0.16739330
0.47131874 0.04190145 0.18077267
0.49232253 0.04980862 0.19393751
0.51245519 0.05664406 0.20685698
0.53173968 0.05981948 0.21948583
0.55018244 0.06076170 0.23185061
0.56778140 0.06428076 0.24403491
0.58457144 0.07278848 0.25605696
0.60064471 0.08068101 0.26780584
0.61609152 0.08267580 0.27919085
0.63098268 0.07561578 0.29018344
0.64536970 0.05980841 0.30081334
0.65929124 0.04181078 0.31115116
0.67278498 0.03714935 0.32127700
0.68594958 0.04510995 0.33110223
0.69888219 0.05565749 0.34052705
0.71159219 0.06410054 0.34962827
0.72386534 0.07361531 0.35892808
0.73508377 0.09871433 0.36973574
0.74411300 0.17063504 0.38434121
0.74973501 0.27966943 0.40494423
0.75182710 0.38278327 0.43019343
0.75182710 0.45957120 0.45675263
0.75182710 0.51047405 0.48240441
0.75182710 0.54390059 0.50653251
0.75182710 0.56788483 0.52924376
0.75182710 0.58761314 0.55087870
0.75179736 0.60590348 0.57202310
0.75179536 0.62382455 0.59304920
0.75180696 0.64151967 0.61401326
0.75181811 0.65877614 0.63469292
0.75182484 0.67534922 0.65475728
0.75182710 0.69114011 0.67411102
0.75182710 0.70599889 0.69259708
0.75182710 0.71959051 0.70978072
0.75182710 0.73135782 0.72488671
0.75182710 0.74061101 0.73692394
0.75182710 0.74682495 0.74509688
0.75182705 0.75018025 0.74955095
0.75182703 0.75156458 0.75140281
0.00090911 0.03002736 0.01317712
0.00069646 0.03057050 0.01353221
0.00027179 0.03160629 0.01416508
0.00000000 0.03319362 0.01491366
0.00000000 0.03553548 0.01541755
0.00095853 0.03893218 0.01500706
0.00583008 0.04365379 0.01280888
0.01686714 0.04969863 0.00850042
0.03568701 0.05650653 0.00417427
0.05938056 0.06328078 0.00135592
0.08502676 0.06898455 0.00032854
0.11087989 0.07296446 0.00072652
0.13636452 0.07493598 0.00211886
0.16154232 0.07463740 0.00439647
0.18664013 0.07175744 0.00785204
0.21178519 0.06622264 0.01337234
0.23700899 0.05812842 0.02107981
0.26218268 0.04789574 0.03197239
0.28711663 0.03867826 0.04602472
0.31176809 0.03054469 0.06285346
0.33609211 0.02594335 0.08121264
0.36006366 0.02389690 0.10003055
0.38366357 0.02377965 0.11832534
0.40681416 0.02700141 0.13562898
0.42945828 0.03178046 0.15173559
0.45153379 0.03607979 0.16667152
0.47294130 0.04098229 0.18069764
0.49358243 0.04925007 0.19413907
0.51344651 0.05626499 0.20710571
0.53253286 0.05957318 0.21967355
0.55082684 0.06076195 0.23195055
0.56831088 0.06467065 0.24406122
0.58501170 0.07327439 0.25603043
0.60101423 0.08106444 0.26774617
0.61640341 0.08290852 0.27911371
0.63124636 0.07578205 0.29010003
0.64559224 0.06010381 0.30073134
0.65947821 0.04246583 0.31107573
0.67294129 0.03813372 0.32121082
0.68608019 0.04596149 0.33104450
0.69899148 0.05624697 0.34047617
0.71168344 0.06447019 0.34958356
0.72394022 0.07387022 0.35889140
0.73514179 0.09896669 0.36971314
0.74415166 0.17092788 0.38434299
0.74975286 0.27999836 0.40497765
0.75182710 0.38305435 0.43024287
0.75182710 0.45975522 0.45680285
0.75182710 0.51058537 0.48244823
0.75182710 0.54396462 0.50656823
0.75182710 0.56792268 0.52927217
0.75182710 0.58763798 0.55090127
0.75179734 0.60592219 0.57204151
0.75179545 0.62383994 0.59306461
0.75180705 0.64153255 0.61402625
0.75181816 0.65878669 0.63470368
0.75182487 0.67535757 0.65476593
0.75182710 0.69114652 0.67411785
0.75182710 0.70600369 0.69260236
0.75182710 0.71959394 0.70978467
0.75182710 0.73136011 0.72488945
0.75182710 0.74061234 0.73692559
0.75182710 0.74682551 0.74509761
0.75182705 0.75018036 0.74955111
0.75182703 0.75156449 0.75140273
0.00141406 0.04358177 0.01920981
0.00120610 0.04417701 0.01960928
0.00078564 0.04531755 0.02033713
0.00021770 0.04709754 0.02124513
0.00000000 0.04981871 0.02197325
0.00073934 0.05396199 0.02178718
0.00492154 0.06004071 0.01960237
0.01559124 0.06825508 0.01464648
0.03561142 0.07792455 0.00830442
0.06239276 0.08761008 0.00348120
0.09148753 0.09592453 0.00085212
0.11996855 0.10212509 0.00008581
0.14683438 0.10601791 0.00035420
0.17229283 0.10753734 0.00125338
0.19697294 0.10649306 0.00286589
0.22143091 0.10255778 0.00573089
0.24598682 0.09527292 0.01002450
0.27066104 0.08441758 0.01689303
0.29526927 0.07088104 0.02736663
0.31953184 0.05585142 0.04313551
0.34325299 0.04439759 0.06261136
0.36641534 0.03571654 0.08432554
0.38909470 0.03021914 0.10626720
0.41129807 0.02999222 0.12723768
0.43305438 0.03242143 0.14649626
0.45435108 0.03556087 0.16380374
0.47511152 0.04040499 0.17939621
0.49524582 0.04861129 0.19371919
0.51472872 0.05553731 0.20708684
0.53353401 0.05886771 0.21977640
0.55162056 0.06033019 0.23204667
0.56894940 0.06475901 0.24411155
0.58553416 0.07357807 0.25603017
0.60144828 0.08134435 0.26770501
0.61676795 0.08307592 0.27904516
0.63155428 0.07588854 0.29001671
0.64585256 0.06032283 0.30064344
0.65969764 0.04302184 0.31099090
0.67312549 0.03899398 0.32113357
0.68623478 0.04669773 0.33097512
0.69912128 0.05674726 0.34041386
0.71179205 0.06478858 0.34952830
0.72402944 0.07411806 0.35884589
0.73521092 0.09925685 0.36968482
0.74419772 0.17128507 0.38434406
0.74977414 0.28039883 0.40501664
0.75182710 0.38338093 0.43030113
0.75182710 0.45997388 0.45686217
0.75182710 0.51071549 0.48249999
0.75182710 0.54403821 0.50661031
0.75182710 0.56796568 0.52930548
0.75182710 0.58766633 0.55092775
0.75179732 0.60594390 0.57206319
0.75179555 0.62385806 0.59308280
0.75180715 0.64154785 0.61404159
0.75181822 0.65879927 0.63471641
0.75182489 0.67536752 0.65477617
0.75182710 0.69115416 0.67412592
0.75182710 0.70600938 0.69260861
0.75182710 0.71959801 0.70978934
0.75182710 0.73136282 0.72489269
0.75182710 0.74061390 0.73692753
0.75182710 0.74682617 0.74509848
0.75182705 0.75018049 0.74955131
0.75182703 0.75156439 0.75140263
0.00206176 0.06061389 0.02688983
0.00186302 0.06128790 0.02734262
0.00147614 0.06258717 0.02819071
0.00092613 0.06463098 0.02931375
0.00046469 0.06778519 0.03037413
0.00091696 0.07263366 0.03060324
0.00430227 0.07980243 0.02871502
0.01400135 0.08952239 0.02338912
0.03342025 0.10098302 0.01508101
0.06210293 0.11247142 0.00774018
0.09432021 0.12253373 0.00306533
