DIT_DOCS/ARRI_LogC4_v1_LUT_Package/LUTs/ARRI_LogC4-to-HLG_1K_Rec2100-D65_DW100_v1_65.cube
LUT_3D_SIZE 65
0.00000000 0.00000000 0.00000000
0.00000000 0.00008222 0.00009423
0.00000000 0.00052682 0.00051663
0.00018212 0.00113045 0.00111104
0.00076675 0.00167765 0.00170443
0.00210218 0.00182902 0.00201876
0.00452221 0.00139738 0.00193622
0.00789917 0.00101550 0.00209641
0.01227352 0.00088659 0.00265381
0.01783633 0.00103144 0.00355125
0.02511655 0.00127436 0.00468068
0.03472627 0.00154821 0.00595823
0.04728585 0.00184798 0.00733366
0.06339676 0.00223234 0.00879730
0.08353603 0.00287021 0.01037522
0.10788754 0.00349861 0.01205754
0.13626750 0.00408761 0.01387515
0.16836443 0.00464082 0.01588604
0.20391049 0.00518058 0.01816874
0.24272025 0.00599434 0.02083545
0.28473667 0.00656171 0.02391462
0.32987441 0.00672964 0.02744715
0.37786418 0.00686588 0.03148796
0.42805247 0.00743267 0.03605594
0.47905366 0.01041795 0.04124565
0.52885015 0.01469794 0.04697143
0.57534224 0.01879308 0.05306554
0.61752377 0.02243325 0.05945656
0.65543525 0.02545559 0.06607832
0.68973487 0.02596544 0.07268352
0.72110908 0.02336837 0.07919472
0.75005164 0.01939791 0.08578471
0.77691192 0.01716529 0.09266720
0.80201057 0.01833583 0.09982938
0.82568968 0.02019640 0.10694573
0.84827398 0.01968860 0.11355450
0.87004668 0.01435011 0.11922646
0.89113653 0.00492372 0.12406246
0.91122923 0.00189790 0.12983400
0.92989929 0.01290000 0.13886209
0.94707938 0.04424002 0.15193603
0.96278854 0.09582640 0.16886124
0.97674309 0.15630647 0.18941554
0.98818717 0.21983231 0.21362305
0.99609679 0.28424493 0.24159058
0.99992737 0.34964649 0.27393973
1.00000000 0.41713578 0.31227444
1.00000000 0.48755040 0.35916319
1.00000000 0.55999332 0.41688269
1.00000000 0.62894748 0.48317649
1.00000000 0.68777747 0.54963008
0.99997192 0.73563373 0.61052378
0.99995979 0.77492907 0.66467713
0.99997166 0.80842972 0.71298910
0.99998604 0.83814810 0.75672510
0.99999564 0.86522818 0.79675205
1.00000000 0.89025103 0.83359483
1.00000000 0.91357935 0.86796557
1.00000000 0.93521007 0.90009486
1.00000000 0.95476105 0.92953648
1.00000000 0.97150711 0.95515375
1.00000000 0.98454041 0.97539184
0.99999996 0.99319406 0.98900216
0.99999994 0.99780024 0.99632291
0.99999995 0.99967531 0.99932997
0.00011923 0.00000000 0.00008822
0.00012738 0.00008893 0.00029907
0.00018169 0.00052478 0.00072841
0.00038035 0.00111889 0.00132373
0.00095297 0.00166062 0.00190197
0.00229140 0.00179558 0.00218104
0.00473951 0.00132419 0.00204887
0.00814847 0.00090517 0.00217674
0.01254320 0.00074949 0.00271905
0.01812602 0.00086642 0.00361024
0.02544886 0.00108844 0.00473747
0.03513877 0.00134547 0.00601145
0.04783125 0.00163473 0.00738129
0.06413350 0.00200501 0.00883591
0.08448992 0.00266050 0.01040276
0.10902014 0.00330049 0.01206733
0.13750549 0.00386234 0.01385796
0.16963047 0.00441416 0.01584328
0.20514949 0.00495520 0.01810144
0.24389497 0.00584986 0.02075230
0.28582961 0.00649828 0.02381908
0.33087609 0.00675956 0.02734490
0.37877158 0.00695787 0.03138053
0.42885893 0.00759559 0.03594823
0.47974699 0.01066364 0.04114489
0.52942006 0.01498592 0.04687874
0.57579097 0.01912511 0.05298293
0.61786781 0.02282090 0.05938591
0.65569777 0.02588891 0.06601790
0.68993663 0.02648064 0.07263193
0.72126559 0.02404351 0.07915217
0.75017332 0.02032118 0.08575321
0.77700654 0.01832674 0.09264711
0.80208514 0.01944100 0.09981657
0.82574966 0.02111415 0.10693572
0.84832305 0.02035391 0.11354479
0.87008676 0.01474586 0.11921811
0.89116679 0.00515038 0.12406449
0.91125079 0.00210054 0.12984784
0.92991436 0.01321383 0.13888396
0.94709005 0.04472074 0.15196135
0.96279620 0.09623396 0.16888694
0.97674842 0.15659457 0.18944016
0.98819045 0.22002087 0.21364606
0.99609827 0.28436623 0.24161164
0.99992782 0.34972781 0.27395920
1.00000000 0.41719462 0.31229307
1.00000000 0.48759571 0.35918172
1.00000000 0.56002824 0.41690121
1.00000000 0.62897201 0.48319288
1.00000000 0.68779372 0.54964316
0.99997191 0.73564436 0.61053369
0.99995979 0.77493619 0.66468452
0.99997166 0.80843470 0.71299464
0.99998604 0.83815174 0.75672929
0.99999564 0.86523089 0.79675521
1.00000000 0.89025309 0.83359725
1.00000000 0.91358091 0.86796746
1.00000000 0.93521124 0.90009632
1.00000000 0.95476189 0.92953758
1.00000000 0.97150767 0.95515452
1.00000000 0.98454074 0.97539232
0.99999996 0.99319421 0.98900239
0.99999994 0.99780029 0.99632299
0.99999995 0.99967532 0.99932999
0.00055442 0.00000000 0.00050645
0.00055731 0.00015388 0.00072455
0.00059611 0.00056774 0.00115804
0.00077129 0.00113633 0.00174417
0.00131974 0.00165997 0.00228269
0.00265689 0.00176664 0.00248226
0.00515272 0.00122378 0.00224680
0.00862008 0.00072877 0.00230558
0.01305543 0.00050886 0.00281342
0.01868438 0.00056195 0.00368991
0.02609650 0.00073627 0.00481092
0.03594861 0.00095907 0.00607692
0.04890074 0.00122877 0.00743516
0.06555871 0.00157024 0.00887177
0.08629104 0.00223600 0.01041482
0.11110915 0.00287701 0.01204529
0.13974900 0.00338969 0.01378942
0.17189871 0.00393630 0.01573233
0.20735270 0.00447789 0.01795215
0.24597447 0.00550998 0.02058022
0.28775852 0.00629834 0.02363118
0.33264024 0.00672166 0.02715093
0.38036674 0.00703499 0.03118255
0.43027425 0.00779809 0.03575317
0.48096175 0.01101322 0.04096356
0.53041686 0.01542284 0.04671252
0.57657481 0.01964389 0.05283427
0.61846804 0.02343353 0.05925740
0.65615521 0.02657751 0.06590665
0.69028817 0.02729184 0.07253538
0.72153896 0.02507557 0.07907000
0.75038756 0.02165849 0.08568718
0.77717521 0.01991640 0.09259752
0.80221940 0.02099458 0.09977870
0.82585817 0.02243371 0.10690387
0.84841191 0.02132139 0.11351552
0.87015875 0.01534594 0.11919507
0.89122158 0.00550556 0.12405968
0.91128974 0.00243346 0.12986607
0.92994123 0.01373999 0.13891925
0.94710873 0.04551425 0.15200482
0.96280936 0.09692991 0.16893214
0.97675745 0.15709655 0.18948389
0.98819595 0.22035115 0.21368676
0.99610073 0.28457798 0.24164876
0.99992852 0.34986870 0.27399343
1.00000000 0.41729593 0.31232574
1.00000000 0.48767354 0.35921417
1.00000000 0.56008821 0.41693353
1.00000000 0.62901427 0.48322152
1.00000000 0.68782170 0.54966603
0.99997191 0.73566259 0.61055098
0.99995980 0.77494834 0.66469737
0.99997167 0.80844319 0.71300422
0.99998604 0.83815793 0.75673651
0.99999564 0.86523553 0.79676066
1.00000000 0.89025663 0.83360145
1.00000000 0.91358361 0.86797072
1.00000000 0.93521326 0.90009885
1.00000000 0.95476334 0.92953949
1.00000000 0.97150865 0.95515586
1.00000000 0.98454132 0.97539315
0.99999996 0.99319448 0.98900279
0.99999994 0.99780037 0.99632312
0.99999995 0.99967532 0.99933000
0.00112168 0.00021003 0.00111745
0.00111953 0.00040236 0.00133783
0.00114263 0.00078652 0.00176386
0.00129221 0.00131589 0.00232063
0.00181640 0.00180794 0.00279135
0.00315068 0.00189441 0.00286268
0.00572357 0.00127070 0.00246744
0.00929601 0.00066503 0.00241636
0.01381988 0.00033158 0.00286386
0.01955523 0.00027042 0.00371130
0.02713420 0.00036108 0.00481599
0.03725453 0.00052976 0.00606315
0.05060027 0.00077430 0.00739746
0.06775107 0.00107391 0.00880167
0.08895132 0.00169137 0.01030237
0.11408668 0.00228496 0.01188341
0.14286374 0.00271585 0.01357052
0.17499395 0.00324173 0.01546653
0.21032639 0.00375786 0.01764930
0.24876296 0.00493317 0.02026327
0.29033410 0.00587084 0.02331157
0.33498870 0.00648827 0.02684157
0.38248478 0.00695069 0.03088396
0.43214897 0.00788022 0.03547060
0.48256699 0.01129320 0.04070665
0.53173040 0.01583372 0.04647983
0.57760500 0.02017170 0.05262629
0.61925510 0.02408509 0.05907580
0.65675421 0.02732140 0.06574684
0.69074878 0.02816261 0.07239343
0.72189837 0.02616147 0.07894513
0.75067094 0.02303454 0.08558171
0.77740008 0.02152961 0.09251235
0.80239985 0.02258908 0.09970863
0.82600491 0.02380445 0.10684259
0.84853241 0.02233854 0.11345962
0.87025686 0.01598050 0.11914834
0.89129752 0.00588785 0.12403552
0.91134379 0.00282140 0.12987644
0.92997774 0.01438816 0.13895886
0.94713336 0.04650051 0.15205994
0.96282626 0.09781772 0.16899187
0.97676879 0.15774807 0.18954242
0.98820277 0.22078252 0.21374111
0.99610370 0.28485408 0.24169807
0.99992926 0.35005123 0.27403862
1.00000000 0.41742644 0.31236872
1.00000000 0.48777361 0.35925678
1.00000000 0.56016529 0.41697587
1.00000000 0.62906858 0.48325904
1.00000000 0.68785755 0.54969597
0.99997191 0.73568581 0.61057353
0.99995981 0.77496374 0.66471404
0.99997168 0.80845393 0.71301662
0.99998605 0.83816579 0.75674582
0.99999564 0.86524145 0.79676769
1.00000000 0.89026117 0.83360686
1.00000000 0.91358708 0.86797494
1.00000000 0.93521587 0.90010213
1.00000000 0.95476522 0.92954196
1.00000000 0.97150991 0.95515760
1.00000000 0.98454206 0.97539421
0.99999996 0.99319481 0.98900328
0.99999994 0.99780046 0.99632327
0.99999995 0.99967531 0.99932999
0.00158560 0.00091255 0.00178240
0.00158024 0.00109687 0.00199129
0.00159256 0.00145990 0.00238356
0.00172590 0.00195893 0.00287750
0.00224590 0.00243133 0.00325719
0.00361520 0.00253578 0.00318226
0.00633815 0.00188493 0.00259434
0.01013268 0.00116445 0.00239991
0.01487502 0.00066995 0.00275369
0.02086080 0.00044016 0.00354641
0.02875667 0.00041470 0.00461087
0.03930541 0.00051164 0.00581126
0.05320048 0.00072179 0.00709088
0.07094678 0.00096720 0.00843260
0.09263229 0.00140425 0.00986047
0.11803403 0.00185857 0.01137726
0.14686826 0.00214846 0.01300633
0.17889741 0.00258964 0.01486263
0.21403327 0.00300412 0.01702703
0.25221826 0.00419241 0.01965610
0.29351441 0.00517865 0.02273983
0.33788103 0.00595874 0.02632348
0.38508691 0.00657071 0.03041677
0.43444610 0.00768982 0.03505390
0.48452772 0.01134876 0.04034443
0.53332857 0.01606762 0.04616255
0.57885329 0.02056976 0.05234851
0.62020539 0.02464540 0.05883453
0.65747615 0.02798527 0.06553247
0.69130470 0.02893180 0.07219832
0.72233428 0.02709817 0.07876728
0.75101701 0.02421078 0.08542505
0.77767659 0.02292472 0.09238010
0.80262310 0.02399274 0.09959588
0.82618740 0.02502531 0.10674232
0.84868296 0.02324381 0.11336761
0.87038028 0.01653424 0.11906810
0.89139425 0.00622955 0.12398243
0.91141370 0.00321969 0.12986681
0.93002369 0.01511379 0.13899609
0.94716318 0.04762939 0.15212359
0.96284601 0.09885571 0.16906457
0.97678174 0.15852052 0.18961450
0.98821042 0.22129754 0.21380784
0.99610690 0.28518395 0.24175817
0.99992994 0.35026857 0.27409331
1.00000000 0.41758124 0.31242049
1.00000000 0.48789203 0.35930797
1.00000000 0.56025636 0.41702668
1.00000000 0.62913257 0.48330404
1.00000000 0.68789959 0.54973179
0.99997190 0.73571287 0.61060043
0.99995983 0.77498162 0.66473385
0.99997169 0.80846640 0.71303129
0.99998606 0.83817496 0.75675682
0.99999565 0.86524840 0.79677599
1.00000000 0.89026651 0.83361324
1.00000000 0.91359119 0.86797992
1.00000000 0.93521895 0.90010601
1.00000000 0.95476745 0.92954488
1.00000000 0.97151140 0.95515965
1.00000000 0.98454292 0.97539546
0.99999996 0.99319518 0.98900385
0.99999994 0.99780055 0.99632342
0.99999995 0.99967527 0.99932996
0.00160643 0.00244339 0.00227551
0.00158276 0.00264029 0.00245655
0.00156405 0.00301968 0.00278380
0.00167649 0.00353741 0.00316906
0.00222781 0.00405120 0.00341686
0.00372945 0.00425826 0.00323829
0.00673621 0.00378250 0.00249273
0.01100038 0.00303154 0.00214387
0.01624294 0.00238018 0.00235749
0.02276400 0.00197992 0.00304866
0.03124115 0.00186783 0.00402346
0.04245406 0.00191443 0.00511727
0.05706864 0.00206415 0.00627469
0.07545119 0.00217294 0.00749115
0.09754795 0.00229443 0.00879889
0.12308917 0.00248161 0.01023372
0.15185109 0.00252677 0.01180831
0.18367709 0.00266674 0.01363110
0.21853476 0.00277306 0.01580698
0.25640569 0.00363231 0.01849913
0.29736915 0.00439123 0.02168573
0.34138850 0.00518045 0.02540275
0.38824214 0.00585854 0.02962465
0.43722810 0.00714181 0.03438327
0.48689609 0.01106501 0.03979030
0.53525132 0.01600144 0.04570092
0.58034856 0.02072364 0.05196088
0.62133919 0.02501514 0.05850658
0.65833535 0.02848084 0.06524398
0.69196642 0.02951573 0.07193414
0.72285493 0.02779814 0.07852168
0.75143262 0.02509510 0.08520279
0.77801078 0.02400181 0.09218637
0.80289448 0.02509655 0.09942657
0.82641019 0.02599266 0.10659034
0.84886733 0.02395526 0.11322838
0.87053203 0.01695741 0.11894508
0.89151418 0.00650477 0.12389269
0.91150089 0.00361591 0.12983292
0.93007964 0.01591053 0.13902985
0.94719816 0.04890123 0.15219692
0.96286833 0.10004549 0.16915226
0.97679608 0.15941581 0.18970175
0.98821879 0.22189890 0.21388805
0.99611030 0.28557064 0.24182978
0.99993053 0.35052348 0.27415799
1.00000000 0.41776245 0.31248138
1.00000000 0.48803023 0.35936799
1.00000000 0.56036230 0.41708620
1.00000000 0.62920670 0.48335670
1.00000000 0.68794804 0.54977366
0.99997190 0.73574391 0.61063180
0.99995985 0.77500207 0.66475690
0.99997171 0.80848067 0.71304831
0.99998607 0.83818549 0.75676958
0.99999565 0.86525641 0.79678560
1.00000000 0.89027271 0.83362065
1.00000000 0.91359596 0.86798571
1.00000000 0.93522254 0.90011052
1.00000000 0.95477003 0.92954829
1.00000000 0.97151312 0.95516203
1.00000000 0.98454391 0.97539690
0.99999996 0.99319560 0.98900449
0.99999994 0.99780063 0.99632357
0.99999995 0.99967521 0.99932989
0.00104280 0.00513845 0.00250793
0.00097531 0.00537428 0.00264919
0.00087760 0.00582201 0.00289307
0.00089918 0.00644537 0.00314947
0.00140958 0.00714256 0.00324345
0.00305372 0.00767717 0.00294213
0.00655260 0.00770298 0.00218907
0.01167757 0.00716336 0.00168656
0.01787614 0.00656000 0.00168361
0.02537743 0.00620383 0.00218803
0.03482910 0.00623396 0.00298203
0.04700417 0.00640369 0.00386663
0.06246749 0.00653630 0.00478683
0.08142523 0.00645161 0.00577537
0.10376779 0.00613118 0.00689006
0.12927178 0.00583745 0.00820363
0.15781847 0.00538566 0.00970024
0.18935108 0.00482425 0.01145535
0.22387328 0.00419756 0.01364624
0.26139461 0.00415403 0.01644749
0.30199329 0.00416534 0.01981729
0.34562598 0.00457845 0.02377463
0.39207520 0.00504325 0.02824100
0.44061753 0.00633174 0.03324034
0.48978319 0.01042581 0.03887574
0.53759072 0.01556167 0.04497231
0.58216285 0.02054061 0.05137769
0.62271088 0.02510510 0.05803293
0.65937222 0.02873243 0.06483972
0.69276408 0.02985378 0.07156938
0.72348290 0.02822176 0.07818329
0.75193482 0.02567195 0.08489446
0.77841560 0.02476513 0.09191441
0.80322397 0.02590798 0.09918696
0.82668112 0.02671020 0.10637534
0.84909174 0.02447179 0.11303252
0.87071705 0.01724733 0.11877160
0.89166109 0.00671210 0.12376083
0.91160781 0.00401255 0.12977262
0.93014690 0.01678593 0.13906115
0.94723881 0.05032949 0.15228311
0.96289348 0.10140206 0.16925833
0.97681197 0.16044902 0.18980728
0.98822800 0.22259979 0.21398429
0.99611397 0.28602479 0.24191495
0.99993109 0.35082418 0.27423435
1.00000000 0.41797625 0.31255288
1.00000000 0.48819280 0.35943825
1.00000000 0.56048637 0.41715577
1.00000000 0.62929313 0.48341822
1.00000000 0.68800427 0.54982256
0.99997191 0.73577981 0.61066840
0.99995988 0.77502567 0.66478375
0.99997173 0.80849716 0.71306814
0.99998608 0.83819768 0.75678442
0.99999566 0.86526572 0.79679680
1.00000000 0.89027992 0.83362928
1.00000000 0.91360152 0.86799246
1.00000000 0.93522673 0.90011578
1.00000000 0.95477305 0.92955225
1.00000000 0.97151513 0.95516481
1.00000000 0.98454506 0.97539857
0.99999996 0.99319608 0.98900523
0.99999994 0.99780072 0.99632374
0.99999995 0.99967513 0.99932980
0.00066512 0.00886034 0.00303783
0.00055782 0.00913590 0.00315300
0.00037911 0.00965412 0.00334186
0.00028808 0.01039145 0.00351523
0.00068724 0.01130125 0.00351228
0.00229928 0.01225357 0.00311987
0.00596780 0.01301416 0.00226282
0.01205632 0.01339061 0.00150148
0.01961692 0.01367860 0.00118682
0.02861337 0.01417465 0.00134678
0.03952562 0.01491222 0.00178705
0.05293829 0.01563251 0.00233180
0.06925303 0.01604401 0.00289441
0.08861741 0.01591792 0.00353899
0.11098977 0.01522628 0.00435548
0.13628239 0.01431628 0.00544169
0.16450852 0.01307213 0.00674529
0.19571274 0.01131919 0.00827282
0.22990962 0.00930235 0.01036813
0.26711424 0.00759731 0.01324384
0.30738472 0.00604343 0.01681305
0.35065361 0.00530716 0.02108384
0.39669110 0.00490364 0.02590945
0.44474238 0.00572776 0.03130488
0.49332083 0.00966163 0.03733721
0.54046510 0.01483048 0.04377687
0.58439404 0.02002071 0.05045598
0.62439731 0.02488031 0.05731469
0.66064550 0.02869536 0.06425069
0.69374205 0.02990887 0.07105400
0.72425169 0.02834856 0.07771367
0.75254904 0.02593947 0.08446919
0.77891048 0.02522674 0.09153901
0.80362651 0.02644175 0.09885646
0.82701167 0.02718727 0.10608081
0.84936497 0.02479512 0.11276750
0.87094169 0.01740012 0.11853967
0.89183900 0.00684656 0.12358429
0.91173651 0.00440762 0.12968855
0.93022633 0.01774365 0.13909546
0.94728550 0.05192395 0.15238814
0.96292166 0.10294278 0.16938824
0.97682958 0.16163862 0.18993553
0.98823821 0.22341634 0.21410001
0.99611800 0.28655941 0.24201643
0.99993168 0.35118085 0.27432471
1.00000000 0.41823052 0.31263710
1.00000000 0.48838576 0.35952078
1.00000000 0.56063302 0.41723739
1.00000000 0.62939488 0.48349040
1.00000000 0.68807025 0.54987991
0.99997192 0.73582181 0.61071133
0.99995991 0.77505327 0.66481526
0.99997176 0.80851644 0.71309141
0.99998610 0.83821197 0.75680184
0.99999566 0.86527664 0.79680993
1.00000000 0.89028839 0.83363939
1.00000000 0.91360805 0.86800037
1.00000000 0.93523165 0.90012195
1.00000000 0.95477659 0.92955692
1.00000000 0.97151749 0.95516807
1.00000000 0.98454641 0.97540054
0.99999996 0.99319665 0.98900609
0.99999994 0.99780082 0.99632393
0.99999995 0.99967503 0.99932969
0.00067221 0.01365878 0.00397828
0.00053572 0.01395790 0.00408043
0.00028595 0.01451906 0.00424017
0.00007826 0.01533745 0.00436696
0.00032562 0.01643332 0.00430087
0.00179754 0.01780918 0.00383066
0.00556168 0.01940757 0.00285056
0.01247932 0.02111901 0.00171002
0.02159724 0.02299489 0.00105838
0.03246782 0.02508758 0.00091931
0.04512809 0.02721499 0.00109702
0.05981128 0.02905739 0.00139075
0.07680373 0.03035542 0.00169301
0.09632349 0.03093149 0.00200194
0.11850264 0.03072105 0.00244125
0.14346012 0.02975236 0.00301352
0.17132867 0.02783300 0.00382434
0.20223454 0.02476530 0.00475797
0.23619539 0.02089065 0.00642637
0.27321338 0.01679584 0.00910179
0.31330419 0.01271810 0.01265119
0.35635129 0.00956792 0.01712298
0.40207238 0.00710748 0.02229845
0.44965569 0.00653245 0.02821867
0.49760164 0.00956842 0.03485135
0.54397748 0.01429056 0.04185666
0.58713828 0.01943847 0.04900731
0.62648039 0.02448624 0.05622075
0.66222156 0.02844303 0.06338613
0.69495221 0.02972731 0.07032370
0.72520144 0.02821794 0.07706439
0.75330621 0.02593989 0.08388848
0.77951940 0.02542612 0.09102823
0.80412087 0.02672202 0.09840804
0.82741652 0.02742831 0.10568446
0.84969801 0.02491506 0.11241692
0.87121341 0.01739713 0.11824061
0.89205177 0.00688678 0.12336401
0.91188771 0.00478421 0.12959072
0.93031773 0.01877590 0.13914416
0.94733803 0.05368744 0.15252159
0.96295288 0.10467953 0.16954927
0.97684907 0.16299978 0.19009193
0.98824960 0.22436298 0.21423934
0.99612253 0.28718678 0.24213747
0.99993234 0.35160357 0.27443184
1.00000000 0.41853349 0.31273656
1.00000000 0.48861568 0.35961802
1.00000000 0.56080722 0.41733345
1.00000000 0.62951539 0.48357535
1.00000000 0.68814817 0.54994744
0.99997193 0.73587133 0.61076192
0.99995994 0.77508578 0.66485240
0.99997179 0.80853917 0.71311885
0.99998611 0.83822883 0.75682239
0.99999567 0.86528952 0.79682542
1.00000000 0.89029839 0.83365133
1.00000000 0.91361576 0.86800971
1.00000000 0.93523746 0.90012923
1.00000000 0.95478077 0.92956241
1.00000000 0.97152027 0.95517192
1.00000000 0.98454800 0.97540285
0.99999996 0.99319731 0.98900711
0.99999994 0.99780094 0.99632415
0.99999995 0.99967492 0.99932956
0.00085122 0.01975015 0.00521960
0.00068590 0.02006826 0.00531248
0.00037884 0.02067067 0.00545454
0.00007460 0.02158108 0.00555231
0.00020102 0.02289563 0.00543959
0.00158376 0.02475336 0.00488791
0.00547927 0.02727370 0.00374272
0.01310158 0.03047543 0.00225120
0.02380012 0.03427430 0.00129266
0.03668482 0.03836531 0.00090926
0.05116059 0.04219634 0.00092693
0.06708712 0.04538087 0.00110355
0.08466402 0.04775863 0.00127146
0.10421662 0.04927753 0.00139163
0.12607649 0.04990971 0.00154228
0.15055543 0.04956821 0.00173927
0.17792652 0.04800422 0.00204795
0.20841496 0.04491854 0.00236370
0.24211763 0.04027265 0.00334790
0.27907231 0.03422267 0.00515644
0.31921034 0.02723562 0.00803541
0.36230846 0.02034394 0.01219907
0.40795894 0.01431363 0.01736606
0.45522811 0.01097392 0.02376975
0.50258834 0.01184841 0.03116589
0.54814558 0.01516253 0.03898962
0.59043888 0.01964452 0.04686706
0.62901105 0.02450636 0.05464022
0.66414917 0.02838472 0.06217404
0.69643741 0.02960951 0.06932990
0.72636809 0.02806419 0.07619915
0.75423625 0.02585258 0.08312073
0.78026778 0.02547846 0.09035069
0.80472876 0.02679975 0.09781011
0.82791364 0.02743550 0.10515714
0.85010488 0.02479761 0.11195759
0.87154147 0.01719127 0.11786241
0.89230314 0.00678758 0.12310423
0.91205992 0.00510951 0.12950025
0.93041943 0.01986656 0.13922607
0.94739552 0.05561932 0.15269693
0.96298689 0.10662158 0.16975070
0.97687053 0.16454487 0.19028302
0.98826235 0.22545167 0.21440710
0.99612765 0.28791744 0.24228186
0.99993312 0.35210155 0.27455891
1.00000000 0.41889317 0.31285416
1.00000000 0.48888934 0.35973277
1.00000000 0.56101434 0.41744673
1.00000000 0.62965839 0.48367553
1.00000000 0.68824049 0.55002712
0.99997195 0.73592993 0.61082165
0.99995999 0.77512422 0.66489629
0.99997182 0.80856605 0.71315129
0.99998613 0.83824876 0.75684670
0.99999567 0.86530477 0.79684374
1.00000000 0.89031022 0.83366544
1.00000000 0.91362488 0.86802075
1.00000000 0.93524432 0.90013783
1.00000000 0.95478571 0.92956891
1.00000000 0.97152355 0.95517647
1.00000000 0.98454988 0.97540559
0.99999996 0.99319809 0.98900832
0.99999994 0.99780108 0.99632441
0.99999995 0.99967478 0.99932941
0.00112099 0.02766562 0.00668552
0.00096114 0.02802308 0.00677387
0.00065636 0.02870703 0.00690605
0.00032588 0.02977020 0.00698227
0.00035468 0.03138036 0.00682086
0.00161523 0.03379621 0.00616502
0.00556599 0.03728319 0.00481437
0.01376394 0.04195573 0.00297966
0.02591766 0.04758949 0.00175992
0.04066292 0.05355026 0.00120562
0.05688058 0.05902897 0.00108804
0.07407409 0.06353614 0.00121555
0.09231750 0.06696212 0.00132049
0.11199818 0.06938442 0.00137753
0.13360346 0.07088106 0.00140174
0.15760137 0.07141107 0.00146168
0.18440329 0.07074916 0.00145510
0.21434187 0.06854220 0.00130977
0.24761931 0.06447152 0.00160209
0.28435761 0.05827013 0.00248639
0.32451939 0.04993832 0.00444843
0.36785998 0.03998112 0.00750929
0.41376925 0.02969797 0.01179209
0.46102507 0.02227000 0.01826964
0.50799401 0.01931660 0.02638157
0.55279954 0.01973160 0.03520052
0.59420287 0.02245090 0.04405782
0.63194484 0.02634144 0.05260796
0.66641323 0.02959331 0.06065458
0.69819834 0.03039911 0.06811066
0.72775954 0.02858067 0.07514931
0.75535205 0.02621524 0.08218179
0.78117277 0.02573938 0.08950184
0.80546980 0.02685971 0.09704100
0.82852257 0.02726317 0.10446832
0.85060246 0.02442289 0.11136017
0.87193812 0.01672809 0.11738588
0.89259877 0.00649936 0.12280526
0.91225128 0.00535830 0.12944260
0.93053004 0.02101659 0.13936096
0.94745747 0.05773594 0.15292777
0.96302373 0.10878846 0.17000203
0.97689416 0.16629035 0.19051579
0.98827666 0.22669485 0.21460864
0.99613349 0.28876138 0.24245392
0.99993405 0.35268364 0.27470963
1.00000000 0.41931768 0.31299328
1.00000000 0.48921392 0.35986832
1.00000000 0.56126017 0.41758039
1.00000000 0.62982801 0.48379375
1.00000000 0.68834989 0.55012120
0.99997198 0.73599930 0.61089222
0.99996004 0.77516972 0.66494818
0.99997186 0.80859785 0.71318967
0.99998615 0.83827234 0.75687545
0.99999568 0.86532281 0.79686541
1.00000000 0.89032421 0.83368214
1.00000000 0.91363567 0.86803380
1.00000000 0.93525245 0.90014801
1.00000000 0.95479156 0.92957659
1.00000000 0.97152744 0.95518185
1.00000000 0.98455211 0.97540883
0.99999996 0.99319902 0.98900974
0.99999995 0.99780125 0.99632473
0.99999995 0.99967462 0.99932923
0.00144035 0.03801881 0.00830788
0.00128707 0.03845142 0.00838996
0.00099068 0.03928751 0.00851045
0.00065189 0.04060364 0.00856377
0.00060391 0.04262249 0.00835360
0.00174002 0.04568328 0.00759649
0.00566493 0.05012706 0.00605443
0.01421714 0.05605829 0.00391364
0.02758684 0.06307415 0.00239686
0.04392246 0.07041369 0.00170948
0.06170823 0.07720683 0.00153151
