DIT_DOCS/ARRI_LogC4_v1_LUT_Package/LUTs/ARRI_LogC4-to-St2084_1K_Rec2100-D65_DW100_v1_65.cube
LUT_3D_SIZE 65
0.00000000 0.00000000 0.00000000
0.00000000 0.00000000 0.00000000
0.00000000 0.00023451 0.00027884
0.00000000 0.00077615 0.00079082
0.00013323 0.00131973 0.00135008
0.00155170 0.00152104 0.00168621
0.00452367 0.00113091 0.00165337
0.00927194 0.00079183 0.00196985
0.01604736 0.00073263 0.00288427
0.02511546 0.00099154 0.00440708
0.03706012 0.00139923 0.00647687
0.05237830 0.00190815 0.00903519
0.07133962 0.00254809 0.01203830
0.09396596 0.00344201 0.01548033
0.11995793 0.00488601 0.01939685
0.14859178 0.00641152 0.02373717
0.17880857 0.00797360 0.02851478
0.20961709 0.00957503 0.03379557
0.24029729 0.01125035 0.03968936
0.27039291 0.01362949 0.04637230
0.29968018 0.01543492 0.05384440
0.32803451 0.01626334 0.06211566
0.35537287 0.01701123 0.07120663
0.38164427 0.01888140 0.08105470
0.40678301 0.02711235 0.09173180
0.43078766 0.03850207 0.10299474
0.45369062 0.04919476 0.11448375
0.47550938 0.05846653 0.12603264
0.49627358 0.06597970 0.13751840
0.51607195 0.06748330 0.14857379
0.53496609 0.06154508 0.15909538
0.55297333 0.05191738 0.16932837
0.57011171 0.04628223 0.17956774
0.58644875 0.05025679 0.18982319
0.60210834 0.05913494 0.19974357
0.61723108 0.06903014 0.20885248
0.63194562 0.07730772 0.21672929
0.64629261 0.08350837 0.22350983
0.66005186 0.09397653 0.23102826
0.67293914 0.10717993 0.24153895
0.68491084 0.13495210 0.25551913
0.69606689 0.19062348 0.27233920
0.70650647 0.25287175 0.29129380
0.71628499 0.30996664 0.31187484
0.72542680 0.35821238 0.33359368
0.73383893 0.39853664 0.35623194
0.74120693 0.43367889 0.38008181
0.74697167 0.46655282 0.40595565
0.75053555 0.49924415 0.43471761
0.75182710 0.53128619 0.46558643
0.75182710 0.56030060 0.49591285
0.75182710 0.58561194 0.52446099
0.75182710 0.60780270 0.55127533
0.75182710 0.62770847 0.57673447
0.75182710 0.64599110 0.60110440
0.75180760 0.66305194 0.62442008
0.75180671 0.67910818 0.64662089
0.75181427 0.69428666 0.66783101
0.75182143 0.70851114 0.68797533
0.75182571 0.72147350 0.70662812
0.75182710 0.73264674 0.72297214
0.75182710 0.74138567 0.73594747
0.75182710 0.74721076 0.74470519
0.75182710 0.75032197 0.74943032
0.75182710 0.75159212 0.75137608
0.00000000 0.00000000 0.00000000
0.00000000 0.00000000 0.00008525
0.00000000 0.00014367 0.00044421
0.00000000 0.00068957 0.00098042
0.00031434 0.00123921 0.00155054
0.00176657 0.00142649 0.00186915
0.00480793 0.00098215 0.00179037
0.00963260 0.00058704 0.00207910
0.01646382 0.00048264 0.00298674
0.02557676 0.00069895 0.00451347
0.03758414 0.00107488 0.00659161
0.05299644 0.00155810 0.00915474
0.07209650 0.00218075 0.01215844
0.09490638 0.00304983 0.01559445
0.12107947 0.00451878 0.01949941
0.14981568 0.00605283 0.02381114
0.18003214 0.00754094 0.02853747
0.21075648 0.00912168 0.03376646
0.24130891 0.01078229 0.03960929
0.27126183 0.01333678 0.04625928
0.30041246 0.01532186 0.05370648
0.32864387 0.01636457 0.06196527
0.35587699 0.01725069 0.07104755
0.38205911 0.01928117 0.08089626
0.40712224 0.02770368 0.09158715
0.43106453 0.03917139 0.10286544
0.45391591 0.04994287 0.11437218
0.47569207 0.05932324 0.12594087
0.49642191 0.06693306 0.13744303
0.51619256 0.06865581 0.14851185
0.53506403 0.06317613 0.15904629
0.55305228 0.05426956 0.16929413
0.57017496 0.04932759 0.17954833
0.58649977 0.05307782 0.18981304
0.60215008 0.06137728 0.19973688
0.61726565 0.07053894 0.20884601
0.63197419 0.07804454 0.21672385
0.64631476 0.08370583 0.22351480
0.66006829 0.09407839 0.23104480
0.67295122 0.10757781 0.24156266
0.68491986 0.13583782 0.25554491
0.69607379 0.19134408 0.27236377
0.70651182 0.25332412 0.29131571
0.71628918 0.31021003 0.31189372
0.72543011 0.35832854 0.33360947
0.73384150 0.39858795 0.35624514
0.74120881 0.43370241 0.38009313
0.74697287 0.46656663 0.40596575
0.75053611 0.49925510 0.43472682
0.75182710 0.53129524 0.46559413
0.75182710 0.56030786 0.49591895
0.75182710 0.58561758 0.52446576
0.75182710 0.60780699 0.55127911
0.75182710 0.62771169 0.57673749
0.75182710 0.64599351 0.60110681
0.75180760 0.66305374 0.62442198
0.75180671 0.67910953 0.64662240
0.75181427 0.69428768 0.66783221
0.75182143 0.70851190 0.68797627
0.75182571 0.72147405 0.70662883
0.75182710 0.73264711 0.72297264
0.75182710 0.74138589 0.73594778
0.75182710 0.74721087 0.74470534
0.75182710 0.75032201 0.74943037
0.75182710 0.75159213 0.75137609
0.00027701 0.00000000 0.00021164
0.00021822 0.00000000 0.00040222
0.00014348 0.00003122 0.00079804
0.00019079 0.00058001 0.00137026
0.00068243 0.00113518 0.00194723
0.00219292 0.00130038 0.00221545
0.00536226 0.00075779 0.00203511
0.01032927 0.00024874 0.00225798
0.01726599 0.00004159 0.00314163
0.02647120 0.00016255 0.00466834
0.03860378 0.00046881 0.00675554
0.05420311 0.00090247 0.00932214
0.07357186 0.00149492 0.01232153
0.09671732 0.00231388 0.01574032
0.12318803 0.00378957 0.01961324
0.15206226 0.00530394 0.02386549
0.18223740 0.00665994 0.02850052
0.21278527 0.00819547 0.03364194
0.24309586 0.00982109 0.03940450
0.27278926 0.01266629 0.04600774
0.30169559 0.01495346 0.05342483
0.32970935 0.01635861 0.06167491
0.35675700 0.01749295 0.07075354
0.38278245 0.01979767 0.08061109
0.40771340 0.02855079 0.09132981
0.43154678 0.04018402 0.10263688
0.45430836 0.05110253 0.11417428
0.47601052 0.06066237 0.12577590
0.49668068 0.06842907 0.13730525
0.51640326 0.07047350 0.14839610
0.53523558 0.06562054 0.15895089
0.55319148 0.05759268 0.16922061
0.57028753 0.05336695 0.17949659
0.58659122 0.05696026 0.18977674
0.60222514 0.06455186 0.19970853
0.61732784 0.07269936 0.20882087
0.63202522 0.07913643 0.21670512
0.64635455 0.08400756 0.22351455
0.66009774 0.09423727 0.23106739
0.67297260 0.10821967 0.24160098
0.68493561 0.13724049 0.25558910
0.69608570 0.19254545 0.27240692
0.70652100 0.25410183 0.29135459
0.71629636 0.31063370 0.31192710
0.72543579 0.35852990 0.33363728
0.73384591 0.39867470 0.35626830
0.74121204 0.43374036 0.38011293
0.74697494 0.46658825 0.40598338
0.75053706 0.49927258 0.43474285
0.75182710 0.53131018 0.46560753
0.75182710 0.56032013 0.49592957
0.75182710 0.58562726 0.52447407
0.75182710 0.60781439 0.55128566
0.75182710 0.62771726 0.57674271
0.75182710 0.64599767 0.60111099
0.75180760 0.66305685 0.62442529
0.75180671 0.67911188 0.64662502
0.75181428 0.69428945 0.66783428
0.75182143 0.70851322 0.68797789
0.75182571 0.72147501 0.70663005
0.75182710 0.73264776 0.72297350
0.75182710 0.74138628 0.73594831
0.75182710 0.74721105 0.74470560
0.75182710 0.75032206 0.74943046
0.75182710 0.75159213 0.75137610
0.00075611 0.00000000 0.00069223
0.00070218 0.00000000 0.00090795
0.00063261 0.00010351 0.00134097
0.00068769 0.00065765 0.00194188
0.00120867 0.00122156 0.00250534
0.00280490 0.00138635 0.00267386
0.00617713 0.00073469 0.00232157
0.01138064 0.00006412 0.00242539
0.01850598 0.00000000 0.00324957
0.02789044 0.00000000 0.00475443
0.04024260 0.00000000 0.00683242
0.05614232 0.00021209 0.00938064
0.07590732 0.00077517 0.01234964
0.09949465 0.00152532 0.01571926
0.12629032 0.00290958 0.01951747
0.15524641 0.00432027 0.02367169
0.18527614 0.00548001 0.02818620
0.21552840 0.00693067 0.03322515
0.24548265 0.00844866 0.03890794
0.27481460 0.01158656 0.04548439
0.30338938 0.01418128 0.05290335
0.33111171 0.01600437 0.06118443
0.35791269 0.01744337 0.07029556
0.38373080 0.02009438 0.08019302
0.40848768 0.02927238 0.09096614
0.43217801 0.04115107 0.10232092
0.45482203 0.05227764 0.11390207
0.47642759 0.06206791 0.12554653
0.49702002 0.07001565 0.13710952
0.51668017 0.07238124 0.14822648
0.53546184 0.06812877 0.15880499
0.55337594 0.06092068 0.16910097
0.57043753 0.05735146 0.17940421
0.58671378 0.06085275 0.18970484
0.60232614 0.06778769 0.19964884
0.61741166 0.07493222 0.20876838
0.63209423 0.08026561 0.21666269
0.64640906 0.08431962 0.22349523
0.66013802 0.09440466 0.23108270
0.67300133 0.10897237 0.24164414
0.68495628 0.13891155 0.25564494
0.69610103 0.19403081 0.27246378
0.70653269 0.25508817 0.29140656
0.71630550 0.31117780 0.31197165
0.72544303 0.35878812 0.33367420
0.73385157 0.39878344 0.35629882
0.74121619 0.43378569 0.38013888
0.74697757 0.46661322 0.40600643
0.75053825 0.49929325 0.43476374
0.75182710 0.53132848 0.46562502
0.75182710 0.56033556 0.49594342
0.75182710 0.58563959 0.52448488
0.75182710 0.60782389 0.55129416
0.75182710 0.62772444 0.57674948
0.75182710 0.64600305 0.60111640
0.75180760 0.66306087 0.62442957
0.75180672 0.67911490 0.64662842
0.75181428 0.69429174 0.66783698
0.75182143 0.70851493 0.68798000
0.75182571 0.72147624 0.70663165
0.75182710 0.73264859 0.72297462
0.75182710 0.74138677 0.73594899
0.75182710 0.74721127 0.74470592
0.75182710 0.75032212 0.74943055
0.75182710 0.75159213 0.75137610
0.00119358 0.00019461 0.00129767
0.00114221 0.00039677 0.00152770
0.00107504 0.00080733 0.00197310
0.00114117 0.00140137 0.00256504
0.00171654 0.00201844 0.00307922
0.00346600 0.00225911 0.00311060
0.00717987 0.00158751 0.00252551
0.01281681 0.00076494 0.00244934
0.02032786 0.00017462 0.00315210
0.03008873 0.00000000 0.00458076
0.04284039 0.00000759 0.00659348
0.05920517 0.00031893 0.00905627
0.07949460 0.00086963 0.01191855
0.10355417 0.00155061 0.01515885
0.13058233 0.00263412 0.01879772
0.15945264 0.00380111 0.02279996
0.18915603 0.00467836 0.02717106
0.21895376 0.00593266 0.03210822
0.24842222 0.00718244 0.03774457
0.27729072 0.01033207 0.04435892
0.30545191 0.01299978 0.05186930
0.33281519 0.01515585 0.06028493
0.35931386 0.01687736 0.06952472
0.38487863 0.01989813 0.07954375
0.40942339 0.02957818 0.09043747
0.43293984 0.04177970 0.10188569
0.45544126 0.05319298 0.11354039
0.47693011 0.06327524 0.12524569
0.49742924 0.07140752 0.13685019
0.51701504 0.07402310 0.14799461
0.53573672 0.07023271 0.15859636
0.55360126 0.06368943 0.16892072
0.57062168 0.06070998 0.17925698
0.58686486 0.06420408 0.18958461
0.60245108 0.07061911 0.19954651
0.61751568 0.07689038 0.20867770
0.63218033 0.08122101 0.21658570
0.64647769 0.08455310 0.22344647
0.66018926 0.09456504 0.23107774
0.67303700 0.10977365 0.24168497
0.68498118 0.14074334 0.25570908
0.69611904 0.19570599 0.27253272
0.70654625 0.25622413 0.29147045
0.71631609 0.31181328 0.31202634
0.72545146 0.35909145 0.33371917
0.73385818 0.39891029 0.35633570
0.74122105 0.43383718 0.38017004
0.74698065 0.46664081 0.40603399
0.75053962 0.49931632 0.43478869
0.75182710 0.53134931 0.46564588
0.75182710 0.56035337 0.49595992
0.75182710 0.58565397 0.52449773
0.75182710 0.60783504 0.55130426
0.75182710 0.62773289 0.57675752
0.75182710 0.64600939 0.60112282
0.75180760 0.66306562 0.62443465
0.75180672 0.67911848 0.64663245
0.75181429 0.69429444 0.66784018
0.75182144 0.70851695 0.68798250
0.75182572 0.72147770 0.70663354
0.75182710 0.73264957 0.72297595
0.75182710 0.74138734 0.73594980
0.75182710 0.74721152 0.74470628
0.75182710 0.75032219 0.74943065
0.75182710 0.75159210 0.75137607
0.00126769 0.00209436 0.00187275
0.00119442 0.00235345 0.00209585
0.00109130 0.00286306 0.00250973
0.00114279 0.00358973 0.00302409
0.00179997 0.00438223 0.00341494
0.00383097 0.00486239 0.00331689
0.00812151 0.00449244 0.00250568
0.01458854 0.00367909 0.00219666
0.02290975 0.00294330 0.00267729
0.03344520 0.00256860 0.00392382
0.04692288 0.00264985 0.00575488
0.06399166 0.00301539 0.00798990
0.08490984 0.00357872 0.01057919
0.10934278 0.00410687 0.01352138
0.13635627 0.00469224 0.01685609
0.16485402 0.00543807 0.02062255
0.19397508 0.00591159 0.02481673
0.22312265 0.00660976 0.02963605
0.25195866 0.00724643 0.03527542
0.28025639 0.00968109 0.04203365
0.30791951 0.01182843 0.04979530
0.33485359 0.01399488 0.05853831
0.36099091 0.01581511 0.06809596
0.38625202 0.01913415 0.07840789
0.41054174 0.02932310 0.08956833
0.43384881 0.04189420 0.10121840
0.45617848 0.05367680 0.11302055
0.47752726 0.06413036 0.12483231
0.49791518 0.07246062 0.13650096
0.51741320 0.07525337 0.14768079
0.53606469 0.07177098 0.15830718
0.55387135 0.06572698 0.16866254
0.57084352 0.06325563 0.17903769
0.58704767 0.06680133 0.18939976
0.60260276 0.07284374 0.19938704
0.61764224 0.07842543 0.20853660
0.63228540 0.08193429 0.21646423
0.64656197 0.08469451 0.22336017
0.66025239 0.09470906 0.23104806
0.67307999 0.11059787 0.24172223
0.68501032 0.14271190 0.25578251
0.69613962 0.19755036 0.27261556
0.70656160 0.25749913 0.29154770
0.71632809 0.31253919 0.31209207
0.72546107 0.35944394 0.33377274
0.73386577 0.39906025 0.35637927
0.74122665 0.43389880 0.38020661
0.74698420 0.46667353 0.40606620
0.75054116 0.49934312 0.43481781
0.75182710 0.53137326 0.46567019
0.75182710 0.56037378 0.49597913
0.75182710 0.58567045 0.52451269
0.75182710 0.60784785 0.55131600
0.75182710 0.62774263 0.57676687
0.75182710 0.64601672 0.60113029
0.75180760 0.66307112 0.62444057
0.75180673 0.67912263 0.64663715
0.75181430 0.69429758 0.66784390
0.75182144 0.70851930 0.68798542
0.75182572 0.72147939 0.70663574
0.75182710 0.73265071 0.72297749
0.75182710 0.74138800 0.73595073
0.75182710 0.74721180 0.74470670
0.75182710 0.75032225 0.74943075
0.75182710 0.75159207 0.75137603
0.00078780 0.00594631 0.00237190
0.00065233 0.00630558 0.00256754
0.00043725 0.00699780 0.00291395
0.00036672 0.00799500 0.00330287
0.00100081 0.00919098 0.00351142
0.00333759 0.01027966 0.00322226
0.00855095 0.01073886 0.00232596
0.01648937 0.01035826 0.00172874
0.02634473 0.00987989 0.00183269
0.03831346 0.00980683 0.00272509
0.05303055 0.01035698 0.00418477
0.07110675 0.01116061 0.00596566
0.09266040 0.01190929 0.00801166
0.11719195 0.01227611 0.01038721
0.14379724 0.01221284 0.01319669
0.17155214 0.01222940 0.01657596
0.19979832 0.01193793 0.02048117
0.22809054 0.01141680 0.02506071
0.25614948 0.01072603 0.03068343
0.28377333 0.01134837 0.03768590
0.31085753 0.01197018 0.04589518
0.33729351 0.01342320 0.05523476
0.36300811 0.01481271 0.06540257
0.38790928 0.01812739 0.07630408
0.41189335 0.02860932 0.08800372
0.43494676 0.04147338 0.10007545
0.45706708 0.05365530 0.11218435
0.47824506 0.06455042 0.12420670
0.49849799 0.07310482 0.13599797
0.51789040 0.07602251 0.14724082
0.53645816 0.07273425 0.15790442
0.55419606 0.06707717 0.16830047
0.57111091 0.06507523 0.17872577
0.58726852 0.06872597 0.18913398
0.60278629 0.07452060 0.19915748
0.61779552 0.07957474 0.20833474
0.63241282 0.08242981 0.21629022
0.64666452 0.08475563 0.22323073
0.66032917 0.09482855 0.23099158
0.67313138 0.11142057 0.24175703
0.68504425 0.14479788 0.25586839
0.69616309 0.19955836 0.27271557
0.70657899 0.25891992 0.29164114
0.71634172 0.31336764 0.31217099
0.72547207 0.35985788 0.33383647
0.73387451 0.39924322 0.35643066
0.74123312 0.43397746 0.38024947
0.74698830 0.46671578 0.40610381
0.75054294 0.49937629 0.43485174
0.75182710 0.53140180 0.46569853
0.75182710 0.56039761 0.49600152
0.75182710 0.58568951 0.52453012
0.75182710 0.60786261 0.55132970
0.75182710 0.62775385 0.57677777
0.75182710 0.64602519 0.60113900
0.75180760 0.66307749 0.62444747
0.75180674 0.67912746 0.64664263
0.75181431 0.69430124 0.66784825
0.75182145 0.70852204 0.68798882
0.75182572 0.72148137 0.70663831
0.75182710 0.73265203 0.72297929
0.75182710 0.74138877 0.73595182
0.75182710 0.74721213 0.74470718
0.75182710 0.75032231 0.74943086
0.75182710 0.75159202 0.75137598
0.00047535 0.01189787 0.00343009
0.00027874 0.01235756 0.00361309
0.00000000 0.01323067 0.00392212
0.00000000 0.01449999 0.00423476
0.00025066 0.01612959 0.00432275
0.00269894 0.01795896 0.00386753
0.00847671 0.01963650 0.00272320
0.01825235 0.02081128 0.00165534
0.03043379 0.02191442 0.00122656
0.04469360 0.02342496 0.00153444
0.06134588 0.02539631 0.00234854
0.08071490 0.02740061 0.00343311
0.10274163 0.02890591 0.00467621
0.12696872 0.02945830 0.00620461
0.15272760 0.02896603 0.00821182
0.17938482 0.02810934 0.01091766
0.20650551 0.02664619 0.01422241
0.23378233 0.02414835 0.01815347
0.26096238 0.02104818 0.02347471
0.28784324 0.01858003 0.03063766
0.31429568 0.01624946 0.03935416
0.34018612 0.01561983 0.04950450
0.36542884 0.01540684 0.06059878
0.38991718 0.01788021 0.07249917
0.41354226 0.02801096 0.08516777
0.43629019 0.04081899 0.09804354
0.45815400 0.05327047 0.11075481
0.47912096 0.06459974 0.12319121
0.49920704 0.07337262 0.13522734
0.51846958 0.07636841 0.14659859
0.53693517 0.07318941 0.15733357
0.55458971 0.06784327 0.16779303
0.57143529 0.06629574 0.17828876
0.58753660 0.07009637 0.18876178
0.60300900 0.07573628 0.19883823
0.61798131 0.08038453 0.20805785
0.63256694 0.08271098 0.21605489
0.64678829 0.08469586 0.22305555
0.66042132 0.09484761 0.23091128
0.67319209 0.11215361 0.24179522
0.68508354 0.14693669 0.25597290
0.69618988 0.20170642 0.27283808
0.70659879 0.26048755 0.29175484
0.71635735 0.31430968 0.31226603
0.72548478 0.36034583 0.33391246
0.73388467 0.39946966 0.35649145
0.74124068 0.43408072 0.38029988
0.74699310 0.46677261 0.40614791
0.75054502 0.49941904 0.43489148
0.75182710 0.53143690 0.46573171
0.75182710 0.56042602 0.49602775
0.75182710 0.58571185 0.52455056
0.75182710 0.60787979 0.55134577
0.75182710 0.62776690 0.57679058
0.75182710 0.64603505 0.60114924
0.75180760 0.66308494 0.62445557
0.75180676 0.67913311 0.64664906
0.75181432 0.69430554 0.66785335
0.75182145 0.70852526 0.68799282
0.75182572 0.72148370 0.70664133
0.75182710 0.73265359 0.72298140
0.75182710 0.74138967 0.73595308
0.75182710 0.74721251 0.74470774
0.75182710 0.75032238 0.74943098
0.75182710 0.75159195 0.75137591
0.00058212 0.02015476 0.00523883
0.00034370 0.02068056 0.00542308
0.00000000 0.02167217 0.00572229
0.00000000 0.02313110 0.00599739
0.00000000 0.02511155 0.00599782
0.00235044 0.02764735 0.00537935
0.00864283 0.03067090 0.00394091
0.02018719 0.03400730 0.00218914
0.03518049 0.03771537 0.00117242
0.05244139 0.04187850 0.00097518
0.07149467 0.04620860 0.00132449
0.09216463 0.05017849 0.00191404
0.11436225 0.05332793 0.00257727
0.13790084 0.05531065 0.00332519
0.16248949 0.05598204 0.00440461
0.18784185 0.05539335 0.00585405
0.21371812 0.05312450 0.00789425
0.23991651 0.04867269 0.01032974
0.26619450 0.04257856 0.01456356
0.29233090 0.03600868 0.02124636
0.31815921 0.02928981 0.02998778
0.34351071 0.02440778 0.04075587
0.36827296 0.02054279 0.05283595
0.39231980 0.02059105 0.06612854
0.41554406 0.02906303 0.08032370
0.43793548 0.04093154 0.09456886
0.45948983 0.05315874 0.10835231
0.48019731 0.06468085 0.12153995
0.50007651 0.07353200 0.13403171
0.51917778 0.07650938 0.14565114
0.53751713 0.07334451 0.15652242
0.55506936 0.06824060 0.16708617
0.57183043 0.06712063 0.17768404
0.58786311 0.07106581 0.18824863
0.60328001 0.07657537 0.19840186
0.61820670 0.08087126 0.20768634
0.63275282 0.08272262 0.21574802
0.64693618 0.08438108 0.22283530
0.66052986 0.09456881 0.23081774
0.67326250 0.11260393 0.24184880
0.68512849 0.14899563 0.25610596
0.69622035 0.20392901 0.27299037
0.70662140 0.26218010 0.29189389
0.71637539 0.31536420 0.31238071
0.72549959 0.36091396 0.33400320
0.73389658 0.39974682 0.35656350
0.74124958 0.43421474 0.38035935
0.74699877 0.46684863 0.40619978
0.75054749 0.49947464 0.43493817
0.75182710 0.53148072 0.46577070
0.75182710 0.56046039 0.49605861
0.75182710 0.58573833 0.52457464
0.75182710 0.60789994 0.55136472
0.75182710 0.62778215 0.57680568
0.75182710 0.64604659 0.60116132
0.75180760 0.66309366 0.62446513
0.75180677 0.67913976 0.64665665
0.75181433 0.69431060 0.66785937
0.75182146 0.70852906 0.68799753
0.75182573 0.72148644 0.70664488
0.75182710 0.73265543 0.72298389
0.75182710 0.74139073 0.73595458
0.75182710 0.74721296 0.74470840
0.75182710 0.75032247 0.74943113
0.75182710 0.75159188 0.75137582
0.00089648 0.03095253 0.00771891
0.00061884 0.03152113 0.00790519
0.00010820 0.03259829 0.00820307
0.00000000 0.03422038 0.00845582
0.00000000 0.03654592 0.00838113
0.00237240 0.03980761 0.00757983
0.00924103 0.04420984 0.00575933
0.02242959 0.04979417 0.00330304
0.04039356 0.05641996 0.00171353
0.06096425 0.06359289 0.00109876
0.08254072 0.07044465 0.00117940
0.10445658 0.07638688 0.00155245
0.12668434 0.08117125 0.00192553
0.14938652 0.08469585 0.00223443
0.17268743 0.08689109 0.00263507
0.19662891 0.08759159 0.00317500
0.22117014 0.08631264 0.00399022
0.24620889 0.08244606 0.00490201
0.27154747 0.07583360 0.00745397
0.29696838 0.06665365 0.01206401
0.32224005 0.05551078 0.01930451
0.34712933 0.04431842 0.02955426
0.37147028 0.03442524 0.04186468
0.39509927 0.02995156 0.05659897
0.41791410 0.03466786 0.07284755
0.43991444 0.04394296 0.08914388
0.46111054 0.05485251 0.10462492
0.48150786 0.06589030 0.11903143
0.50113543 0.07440273 0.13227739
0.52003909 0.07710009 0.14431514
0.53822386 0.07376156 0.15541381
0.55565163 0.06874657 0.16613415
0.57231077 0.06790514 0.17686930
0.58826076 0.07184961 0.18755396
0.60361015 0.07712694 0.19781217
0.61848044 0.08099810 0.20719202
0.63297654 0.08231619 0.21535471
0.64711108 0.08354237 0.22257335
0.66065454 0.09361843 0.23073287
0.67334220 0.11244129 0.24193741
0.68517907 0.15075966 0.25628142
0.69625478 0.20611305 0.27318163
0.70664724 0.26394737 0.29206437
0.71639627 0.31651285 0.31251914
0.72551691 0.36155804 0.33411158
0.73391060 0.40007607 0.35664896
0.74126008 0.43438268 0.38042959
0.74700547 0.46694722 0.40626092
0.75055042 0.49954601 0.43499316
0.75182710 0.53153545 0.46581663
0.75182710 0.56050222 0.49609498
0.75182710 0.58576998 0.52460305
0.75182710 0.60792375 0.55138711
0.75182710 0.62780008 0.57682354
0.75182710 0.64606013 0.60117560
0.75180761 0.66310393 0.62447644
0.75180679 0.67914759 0.64666562
0.75181435 0.69431657 0.66786648
0.75182147 0.70853354 0.68800310
0.75182573 0.72148969 0.70664909
0.75182710 0.73265761 0.72298683
0.75182710 0.74139199 0.73595635
0.75182710 0.74721349 0.74470917
0.75182710 0.75032257 0.74943130
0.75182710 0.75159180 0.75137572
0.00137247 0.04483151 0.01083941
0.00110254 0.04545384 0.01103224
0.00059757 0.04663950 0.01133594
0.00008126 0.04846019 0.01157115
0.00026848 0.05116844 0.01140880
0.00274126 0.05516027 0.01037365
0.01004798 0.06084666 0.00807600
0.02468582 0.06840901 0.00486499
0.04548132 0.07749073 0.00272259
0.06916301 0.08708700 0.00178040
0.09317441 0.09597831 0.00163395
0.11638804 0.10348597 0.00193178
0.13878640 0.10950242 0.00218219
0.16082287 0.11416850 0.00234584
0.18298307 0.11759807 0.00245058
0.20559835 0.11970393 0.00264264
0.22882506 0.12008659 0.00268688
0.25267048 0.11812501 0.00244445
0.27700289 0.11322998 0.00332219
0.30163397 0.10484756 0.00572110
0.32632069 0.09274833 0.01086534
0.35080529 0.07756114 0.01864454
0.37483142 0.06133462 0.02910638
0.39813031 0.05072809 0.04446767
0.42058393 0.04912373 0.06285085
0.44219634 0.05338304 0.08174591
0.46300553 0.06119930 0.09956640
0.48305233 0.07047659 0.11569690
0.50238866 0.07776480 0.13001325
0.52106048 0.07961947 0.14264000
0.53906283 0.07574874 0.15404896
0.55634511 0.07045596 0.16495791
0.57288663 0.06943878 0.17583927
0.58874114 0.07291699 0.18665119
0.60401109 0.07758318 0.19703204
0.61881280 0.08075431 0.20653944
0.63324581 0.08130602 0.21485143
0.64731691 0.08184001 0.22226803
0.66079492 0.09150807 0.23068253
0.67343099 0.11126513 0.24208122
0.68523554 0.15198332 0.25651295
0.69629364 0.20812987 0.27342108
0.70667688 0.26572648 0.29227267
0.71642057 0.31772537 0.31268584
0.72553724 0.36226409 0.33424088
0.73392714 0.40045208 0.35675033
0.74127250 0.43458389 0.38051264
0.74701342 0.46706996 0.40633306
0.75055391 0.49963544 0.43505798
0.75182710 0.53160320 0.46587078
0.75182710 0.56055313 0.49613791
0.75182710 0.58580792 0.52463662
0.75182710 0.60795199 0.55141358
0.75182710 0.62782122 0.57684467
0.75182710 0.64607608 0.60119250
0.75180761 0.66311601 0.62448981
0.75180682 0.67915682 0.64667623
0.75181437 0.69432362 0.66787489
0.75182148 0.70853885 0.68800969
0.75182573 0.72149352 0.70665406
0.75182710 0.73266018 0.72299031
0.75182710 0.74139348 0.73595844
0.75182710 0.74721411 0.74471010
0.75182710 0.75032269 0.74943150
0.75182710 0.75159170 0.75137561
0.00202191 0.06222520 0.01454264
0.00175795 0.06292792 0.01473684
0.00126621 0.06427723 0.01503984
0.00074626 0.06637270 0.01525134
0.00086221 0.06953075 0.01499634
0.00327484 0.07424099 0.01372214
0.01083041 0.08099783 0.01094350
0.02651514 0.08994479 0.00697581
0.04979181 0.10046166 0.00415869
0.07620785 0.11138784 0.00291197
0.10244429 0.12147800 0.00265139
