DIT_DOCS/ARRI_LogC4_v1_LUT_Package/LUTs/ARRI_LogC4-to-St2084_1K_Rec2100-P3lim-D65_DW100_v1_65.cube
LUT_3D_SIZE 65
0.00000000 0.00000000 0.00000000
0.00000000 0.00000000 0.00000000
0.00000000 0.00017069 0.00019395
0.00000000 0.00066191 0.00068860
0.00017736 0.00120374 0.00125975
0.00150129 0.00155216 0.00168494
0.00419259 0.00158782 0.00187126
0.00853274 0.00202037 0.00253516
0.01479256 0.00318347 0.00395695
0.02324917 0.00522931 0.00619441
0.03447027 0.00831629 0.00929104
0.04894606 0.01267837 0.01331488
0.06694088 0.01859782 0.01836715
0.08850987 0.02629014 0.02453950
0.11339908 0.03589010 0.03191021
0.14092102 0.04727901 0.04042478
0.17006248 0.06016867 0.04995394
0.19986355 0.07420288 0.06035335
0.22964102 0.08899025 0.07145770
0.25892908 0.10434507 0.08323205
0.28750119 0.12000127 0.09554321
0.31520135 0.13586914 0.10835338
0.34196242 0.15177971 0.12152916
0.36772777 0.16764060 0.13497130
0.39243682 0.18344521 0.14863154
0.41609927 0.19899037 0.16230179
0.43871064 0.21419505 0.17586787
0.46025433 0.22910168 0.18931473
0.48077112 0.24360358 0.20251974
0.50032557 0.25757382 0.21535277
0.51896312 0.27103222 0.22780294
0.53671007 0.28413419 0.23996843
0.55360976 0.29699837 0.25192501
0.56976085 0.30951473 0.26358210
0.58525977 0.32157768 0.27485591
0.60018321 0.33315801 0.28572138
0.61458851 0.34430510 0.29621136
0.62851976 0.35513009 0.30640047
0.64201688 0.36577783 0.31638065
0.65517247 0.37616375 0.32606654
0.66808177 0.38618015 0.33535127
0.68076506 0.39595263 0.34431527
0.69304549 0.40616956 0.35351732
0.70438313 0.41847024 0.36436140
0.71375898 0.43561360 0.37930647
0.72003358 0.45991412 0.40070836
0.72329466 0.48856950 0.42707130
0.72476242 0.51681327 0.45470627
0.72557755 0.54209502 0.48119517
0.72634940 0.56413350 0.50589660
0.72739612 0.58357570 0.52896907
0.72885578 0.60123211 0.55081901
0.73051467 0.61788786 0.57208732
0.73218643 0.63401806 0.59318254
0.73388510 0.64980867 0.61418119
0.73587509 0.66525918 0.63487189
0.73848255 0.68028912 0.65493076
0.74149247 0.69481215 0.67426656
0.74448926 0.70863086 0.69272593
0.74711763 0.72136722 0.70987799
0.74917063 0.73244802 0.72495197
0.75058135 0.74118938 0.73696157
0.75139977 0.74707315 0.74511504
0.75178020 0.75025606 0.74955812
0.75182710 0.75157119 0.75140529
0.00000000 0.00000000 0.00000000
0.00000000 0.00000000 0.00000000
0.00000000 0.00009124 0.00032733
0.00000000 0.00059052 0.00084893
0.00029848 0.00114703 0.00143550
0.00165579 0.00149867 0.00185067
0.00440896 0.00150878 0.00200234
0.00881888 0.00191952 0.00265083
0.01513319 0.00307211 0.00407919
0.02363818 0.00512068 0.00633721
0.03492666 0.00823457 0.00946654
0.04949890 0.01265221 0.01353175
0.06762961 0.01866292 0.01863726
0.08937613 0.02647329 0.02486980
0.11444366 0.03619763 0.03229477
0.14206763 0.04768978 0.04084050
0.17121282 0.06063436 0.05036298
0.20093791 0.07468667 0.06073010
0.23059785 0.08946082 0.07178264
0.25975692 0.10478085 0.08349435
0.28820476 0.12039354 0.09574238
0.31579146 0.13622142 0.10849921
0.34245402 0.15209263 0.12162952
0.36813550 0.16791629 0.13503529
0.39277509 0.18368219 0.14866504
0.41638000 0.19919034 0.16231187
0.43894322 0.21436321 0.17586283
0.46044637 0.22924434 0.18930228
0.48092973 0.24372379 0.20250353
0.50045664 0.25767472 0.21533519
0.51907136 0.27111752 0.22778602
0.53679929 0.28420748 0.23995367
0.55368346 0.29706108 0.25191216
0.56982197 0.30956785 0.26357051
0.58531064 0.32162226 0.27484507
0.60022567 0.33319525 0.28571106
0.61462396 0.34433638 0.29620164
0.62854922 0.35515722 0.30639198
0.64204127 0.36580184 0.31637359
0.65519270 0.37618486 0.32606059
0.66809860 0.38619847 0.33534610
0.68077906 0.39596840 0.34431073
0.69305700 0.40618333 0.35351360
0.70439221 0.41848317 0.36435934
0.71376529 0.43562778 0.37930786
0.72003689 0.45993093 0.40071463
0.72329607 0.48858551 0.42707973
0.72476298 0.51682638 0.45471453
0.72557781 0.54210498 0.48120233
0.72634957 0.56414087 0.50590250
0.72739632 0.58358115 0.52897384
0.72885606 0.60123621 0.55082283
0.73051495 0.61789104 0.57209044
0.73218667 0.63402057 0.59318514
0.73388529 0.64981068 0.61418336
0.73587526 0.66526078 0.63487369
0.73848273 0.68029038 0.65493220
0.74149265 0.69481313 0.67426770
0.74448941 0.70863160 0.69272681
0.74711774 0.72136776 0.70987866
0.74917070 0.73244839 0.72495244
0.75058139 0.74118960 0.73696186
0.75139979 0.74707325 0.74511518
0.75178020 0.75025610 0.74955818
0.75182710 0.75157120 0.75140530
0.00002282 0.00000000 0.00006894
0.00000000 0.00000000 0.00025037
0.00000000 0.00000000 0.00063179
0.00006485 0.00050494 0.00119628
0.00058008 0.00108268 0.00179934
0.00199288 0.00144337 0.00217642
0.00485375 0.00140755 0.00224265
0.00938601 0.00176701 0.00284141
0.01579774 0.00288092 0.00426496
0.02439896 0.00491713 0.00655182
0.03582171 0.00806719 0.00973746
0.05058667 0.01257997 0.01388148
0.06898191 0.01875458 0.01909270
0.09105276 0.02677720 0.02544531
0.11641083 0.03671595 0.03297428
0.14416994 0.04838056 0.04158103
0.17327893 0.06141671 0.05110044
0.20284128 0.07549683 0.06141771
0.23227659 0.09025108 0.07238731
0.26120052 0.10551364 0.08399212
0.28942638 0.12105719 0.09613045
0.31681330 0.13682194 0.10879107
0.34330412 0.15262992 0.12183592
0.36884040 0.16839249 0.13517038
0.39336009 0.18409388 0.14873930
0.41686590 0.19953936 0.16233851
0.43934626 0.21465757 0.17585770
0.46077967 0.22949419 0.18928034
0.48120537 0.24393434 0.20247289
0.50068468 0.25785131 0.21530130
0.51925985 0.27126649 0.22775314
0.53695482 0.28433485 0.23992470
0.55381208 0.29716951 0.25188692
0.56992868 0.30965932 0.26354801
0.58539946 0.32169882 0.27482442
0.60029977 0.33325913 0.28569179
0.61468579 0.34439016 0.29618393
0.62860058 0.35520380 0.30637659
0.64208379 0.36584311 0.31636086
0.65522796 0.37622122 0.32604993
0.66812793 0.38623001 0.33533684
0.68080348 0.39599547 0.34430251
0.69307711 0.40620688 0.35350676
0.70440803 0.41850547 0.36435556
0.71377626 0.43565240 0.37931025
0.72004265 0.45996002 0.40072544
0.72329849 0.48861342 0.42709447
0.72476388 0.51684934 0.45472908
0.72557817 0.54212242 0.48121495
0.72634984 0.56415370 0.50591286
0.72739665 0.58359060 0.52898217
0.72885652 0.60124329 0.55082949
0.73051543 0.61789651 0.57209588
0.73218708 0.63402491 0.59318966
0.73388562 0.64981415 0.61418715
0.73587556 0.66526355 0.63487681
0.73848306 0.68029257 0.65493470
0.74149297 0.69481483 0.67426968
0.74448968 0.70863289 0.69272835
0.74711793 0.72136871 0.70987981
0.74917082 0.73244904 0.72495325
0.75058145 0.74118999 0.73696236
0.75139981 0.74707343 0.74511542
0.75178021 0.75025615 0.74955826
0.75182710 0.75157121 0.75140531
0.00042727 0.00000000 0.00051142
0.00040991 0.00000000 0.00072305
0.00040884 0.00007466 0.00115183
0.00054325 0.00059564 0.00175969
0.00109841 0.00119980 0.00236578
0.00258494 0.00159638 0.00265552
0.00559709 0.00151588 0.00255733
0.01031000 0.00179110 0.00303737
0.01687768 0.00281415 0.00440892
0.02565280 0.00479504 0.00670289
0.03730717 0.00796226 0.00994305
0.05238426 0.01258011 0.01418551
0.07117372 0.01895477 0.01954503
0.09367172 0.02723565 0.02607163
0.11934024 0.03741769 0.03375076
0.14717073 0.04926615 0.04245736
0.17613369 0.06239192 0.05200477
0.20541360 0.07648368 0.06228904
0.23450968 0.09120541 0.07318585
0.26309883 0.10639950 0.08468236
0.29101918 0.12186707 0.09669964
0.31813789 0.13756431 0.10924399
0.34440221 0.15330268 0.12217496
0.36974929 0.16899622 0.13540637
0.39411409 0.18462171 0.14888202
0.41749260 0.19999112 0.16240442
0.43986690 0.21504139 0.17586904
0.46121112 0.22982151 0.18925947
0.48156298 0.24421087 0.20243370
0.50098117 0.25808329 0.21525382
0.51950541 0.27146180 0.22770515
0.53715781 0.28450121 0.23988144
0.55398013 0.29731052 0.25184901
0.57006822 0.30977771 0.26351451
0.58551566 0.32179747 0.27479423
0.60039671 0.33334116 0.28566426
0.61476664 0.34445901 0.29615905
0.62866778 0.35526314 0.30635507
0.64213939 0.36589573 0.31634319
0.65527403 0.37626765 0.32603525
0.66816627 0.38627028 0.33532410
0.68083544 0.39602989 0.34429112
0.69310348 0.40623668 0.35349714
0.70442875 0.41853386 0.36435009
0.71379058 0.43568410 0.37931305
0.72005012 0.45999782 0.40073948
0.72330152 0.48864992 0.42711387
0.72476491 0.51687945 0.45474833
0.72557854 0.54214525 0.48123162
0.72635012 0.56417041 0.50592647
0.72739705 0.58360284 0.52899305
0.72885711 0.60125242 0.55083816
0.73051607 0.61790356 0.57210293
0.73218763 0.63403050 0.59319553
0.73388606 0.64981864 0.61419206
0.73587595 0.66526714 0.63488087
0.73848348 0.68029540 0.65493796
0.74149339 0.69481704 0.67427226
0.74449002 0.70863457 0.69273034
0.74711818 0.72136993 0.70988130
0.74917098 0.73244987 0.72495429
0.75058153 0.74119048 0.73696299
0.75139984 0.74707366 0.74511572
0.75178021 0.75025622 0.74955835
0.75182710 0.75157120 0.75140531
0.00102202 0.00019523 0.00118233
0.00103423 0.00037137 0.00141962
0.00108281 0.00073822 0.00188255
0.00127939 0.00129952 0.00251061
0.00191357 0.00196463 0.00309516
0.00351438 0.00246040 0.00325697
0.00674691 0.00240801 0.00290129
0.01175233 0.00258892 0.00314747
0.01860921 0.00345583 0.00435831
0.02772507 0.00531741 0.00657556
0.03979179 0.00845272 0.00980484
0.05535845 0.01314011 0.01410812
0.07468063 0.01968089 0.01961331
0.09763779 0.02816838 0.02633134
0.12351402 0.03850764 0.03418726
0.15123491 0.05044014 0.04304338
0.17985445 0.06356640 0.05269527
0.20867596 0.07759466 0.06303408
0.23728524 0.09223930 0.07395242
0.26542141 0.10734471 0.08542461
0.29294330 0.12273412 0.09738399
0.31972286 0.13836780 0.10984587
0.34570701 0.15404188 0.12266907
0.37082393 0.16967181 0.13578350
0.39500290 0.18522321 0.14913837
0.41823053 0.20051466 0.16255110
0.44048021 0.21549290 0.17593013
0.46172023 0.23021119 0.18926338
0.48198607 0.24454269 0.20240085
0.50133307 0.25836269 0.21520067
0.51979779 0.27169707 0.22764516
0.53740016 0.28470113 0.23982417
0.55418122 0.29747932 0.25179741
0.57023545 0.30991874 0.26346863
0.58565504 0.32191432 0.27475327
0.60051303 0.33343776 0.28562749
0.61486367 0.34453960 0.29612632
0.62874844 0.35533218 0.30632697
0.64220617 0.36595659 0.31632008
0.65532936 0.37632132 0.32601615
0.66821231 0.38631672 0.33530759
0.68087387 0.39606941 0.34427632
0.69313520 0.40627084 0.35348456
0.70445368 0.41856665 0.36434268
0.71380776 0.43572132 0.37931593
0.72005897 0.46004281 0.40075620
0.72330499 0.48869367 0.42713728
0.72476598 0.51691560 0.45477162
0.72557885 0.54217259 0.48125176
0.72635037 0.56419033 0.50594284
0.72739749 0.58361734 0.52900608
0.72885780 0.60126322 0.55084849
0.73051682 0.61791189 0.57211132
0.73218828 0.63403711 0.59320251
0.73388658 0.64982396 0.61419791
0.73587641 0.66527140 0.63488570
0.73848399 0.68029877 0.65494185
0.74149389 0.69481966 0.67427532
0.74449044 0.70863656 0.69273272
0.74711849 0.72137138 0.70988308
0.74917116 0.73245085 0.72495553
0.75058163 0.74119106 0.73696374
0.75139987 0.74707392 0.74511607
0.75178021 0.75025628 0.74955844
0.75182710 0.75157118 0.75140529
0.00178991 0.00196981 0.00206807
0.00183169 0.00219802 0.00232008
0.00193543 0.00265462 0.00279259
0.00222021 0.00333497 0.00339801
0.00299313 0.00415807 0.00391093
0.00480054 0.00487355 0.00395368
0.00836551 0.00510109 0.00328543
0.01388976 0.00526467 0.00313052
0.02132923 0.00595760 0.00397915
0.03111958 0.00767370 0.00592868
0.04392761 0.01072994 0.00895274
0.06025299 0.01540020 0.01314467
0.08024145 0.02195607 0.01866839
0.10357267 0.03042485 0.02547977
0.12940428 0.04063815 0.03346290
0.15671354 0.05235530 0.04249931
0.18470304 0.06522379 0.05237879
0.21282368 0.07898588 0.06296190
0.24074852 0.09341740 0.07413189
0.26827368 0.10835568 0.08581285
0.29527184 0.12363346 0.09792043
0.32161778 0.13918790 0.11044953
0.34725000 0.15479806 0.12325928
0.37208248 0.17037465 0.13630227
0.39603558 0.18586323 0.14954215
0.41908311 0.20108543 0.16282520
0.44118664 0.21599712 0.17608694
0.46230623 0.23065574 0.18933004
0.48247376 0.24492737 0.20240170
0.50173989 0.25869010 0.21515914
0.52013705 0.27197437 0.22758249
0.53768243 0.28493717 0.23975674
0.55441622 0.29767831 0.25173261
0.57043141 0.31008432 0.26340913
0.58581869 0.32205073 0.27469961
0.60064977 0.33354980 0.28557950
0.61497780 0.34463237 0.29608398
0.62884337 0.35541094 0.30629076
0.64228481 0.36602536 0.31629022
0.65539458 0.37638141 0.32599131
0.66826663 0.38636843 0.33528611
0.68091922 0.39611319 0.34425711
0.69317263 0.40630884 0.35346837
0.70448305 0.41860357 0.36433297
0.71382793 0.43576399 0.37931868
0.72006927 0.46009515 0.40077563
0.72330891 0.48874487 0.42716482
0.72476709 0.51695796 0.45479910
0.72557910 0.54220459 0.48127548
0.72635059 0.56421358 0.50596206
0.72739797 0.58363422 0.52902132
0.72885860 0.60127574 0.55086055
0.73051770 0.61792154 0.57212109
0.73218905 0.63404479 0.59321064
0.73388718 0.64983013 0.61420472
0.73587695 0.66527635 0.63489133
0.73848459 0.68030269 0.65494637
0.74149448 0.69482271 0.67427889
0.74449093 0.70863888 0.69273548
0.74711884 0.72137307 0.70988515
0.74917138 0.73245199 0.72495697
0.75058173 0.74119173 0.73696461
0.75139991 0.74707421 0.74511646
0.75178021 0.75025635 0.74955854
0.75182710 0.75157115 0.75140526
0.00285609 0.00556607 0.00327618
0.00291600 0.00588612 0.00353413
0.00305159 0.00650827 0.00400262
0.00338639 0.00742992 0.00457078
0.00425783 0.00860706 0.00499355
0.00630251 0.00984637 0.00488341
0.01037211 0.01076511 0.00399632
0.01677094 0.01118933 0.00322325
0.02530126 0.01194213 0.00340472
0.03632455 0.01370903 0.00475583
0.05040161 0.01675924 0.00718688
0.06785588 0.02131863 0.01086238
0.08858568 0.02760502 0.01603497
0.11206573 0.03560161 0.02258063
0.13748135 0.04513621 0.03042636
0.16400619 0.05605070 0.03954693
0.19102956 0.06813977 0.04975190
0.21816399 0.08120198 0.06083747
0.24516450 0.09509260 0.07263613
0.27187707 0.10963612 0.08495682
0.29818304 0.12466111 0.09763616
0.32396050 0.14004972 0.11059126
0.34913333 0.15555648 0.12366203
0.37359735 0.17107330 0.13681858
0.39726152 0.18650803 0.15004496
0.42008293 0.20167543 0.16323527
0.44200732 0.21653488 0.17637488
0.46298302 0.23114468 0.18950145
0.48303570 0.24536137 0.20247336
0.50220893 0.25906682 0.21515685
0.52052923 0.27229806 0.22753507
0.53800990 0.28521532 0.23968925
0.55468992 0.29791390 0.25165917
0.57066049 0.31028048 0.26333707
0.58601056 0.32221193 0.27463235
0.60081043 0.33368151 0.28551849
0.61511211 0.34474058 0.29602992
0.62895522 0.35550181 0.30624439
0.64237759 0.36610374 0.31625173
0.65547162 0.37644906 0.32595910
0.66833083 0.38642606 0.33525823
0.68097282 0.39616182 0.34423243
0.69321681 0.40635120 0.35344776
0.70451767 0.41864524 0.36432044
0.71385166 0.43581295 0.37932122
0.72008132 0.46015599 0.40079817
0.72331341 0.48880471 0.42719714
0.72476828 0.51700756 0.45483140
0.72557931 0.54224204 0.48130336
0.72635080 0.56424074 0.50598462
0.72739851 0.58365389 0.52903916
0.72885953 0.60129033 0.55087463
0.73051873 0.61793278 0.57213250
0.73218994 0.63405372 0.59322012
0.73388789 0.64983734 0.61421267
0.73587758 0.66528213 0.63489791
0.73848528 0.68030727 0.65495166
0.74149516 0.69482627 0.67428306
0.74449151 0.70864158 0.69273871
0.74711925 0.72137503 0.70988756
0.74917163 0.73245331 0.72495864
0.75058186 0.74119250 0.73696562
0.75139995 0.74707454 0.74511690
0.75178020 0.75025642 0.74955864
0.75182710 0.75157110 0.75140521
0.00493244 0.01115466 0.00545633
0.00501614 0.01156815 0.00573525
0.00518474 0.01235651 0.00623149
0.00555021 0.01352373 0.00681953
0.00645010 0.01508696 0.00723925
0.00855715 0.01697997 0.00707574
0.01284690 0.01896597 0.00598247
0.02013975 0.02074702 0.00439951
0.03030052 0.02265697 0.00359410
0.04334148 0.02525062 0.00387876
0.05938950 0.02874992 0.00519528
0.07835346 0.03327260 0.00772548
0.09979385 0.03900745 0.01185100
0.12315851 0.04594572 0.01730551
0.14783847 0.05401900 0.02425746
0.17328114 0.06328692 0.03298829
0.19907106 0.07377452 0.04332449
0.22497718 0.08538511 0.05501364
0.25082888 0.09810274 0.06781832
0.27651735 0.11175286 0.08134514
0.30193463 0.12616224 0.09524987
0.32696814 0.14113851 0.10927486
0.35152988 0.15639526 0.12316800
0.37549931 0.17178189 0.13687550
0.39877513 0.18713945 0.15038826
0.42129530 0.20225578 0.16366285
0.44298586 0.21707890 0.17676247
0.46377923 0.23165739 0.18979114
0.48369088 0.24583189 0.20264605
0.50275331 0.25948722 0.21522484
0.52098396 0.27266821 0.22752779
0.53839021 0.28553962 0.23963884
0.55500878 0.29819234 0.25158731
0.57092837 0.31051427 0.26325745
0.58623577 0.32240474 0.27455303
0.60099963 0.33383892 0.28544390
0.61527067 0.34486925 0.29596253
0.62908756 0.35560880 0.30618586
0.64248758 0.36619478 0.31620260
0.65556308 0.37652655 0.32591763
0.66840713 0.38649131 0.33522232
0.68103649 0.39621655 0.34420088
0.69326924 0.40639899 0.35342166
0.70455869 0.41869275 0.36430445
0.71387973 0.43586957 0.37932347
0.72009553 0.46022708 0.40082439
0.72331868 0.48887492 0.42723513
0.72476963 0.51706586 0.45486949
0.72557952 0.54228608 0.48133623
0.72635103 0.56427267 0.50601117
0.72739914 0.58367701 0.52906013
0.72886063 0.60130745 0.55089116
0.73051995 0.61794597 0.57214589
0.73219098 0.63406422 0.59323126
0.73388871 0.64984579 0.61422202
0.73587831 0.66528893 0.63490564
0.73848610 0.68031265 0.65495787
0.74149597 0.69483046 0.67428796
0.74449218 0.70864476 0.69274250
0.74711973 0.72137734 0.70989039
0.74917193 0.73245487 0.72496061
0.75058200 0.74119340 0.73696680
0.75139999 0.74707493 0.74511743
0.75178020 0.75025650 0.74955876
0.75182710 0.75157105 0.75140515
0.00841709 0.01895350 0.00889457
0.00852698 0.01943072 0.00920045
0.00872605 0.02033244 0.00973957
0.00909976 0.02167908 0.01037577
0.00997039 0.02357032 0.01083748
0.01203639 0.02612300 0.01067294
0.01641749 0.02937547 0.00940875
0.02436441 0.03319846 0.00716236
0.03629326 0.03742805 0.00554874
0.05171104 0.04212668 0.00503174
0.06997413 0.04714870 0.00549162
0.09040903 0.05233415 0.00676925
0.11245168 0.05771600 0.00888935
0.13566474 0.06334418 0.01182679
0.15965163 0.06937553 0.01631840
0.18403399 0.07623444 0.02334805
0.20859962 0.08418481 0.03270683
0.23325272 0.09333474 0.04432702
0.25788304 0.10391292 0.05800460
0.28242404 0.11580871 0.07307422
0.30679233 0.12890391 0.08888000
0.33090227 0.14294522 0.10484323
0.35467241 0.15759628 0.12044904
0.37798030 0.17263715 0.13549883
0.40072490 0.18780340 0.14992253
0.42282871 0.20282348 0.16372112
0.44419758 0.21760571 0.17705132
0.46474541 0.23216509 0.19011856
0.48447247 0.24631329 0.20290325
0.50339467 0.25993282 0.21537530
0.52151568 0.27307435 0.22758145
0.53883346 0.28590675 0.23962523
0.55538043 0.29851554 0.25153201
0.57124131 0.31079075 0.26317997
0.58649976 0.32263565 0.27446686
0.60122221 0.33402874 0.28535774
0.61545786 0.34502458 0.29588179
0.62924427 0.35573723 0.30611400
0.64261817 0.36630286 0.31614117
0.65567192 0.37661729 0.32586513
0.66849802 0.38656678 0.33517665
0.68111235 0.39627934 0.34416093
0.69333164 0.40645375 0.35338884
0.70460745 0.41874756 0.36428424
0.71391305 0.43593554 0.37932534
0.72011236 0.46031050 0.40085501
0.72332488 0.48895759 0.42727991
0.72477120 0.51713463 0.45491448
0.72557976 0.54233806 0.48137507
0.72635133 0.56431035 0.50604252
0.72739994 0.58370426 0.52908484
0.72886197 0.60132762 0.55091063
0.73052140 0.61796152 0.57216165
0.73219221 0.63407660 0.59324438
0.73388967 0.64985578 0.61423304
0.73587917 0.66529694 0.63491476
0.73848705 0.68031899 0.65496519
0.74149692 0.69483540 0.67429373
0.74449298 0.70864850 0.69274697
0.74712031 0.72138006 0.70989373
0.74917227 0.73245670 0.72496293
0.75058218 0.74119447 0.73696819
0.75140005 0.74707538 0.74511804
0.75178019 0.75025659 0.74955890
0.75182710 0.75157098 0.75140508
0.01349204 0.02920955 0.01366025
0.01363332 0.02973016 0.01399394
0.01387996 0.03071852 0.01458866
0.01429775 0.03222806 0.01531290
0.01519413 0.03445925 0.01589760
0.01727644 0.03772492 0.01585958
0.02174404 0.04233937 0.01459442
0.03012511 0.04839489 0.01196221
0.04350536 0.05548328 0.00966226
0.06108008 0.06297559 0.00855806
0.08127935 0.07005836 0.00850149
0.10287198 0.07634723 0.00904957
0.12521435 0.08187438 0.00986749
0.14804908 0.08681968 0.01087855
0.17127598 0.09143827 0.01250875
0.19480053 0.09609460 0.01565374
0.21853923 0.10112624 0.02120654
0.24233681 0.10703592 0.03026502
0.26601808 0.11444324 0.04311275
0.28954454 0.12345814 0.05891626
0.31287433 0.13419085 0.07662873
0.33597238 0.14641917 0.09520990
0.35880275 0.15979354 0.11355338
0.38127409 0.17402103 0.13106241
0.40331308 0.18870076 0.14742912
0.42484408 0.20346286 0.16258683
0.44576186 0.21813368 0.17674121
0.46596596 0.23265047 0.19021030
0.48543765 0.24677474 0.20311460
0.50417052 0.26037251 0.21555888
0.52214853 0.27349187 0.22768732
0.53935521 0.28630101 0.23965685
0.55581528 0.29887612 0.25150632
0.57160678 0.31110894 0.26311645
0.58680840 0.32290792 0.27438243
0.60148317 0.33425650 0.28526517
0.61567810 0.34521292 0.29579009
0.62942932 0.35589335 0.30602931
0.64277293 0.36643350 0.31606675
0.65580128 0.37672581 0.32580024
0.66860628 0.38665593 0.33511959
0.68120278 0.39635279 0.34411092
0.69340600 0.40651750 0.35334786
0.70466549 0.41881148 0.36425883
0.71395268 0.43601286 0.37932663
0.72013237 0.46040871 0.40089075
0.72333226 0.48905512 0.42733270
0.72477308 0.51721584 0.45496766
0.72558008 0.54239947 0.48142098
0.72635178 0.56435484 0.50607951
0.72740101 0.58373639 0.52911393
0.72886366 0.60135141 0.55093354
0.73052317 0.61797987 0.57218023
0.73219369 0.63409122 0.59325988
0.73389081 0.64986758 0.61424606
0.73588018 0.66530642 0.63492555
0.73848818 0.68032650 0.65497385
0.74149804 0.69484123 0.67430056
0.74449392 0.70865293 0.69275225
0.74712098 0.72138328 0.70989767
0.74917269 0.73245887 0.72496567
0.75058238 0.74119573 0.73696983
0.75140011 0.74707592 0.74511877
0.75178019 0.75025670 0.74955907
0.75182710 0.75157090 0.75140499
0.02049059 0.04246238 0.01995827
0.02068805 0.04303842 0.02033144
0.02103479 0.04413801 0.02100976
0.02158250 0.04584775 0.02187748
0.02262069 0.04845957 0.02268230
0.02483698 0.05245095 0.02292675
0.02944001 0.05835264 0.02190520
0.03806201 0.06642348 0.01921457
0.05205969 0.07609970 0.01609042
0.07084946 0.08607708 0.01427490
0.09232613 0.09510159 0.01377675
0.11474166 0.10259427 0.01400280
0.13724846 0.10859876 0.01432983
0.15967341 0.11342239 0.01442603
0.18214519 0.11740583 0.01436648
0.20482393 0.12085678 0.01464783
0.22779561 0.12403334 0.01598251
0.25099165 0.12731129 0.01972306
0.27422596 0.13124185 0.02754179
0.29725257 0.13651762 0.04069257
0.31990031 0.14375141 0.05824265
0.34214731 0.15301784 0.07888730
0.36404739 0.16409828 0.10041810
0.38558535 0.17670214 0.12144757
0.40676314 0.19031559 0.14109280
0.42754661 0.20444773 0.15889826
0.44784751 0.21879550 0.17491244
0.46756987 0.23315654 0.18949567
0.48667932 0.24720904 0.20295319
0.50514463 0.26077643 0.21560408
0.52292455 0.27388614 0.22776591
0.53998235 0.28669289 0.23970470
0.55633035 0.29925358 0.25150607
0.57203580 0.31145756 0.26307287
0.58716925 0.32321781 0.27430812
0.60178817 0.33452381 0.28517350
0.61593600 0.34543911 0.29569253
0.62964674 0.35608343 0.30593467
0.64295549 0.36659305 0.31598035
0.65595448 0.37685768 0.32572261
0.66873489 0.38676328 0.33504995
0.68131042 0.39644034 0.34404927
0.69349457 0.40659285 0.35329712
0.70473461 0.41888677 0.36422705
0.71399984 0.43610396 0.37932702
0.72015619 0.46052459 0.40093243
0.72334105 0.48917030 0.42739489
0.72477534 0.51731179 0.45503047
0.72558057 0.54247201 0.48147521
0.72635250 0.56440731 0.50612308
0.72740256 0.58377421 0.52914804
0.72886586 0.60137941 0.55096041
0.73052538 0.61800150 0.57220209
0.73219548 0.63410849 0.59327816
0.73389216 0.64988154 0.61426146
0.73588137 0.66531764 0.63493831
0.73848950 0.68033538 0.65498410
0.74149936 0.69484814 0.67430864
0.74449503 0.70865817 0.69275850
0.74712178 0.72138709 0.70990233
0.74917317 0.73246143 0.72496891
0.75058262 0.74119722 0.73697178
0.75140019 0.74707656 0.74511963
0.75178018 0.75025683 0.74955927
0.75182710 0.75157081 0.75140490
0.02975644 0.05914839 0.02800229
0.03003778 0.05980607 0.02842642
0.03054558 0.06107057 0.02921702
0.03132272 0.06305348 0.03028341
0.03263419 0.06610815 0.03140203
0.03511079 0.07080700 0.03207504
0.03986035 0.07777802 0.03149008
0.04837828 0.08728686 0.02889432
0.06198599 0.09860903 0.02488206
0.08073984 0.11014396 0.02197080
0.10257274 0.12051306 0.02076913
