DIT_DOCS/ARRI_LogC4_v1_LUT_Package/LUTs/ARRI_LogC4-to-Gamma24_Rec2020-D65_v1-65.cube
LUT_3D_SIZE 65
0.00000000 0.00000000 0.00000000
0.00000000 0.00006930 0.00011042
0.00002352 0.00071538 0.00072350
0.00037252 0.00161948 0.00160655
0.00119964 0.00250397 0.00253696
0.00297824 0.00290606 0.00313825
0.00616554 0.00254267 0.00324100
0.01066482 0.00226955 0.00374931
0.01655001 0.00230384 0.00487883
0.02423916 0.00264100 0.00658202
0.03441179 0.00315097 0.00869142
0.04772270 0.00381496 0.01099024
0.06474784 0.00442767 0.01318619
0.08590619 0.00503744 0.01499283
0.11147725 0.00511345 0.01604185
0.14150267 0.00476978 0.01598662
0.17580490 0.00481220 0.01456264
0.21406291 0.00490203 0.01169168
0.25578651 0.00641908 0.00815634
0.30038989 0.01150239 0.00605074
0.34726022 0.02097103 0.00736093
0.39571994 0.03305821 0.01299152
0.44495773 0.04693825 0.02179995
0.49419598 0.06180809 0.03232155
0.54284255 0.07655324 0.04317956
0.59055645 0.08977469 0.05321399
0.63718225 0.10006378 0.06163674
0.68284115 0.10508312 0.06743158
0.72763639 0.10265935 0.07004303
0.77160038 0.09112808 0.06938014
0.81466828 0.07047893 0.06590145
0.85660261 0.04466208 0.06088309
0.89679427 0.02388596 0.05679012
0.93388204 0.01948216 0.05764221
0.96539118 0.03885713 0.06876881
0.98795446 0.09036044 0.09514856
0.99922067 0.17482130 0.13733358
1.00000000 0.25898020 0.18327602
1.00000000 0.32893659 0.22658863
1.00000000 0.38406682 0.26589246
1.00000000 0.42891803 0.30235623
1.00000000 0.46844894 0.33790145
0.99993427 0.50606266 0.37411390
0.99989089 0.54362266 0.41210201
0.99992047 0.58180567 0.45239230
0.99996069 0.62068392 0.49514709
0.99998901 0.66005500 0.54027097
1.00000000 0.69948709 0.58726413
1.00000000 0.73854409 0.63560138
0.99999473 0.77665633 0.68441719
0.99997386 0.81317439 0.73262469
0.99994343 0.84745302 0.77915716
0.99991854 0.87884080 0.82276006
0.99994248 0.90675622 0.86216409
0.99997166 0.93077817 0.89656539
0.99999117 0.95067431 0.92549980
1.00000000 0.96643067 0.94877754
1.00000000 0.97826138 0.96652041
1.00000000 0.98659255 0.97918453
1.00000000 0.99202641 0.98754046
1.00000000 0.99528348 0.99259719
1.00000000 0.99710347 0.99544431
0.99999992 0.99810117 0.99701316
0.99999989 0.99865804 0.99789060
0.99999990 0.99892858 0.99831675
0.00014597 0.00000000 0.00008140
0.00018721 0.00009028 0.00038435
0.00031642 0.00072639 0.00100845
0.00064905 0.00161955 0.00189545
0.00146015 0.00249793 0.00280963
0.00324398 0.00287820 0.00336585
0.00647396 0.00245835 0.00340052
0.01102794 0.00212791 0.00386165
0.01695820 0.00211421 0.00496459
0.02468801 0.00241760 0.00665088
0.03489769 0.00289933 0.00873457
0.04824153 0.00355193 0.01098517
0.06529637 0.00417171 0.01309780
0.08648371 0.00478351 0.01477349
0.11207982 0.00494539 0.01564443
0.14212745 0.00479409 0.01536705
0.17644916 0.00512207 0.01370366
0.21471814 0.00575682 0.01064408
0.25643809 0.00807667 0.00708812
0.30102284 0.01401237 0.00541307
0.34787663 0.02356048 0.00710862
0.39632207 0.03533661 0.01287359
0.44554343 0.04874195 0.02166664
0.49475759 0.06313798 0.03212206
0.54336327 0.07753755 0.04295324
0.59100894 0.09063519 0.05306309
0.63755061 0.10096380 0.06161119
0.68313073 0.10609124 0.06751117
0.72786419 0.10378932 0.07018149
0.77178370 0.09236570 0.06953917
0.81482080 0.07173930 0.06605663
0.85673033 0.04571930 0.06103076
0.89689890 0.02428275 0.05693316
0.93396233 0.01943405 0.05778330
0.96544450 0.03863870 0.06890616
0.98797996 0.09018690 0.09527741
0.99922927 0.17482219 0.13744884
1.00000000 0.25908839 0.18337191
1.00000000 0.32907951 0.22666510
1.00000000 0.38420352 0.26595372
1.00000000 0.42903279 0.30240681
1.00000000 0.46854026 0.33794511
0.99993422 0.50613403 0.37415268
0.99989092 0.54367851 0.41213689
0.99992052 0.58184956 0.45242342
0.99996072 0.62071874 0.49517474
0.99998903 0.66008278 0.54029522
1.00000000 0.69950920 0.58728491
1.00000000 0.73856159 0.63561885
0.99999471 0.77667004 0.68443154
0.99997381 0.81318499 0.73263630
0.99994334 0.84746105 0.77916636
0.99991840 0.87884674 0.82276712
0.99994239 0.90676048 0.86216928
0.99997161 0.93078112 0.89656907
0.99999115 0.95067626 0.92550230
1.00000000 0.96643191 0.94877916
1.00000000 0.97826212 0.96652139
1.00000000 0.98659296 0.97918509
1.00000000 0.99202662 0.98754075
1.00000000 0.99528358 0.99259732
1.00000000 0.99710351 0.99544436
0.99999992 0.99810118 0.99701319
0.99999989 0.99865805 0.99789061
0.99999990 0.99892859 0.99831676
0.00076461 0.00000000 0.00065153
0.00079815 0.00020923 0.00096562
0.00090437 0.00081781 0.00159710
0.00120300 0.00167891 0.00247414
0.00198164 0.00253505 0.00333888
0.00376684 0.00287851 0.00379017
0.00706968 0.00235818 0.00368026
0.01171977 0.00191331 0.00403729
0.01772832 0.00179308 0.00507788
0.02552410 0.00201181 0.00672158
0.03578833 0.00242648 0.00874812
0.04917880 0.00303019 0.01089776
0.06627525 0.00364425 0.01284529
0.08750519 0.00427594 0.01427239
0.11314073 0.00462915 0.01481859
0.14322571 0.00488759 0.01415990
0.17758051 0.00586782 0.01213309
0.21586560 0.00759273 0.00889952
0.25757489 0.01131275 0.00561275
0.30213644 0.01831149 0.00450191
0.34897096 0.02789768 0.00671345
0.39739884 0.03911633 0.01261585
0.44660038 0.05168066 0.02129894
0.49578256 0.06521681 0.03156606
0.54431891 0.07900867 0.04234032
0.59181992 0.09202350 0.05269726
0.63819633 0.10251030 0.06154381
0.68363145 0.10785866 0.06765957
0.72825623 0.10576918 0.07043840
0.77210184 0.09450423 0.06982221
0.81508515 0.07389454 0.06633442
0.85694966 0.04749694 0.06130293
0.89707730 0.02496320 0.05720043
0.93409861 0.01933369 0.05804554
0.96553448 0.03821776 0.06915831
0.98802283 0.08983168 0.09551056
0.99924309 0.17476875 0.13765342
1.00000000 0.25923860 0.18353996
1.00000000 0.32930705 0.22679814
1.00000000 0.38443129 0.26605987
1.00000000 0.42922849 0.30249437
1.00000000 0.46869811 0.33802083
0.99993414 0.50625845 0.37422016
0.99989101 0.54377620 0.41219765
0.99992061 0.58192640 0.45247771
0.99996077 0.62077963 0.49522298
0.99998906 0.66013124 0.54033753
1.00000000 0.69954768 0.58732114
1.00000000 0.73859200 0.63564928
0.99999468 0.77669382 0.68445654
0.99997373 0.81320335 0.73265651
0.99994318 0.84747496 0.77918234
0.99991817 0.87885701 0.82277937
0.99994223 0.90676783 0.86217829
0.99997153 0.93078620 0.89657544
0.99999112 0.95067963 0.92550662
1.00000000 0.96643403 0.94878194
1.00000000 0.97826338 0.96652308
1.00000000 0.98659365 0.97918604
1.00000000 0.99202697 0.98754123
1.00000000 0.99528373 0.99259754
1.00000000 0.99710357 0.99544445
0.99999992 0.99810121 0.99701322
0.99999989 0.99865806 0.99789063
0.99999990 0.99892860 0.99831677
0.00160568 0.00032856 0.00152188
0.00162973 0.00061074 0.00184076
0.00170945 0.00118187 0.00246345
0.00196827 0.00199257 0.00329931
0.00271372 0.00280871 0.00406830
0.00450142 0.00312675 0.00434209
0.00791739 0.00249233 0.00399991
0.01272009 0.00188047 0.00418177
0.01885421 0.00157637 0.00510766
0.02674572 0.00162432 0.00666477
0.03707405 0.00190734 0.00858697
0.05050927 0.00240501 0.01057070
0.06764093 0.00299365 0.01226774
0.08890944 0.00368636 0.01334261
0.11458405 0.00438972 0.01346163
0.14470935 0.00535063 0.01234993
0.17909944 0.00741706 0.00996434
0.21739563 0.01074594 0.00669946
0.25908676 0.01619732 0.00398865
0.30363187 0.02389621 0.00352596
0.35045287 0.03325777 0.00619980
0.39886705 0.04367640 0.01213693
0.44805518 0.05511221 0.02052368
0.49721041 0.06747632 0.03041411
0.54565481 0.08049277 0.04113376
0.59290406 0.09372280 0.05209988
0.63904205 0.10451473 0.06144269
0.68428448 0.11015108 0.06785995
0.72877259 0.10830285 0.07076603
0.77252060 0.09724810 0.07018640
0.81542976 0.07668271 0.06670415
0.85723158 0.04981730 0.06167982
0.89730305 0.02592194 0.05758286
0.93426901 0.01924228 0.05842341
0.96564568 0.03763555 0.06951709
0.98807467 0.08928670 0.09583531
0.99925831 0.17460879 0.13792905
1.00000000 0.25936282 0.18376110
1.00000000 0.32955588 0.22697080
1.00000000 0.38469976 0.26619673
1.00000000 0.42946848 0.30260725
1.00000000 0.46889696 0.33811880
0.99993407 0.50641826 0.37430791
0.99989115 0.54390323 0.41227693
0.99992076 0.58202692 0.45254866
0.99996086 0.62085940 0.49528605
0.99998909 0.66019465 0.54039282
1.00000000 0.69959792 0.58736847
1.00000000 0.73863159 0.63568901
0.99999464 0.77672472 0.68448914
0.99997362 0.81322715 0.73268282
0.99994296 0.84749296 0.77920313
0.99991786 0.87887029 0.82279528
0.99994201 0.90677732 0.86218996
0.99997142 0.93079273 0.89658367
0.99999109 0.95068394 0.92551216
1.00000000 0.96643673 0.94878549
1.00000000 0.97826496 0.96652522
1.00000000 0.98659451 0.97918722
1.00000000 0.99202739 0.98754182
1.00000000 0.99528391 0.99259779
1.00000000 0.99710364 0.99544454
0.99999992 0.99810124 0.99701325
0.99999989 0.99865808 0.99789064
0.99999990 0.99892861 0.99831678
0.00238473 0.00140207 0.00256312
0.00239823 0.00167697 0.00286932
0.00245275 0.00222503 0.00344838
0.00267979 0.00299941 0.00419336
0.00341825 0.00379091 0.00481959
0.00526552 0.00413199 0.00486829
0.00889288 0.00345089 0.00422500
0.01398346 0.00265059 0.00415731
0.02036747 0.00207583 0.00489647
0.02843906 0.00183567 0.00629744
0.03886889 0.00190733 0.00804510
0.05235323 0.00224892 0.00978292
0.06950699 0.00280326 0.01114471
0.09079606 0.00362307 0.01179124
0.11649185 0.00488559 0.01145524
0.14664046 0.00688596 0.00995987
0.18104643 0.01042306 0.00741492
0.21933107 0.01559187 0.00444767
0.26100195 0.02230828 0.00247412
0.30553224 0.03029618 0.00261349
0.35233550 0.03917552 0.00557228
0.40072760 0.04861960 0.01137569
0.44989422 0.05876125 0.01925308
0.49899879 0.06985339 0.02866903
0.54723072 0.08252223 0.03983769
0.59417389 0.09596725 0.05154032
0.64003633 0.10701752 0.06142015
0.68506498 0.11288123 0.06812809
0.72939522 0.11128109 0.07115742
0.77302582 0.10050405 0.07061766
0.81584139 0.08009309 0.06715569
0.85756335 0.05282372 0.06215703
0.89756423 0.02745964 0.05808103
0.93446238 0.01941642 0.05892418
0.96576907 0.03703261 0.06999145
0.98813027 0.08859509 0.09625341
0.99927249 0.17432711 0.13827069
1.00000000 0.25941824 0.18402705
1.00000000 0.32977838 0.22717486
1.00000000 0.38496846 0.26635734
1.00000000 0.42972327 0.30273986
1.00000000 0.46911751 0.33823458
0.99993405 0.50660164 0.37441231
0.99989138 0.54405250 0.41237163
0.99992096 0.58214672 0.45263358
0.99996098 0.62095506 0.49536158
0.99998914 0.66027076 0.54045903
1.00000000 0.69965810 0.58742510
1.00000000 0.73867889 0.63573650
0.99999459 0.77676152 0.68452807
0.99997348 0.81325544 0.73271421
0.99994269 0.84751431 0.77922790
0.99991748 0.87888600 0.82281420
0.99994175 0.90678852 0.86220381
0.99997129 0.93080042 0.89659339
0.99999105 0.95068899 0.92551870
1.00000000 0.96643987 0.94878965
1.00000000 0.97826679 0.96652770
1.00000000 0.98659549 0.97918858
1.00000000 0.99202785 0.98754248
1.00000000 0.99528410 0.99259807
1.00000000 0.99710370 0.99544464
0.99999992 0.99810126 0.99701328
0.99999988 0.99865809 0.99789065
0.99999989 0.99892861 0.99831679
0.00266358 0.00369767 0.00354174
0.00264421 0.00399658 0.00381425
0.00264246 0.00457819 0.00430917
0.00282578 0.00538853 0.00490140
0.00360285 0.00623784 0.00531765
0.00565166 0.00670362 0.00515748
0.00968475 0.00623184 0.00422559
0.01536467 0.00531719 0.00385334
0.02228996 0.00442868 0.00431033
0.03075463 0.00382982 0.00545780
0.04141203 0.00367651 0.00693728
0.05500250 0.00386897 0.00833926
0.07218617 0.00442168 0.00930571
0.09347492 0.00544521 0.00951307
0.11915493 0.00745300 0.00882045
0.14927822 0.01072442 0.00722456
0.18364685 0.01576571 0.00496035
0.22188187 0.02220464 0.00270462
0.26350621 0.02950594 0.00135601
0.30798827 0.03734949 0.00189191
0.35473113 0.04553835 0.00491061
0.40305112 0.05394464 0.01042707
0.45213335 0.06285807 0.01775343
0.50106314 0.07309717 0.02719699
0.54900767 0.08547747 0.03889692
0.59561977 0.09892935 0.05122466
0.64118957 0.11005070 0.06153988
0.68598668 0.11603495 0.06847499
0.73013720 0.11468308 0.07160418
0.77362613 0.10430570 0.07111009
0.81632432 0.08430074 0.06769055
0.85794693 0.05695158 0.06273948
0.89786114 0.03030011 0.05870281
0.93467815 0.02038872 0.05955666
0.96590391 0.03671884 0.07058872
0.98818868 0.08791417 0.09677043
0.99928502 0.17399070 0.13868119
1.00000000 0.25941582 0.18433771
1.00000000 0.32995824 0.22740930
1.00000000 0.38521403 0.26654079
1.00000000 0.42997317 0.30289173
1.00000000 0.46934695 0.33836815
0.99993414 0.50680192 0.37453368
0.99989172 0.54422136 0.41248226
0.99992123 0.58228526 0.45273298
0.99996112 0.62106695 0.49545002
0.99998920 0.66036013 0.54053653
1.00000000 0.69972873 0.58749136
1.00000000 0.73873428 0.63579202
0.99999453 0.77680451 0.68457354
0.99997332 0.81328841 0.73275085
0.99994238 0.84753915 0.77925678
0.99991704 0.87890424 0.82283625
0.99994144 0.90680150 0.86221992
0.99997114 0.93080932 0.89660468
0.99999100 0.95069481 0.92552625
1.00000000 0.96644348 0.94879444
1.00000000 0.97826888 0.96653053
1.00000000 0.98659659 0.97919011
1.00000000 0.99202837 0.98754321
1.00000000 0.99528431 0.99259836
1.00000000 0.99710377 0.99544473
0.99999992 0.99810127 0.99701330
0.99999988 0.99865809 0.99789066
0.99999989 0.99892862 0.99831680
0.00220549 0.00770850 0.00437242
0.00211811 0.00807207 0.00459684
0.00199487 0.00876538 0.00498578
0.00204202 0.00973562 0.00540078
0.00276687 0.01083418 0.00557618
0.00504019 0.01171418 0.00517204
0.00980945 0.01185647 0.00411259
0.01659332 0.01110010 0.00340554
0.02456843 0.01010142 0.00345517
0.03384103 0.00934216 0.00422104
0.04502962 0.00919627 0.00531340
0.05891620 0.00942451 0.00629252
0.07621421 0.01010568 0.00687180
0.09750532 0.01140802 0.00675312
0.12311858 0.01414011 0.00596404
0.15312667 0.01847903 0.00474972
0.18736604 0.02422866 0.00318220
0.22546483 0.03092328 0.00162275
0.26694377 0.03803719 0.00070369
0.31126858 0.04529284 0.00142577
0.35783687 0.05261165 0.00434855
0.40596409 0.06000694 0.00959971
0.45481681 0.06796623 0.01676446
0.50344504 0.07755492 0.02641806
0.55103163 0.08954349 0.03853578
0.59728460 0.10272538 0.05126922
0.64254255 0.11367649 0.06184680
0.68708516 0.11964732 0.06891236
0.73102765 0.11853731 0.07210697
0.77434387 0.10870803 0.07166484
0.81689507 0.08946484 0.06831350
0.85839413 0.06265247 0.06343590
0.89820223 0.03545030 0.05945871
0.93492223 0.02283319 0.06033117
0.96605377 0.03717183 0.07131831
0.98825145 0.08758658 0.09739381
0.99929648 0.17381998 0.13916738
1.00000000 0.25946742 0.18469853
1.00000000 0.33013449 0.22767773
1.00000000 0.38544049 0.26674995
1.00000000 0.43021152 0.30306556
1.00000000 0.46957909 0.33852225
0.99993438 0.50701636 0.37467480
0.99989219 0.54441001 0.41261147
0.99992158 0.58244431 0.45284929
0.99996130 0.62119733 0.49555354
0.99998926 0.66046494 0.54062721
1.00000000 0.69981169 0.58756884
1.00000000 0.73879925 0.63585692
0.99999446 0.77685484 0.68462668
0.99997313 0.81332693 0.73279366
0.99994201 0.84756812 0.77929051
0.99991652 0.87892550 0.82286197
0.99994107 0.90681661 0.86223869
0.99997096 0.93081966 0.89661782
0.99999095 0.95070157 0.92553503
1.00000000 0.96644766 0.94879999
1.00000000 0.97827129 0.96653381
1.00000000 0.98659786 0.97919188
1.00000000 0.99202896 0.98754405
1.00000000 0.99528454 0.99259869
1.00000000 0.99710384 0.99544483
0.99999992 0.99810129 0.99701333
0.99999988 0.99865810 0.99789067
0.99999989 0.99892863 0.99831681
0.00189239 0.01323068 0.00573484
0.00174079 0.01366331 0.00592814
0.00149537 0.01447462 0.00624699
0.00139014 0.01561325 0.00654523
0.00201070 0.01698458 0.00655589
0.00427443 0.01836278 0.00595446
0.00932223 0.01937150 0.00465508
0.01746500 0.01969844 0.00349848
0.02703434 0.01967588 0.00303942
0.03774633 0.01981419 0.00325158
0.05006364 0.02035866 0.00377047
0.06468793 0.02116991 0.00425736
0.08235121 0.02230997 0.00455881
0.10371713 0.02408662 0.00440815
0.12921508 0.02703436 0.00393047
0.15899243 0.03126537 0.00328408
0.19292824 0.03655720 0.00232737
0.23068047 0.04248723 0.00116741
0.27178888 0.04865089 0.00046104
0.31573595 0.05483495 0.00124268
0.36192032 0.06104573 0.00406589
0.40965282 0.06740512 0.00929329
0.45808913 0.07449689 0.01652441
0.50627105 0.08341823 0.02640742
0.55340652 0.09482484 0.03879014
0.59925188 0.10743180 0.05169118
0.64416023 0.11796434 0.06235270
0.68841063 0.12377688 0.06944931
0.73210651 0.12287395 0.07267088
0.77521011 0.11369419 0.07228749
0.81757754 0.09547655 0.06903185
0.85892282 0.06963528 0.06425668
0.89860061 0.04234683 0.06036100
0.93520385 0.02700558 0.06126035
0.96622443 0.03903437 0.07219138
0.98832126 0.08827434 0.09813186
0.99930783 0.17429712 0.13973906
1.00000000 0.25984427 0.18511880
1.00000000 0.33042912 0.22798729
1.00000000 0.38569125 0.26699028
1.00000000 0.43044969 0.30326601
1.00000000 0.46981613 0.33870127
0.99993480 0.50724634 0.37483985
0.99989282 0.54462088 0.41276318
0.99992203 0.58262702 0.45298602
0.99996152 0.62134949 0.49567520
0.99998934 0.66058818 0.54073370
1.00000000 0.69990947 0.58765981
1.00000000 0.73887585 0.63593314
0.99999437 0.77691411 0.68468911
0.99997291 0.81337224 0.73284395
0.99994157 0.84760216 0.77933013
0.99991590 0.87895045 0.82289219
0.99994064 0.90683434 0.86226074
0.99997076 0.93083178 0.89663323
0.99999089 0.95070949 0.92554532
1.00000000 0.96645255 0.94880650
1.00000000 0.97827411 0.96653765
1.00000000 0.98659934 0.97919395
1.00000000 0.99202964 0.98754503
1.00000000 0.99528480 0.99259908
1.00000000 0.99710392 0.99544495
0.99999992 0.99810132 0.99701335
0.99999988 0.99865811 0.99789068
0.99999989 0.99892864 0.99831682
0.00216890 0.02030258 0.00775894
0.00194664 0.02078425 0.00793068
0.00155572 0.02167731 0.00819685
0.00123367 0.02293492 0.00839896
0.00159222 0.02452146 0.00827120
0.00369370 0.02635370 0.00749547
0.00895600 0.02826229 0.00594608
0.01824356 0.03005439 0.00417750
0.02977441 0.03182655 0.00318325
0.04269069 0.03387274 0.00290627
0.05701453 0.03621261 0.00298657
0.07311478 0.03855928 0.00316965
0.09161921 0.04084561 0.00329290
0.11324839 0.04328014 0.00323369
0.13857373 0.04617376 0.00301111
0.16788390 0.04966539 0.00271296
0.20117251 0.05373311 0.00212586
0.23819899 0.05811412 0.00109418
0.27856610 0.06262446 0.00048726
0.32179658 0.06717101 0.00131803
0.36729578 0.07186121 0.00416606
0.41436795 0.07690739 0.00951690
0.46216546 0.08290638 0.01689716
0.50973002 0.09089177 0.02695135
0.55628373 0.10143433 0.03952616
0.60163325 0.11316439 0.05244702
0.64612475 0.12303008 0.06305775
0.69002496 0.12852236 0.07010013
0.73342143 0.12775676 0.07331191
0.77626283 0.11926745 0.07298982
0.81840139 0.10226458 0.06985632
0.85955551 0.07778000 0.06521415
0.89907286 0.05102405 0.06142443
0.93553455 0.03388704 0.06236102
0.96642289 0.04363853 0.07322465
0.98840114 0.09123269 0.09899661
0.99931980 0.17626816 0.14041234
1.00000000 0.26100044 0.18561336
1.00000000 0.33104930 0.22834949
1.00000000 0.38604946 0.26727031
1.00000000 0.43071841 0.30349981
1.00000000 0.47006995 0.33891104
0.99993541 0.50749812 0.37503403
0.99989363 0.54485883 0.41294206
0.99992259 0.58283781 0.45314728
0.99996179 0.62152737 0.49581855
0.99998943 0.66073321 0.54085900
1.00000000 0.70002490 0.58776686
1.00000000 0.73896636 0.63602290
0.99999427 0.77698416 0.68476268
0.99997265 0.81342577 0.73290325
0.99994106 0.84764234 0.77937688
0.99991518 0.87897989 0.82292783
0.99994013 0.90685524 0.86228673
0.99997051 0.93084607 0.89665141
0.99999082 0.95071882 0.92555745
1.00000000 0.96645832 0.94881417
1.00000000 0.97827743 0.96654218
1.00000000 0.98660109 0.97919638
1.00000000 0.99203045 0.98754618
1.00000000 0.99528512 0.99259953
1.00000000 0.99710402 0.99544508
0.99999991 0.99810134 0.99701338
0.99999988 0.99865813 0.99789069
0.99999989 0.99892866 0.99831683
0.00274042 0.02941357 0.01029047
0.00244302 0.02993312 0.01043655
0.00189401 0.03088379 0.01064417
0.00132644 0.03221843 0.01074232
0.00140459 0.03395139 0.01045456
0.00334735 0.03613209 0.00944909
0.00884418 0.03881513 0.00755670
0.01910226 0.04205689 0.00522662
0.03281631 0.04600807 0.00376564
0.04872474 0.05082304 0.00315607
0.06616693 0.05604125 0.00299956
0.08475370 0.06078397 0.00298790
0.10476327 0.06471561 0.00291123
0.12692650 0.06801590 0.00280556
0.15200801 0.07100338 0.00266619
0.18053626 0.07386209 0.00253801
0.21273254 0.07659372 0.00209937
0.24854818 0.07909843 0.00110457
0.28771075 0.08147788 0.00061805
0.32980800 0.08383000 0.00151544
0.37425989 0.08643135 0.00446643
0.42036295 0.08961540 0.01006916
0.46726303 0.09400444 0.01771391
0.51399730 0.10057661 0.02803318
0.55980936 0.10978797 0.04074039
0.60454450 0.12023678 0.05356037
0.64852628 0.12911882 0.06400224
0.69199848 0.13407134 0.07090709
0.73502778 0.13331747 0.07406577
0.77754709 0.12549994 0.07379554
0.81940260 0.10987428 0.07080364
0.86031999 0.08724559 0.06632368
0.89963951 0.06215376 0.06266761
0.93592841 0.04519331 0.06365857
0.96665743 0.05286910 0.07445267
0.98849437 0.09820783 0.10003018
0.99933280 0.18076789 0.14122183
1.00000000 0.26343403 0.18620704
1.00000000 0.33221236 0.22878134
1.00000000 0.38660683 0.26760190
1.00000000 0.43105753 0.30377584
1.00000000 0.47035990 0.33915877
0.99993620 0.50778296 0.37526362
0.99989465 0.54513167 0.41315362
0.99992330 0.58308265 0.45333783
0.99996214 0.62173573 0.49598758
0.99998955 0.66090387 0.54100642
1.00000000 0.70016113 0.58789286
1.00000000 0.73907336 0.63612870
0.99999415 0.77706701 0.68484953
0.99997234 0.81348909 0.73297332
0.99994045 0.84768988 0.77943213
0.99991432 0.87901471 0.82296996
0.99993953 0.90687996 0.86231747
0.99997023 0.93086297 0.89667289
0.99999074 0.95072986 0.92557180
1.00000000 0.96646514 0.94882323
1.00000000 0.97828136 0.96654753
1.00000000 0.98660316 0.97919926
1.00000000 0.99203141 0.98754755
1.00000000 0.99528549 0.99260007
1.00000000 0.99710414 0.99544525
0.99999991 0.99810137 0.99701342
0.99999988 0.99865815 0.99789071
0.99999989 0.99892868 0.99831685
0.00345565 0.04130797 0.01316003
0.00313177 0.04185306 0.01326698
0.00251172 0.04283635 0.01339075
0.00180931 0.04420492 0.01334701
0.00167694 0.04600936 0.01284012
0.00342997 0.04841062 0.01151367
0.00896171 0.05167514 0.00917273
0.01998798 0.05615447 0.00627847
0.03591889 0.06225101 0.00441854
0.05520016 0.07019717 0.00364836
0.07653221 0.07902142 0.00348387
0.09857061 0.08692140 0.00339863
0.12092830 0.09301920 0.00319068
0.14416829 0.09743541 0.00283767
0.16921057 0.10065821 0.00254209
0.19687368 0.10307252 0.00233746
0.22768608 0.10481404 0.00197359
0.26188325 0.10585098 0.00113743
0.29941118 0.10623628 0.00077335
0.33996581 0.10619280 0.00170888
0.38300604 0.10624318 0.00481919
0.42781960 0.10693920 0.01082200
0.47354137 0.10903027 0.01899467
0.51921200 0.11348597 0.02973892
0.56410460 0.12068095 0.04254941
0.60808987 0.12925976 0.05515270
0.65145330 0.13669088 0.06529747
0.69440495 0.14076267 0.07196391
0.73698593 0.13979213 0.07500661
0.77911209 0.13252398 0.07475935
0.82062392 0.11829845 0.07190407
0.86125086 0.09785157 0.06760617
0.90032664 0.07530966 0.06411298
0.93640338 0.06021740 0.06518545
0.96693855 0.06741586 0.07592416
0.98860509 0.11043075 0.10129515
0.99934727 0.18825477 0.14221739
1.00000000 0.26729766 0.18693346
1.00000000 0.33398551 0.22930465
1.00000000 0.38740565 0.26799982
1.00000000 0.43149731 0.30410494
1.00000000 0.47070763 0.33945323
0.99993710 0.50811612 0.37553612
0.99989587 0.54545021 0.41340440
0.99992416 0.58336938 0.45356329
0.99996258 0.62198045 0.49618701
0.99998971 0.66110462 0.54117974
1.00000000 0.70032175 0.58804120
1.00000000 0.73919975 0.63625350
0.99999400 0.77716500 0.68495211
0.99997197 0.81356401 0.73305615
0.99993972 0.84774613 0.77949747
0.99991330 0.87905591 0.82301980
0.99993882 0.90690920 0.86235382
0.99996988 0.93088295 0.89669830
0.99999064 0.95074291 0.92558876
1.00000000 0.96647320 0.94883396
1.00000000 0.97828601 0.96655385
1.00000000 0.98660560 0.97920267
1.00000000 0.99203255 0.98754916
1.00000000 0.99528593 0.99260070
1.00000000 0.99710427 0.99544544
0.99999991 0.99810141 0.99701347
0.99999988 0.99865817 0.99789072
0.99999989 0.99892870 0.99831687
0.00400993 0.05666411 0.01612475
0.00366692 0.05722389 0.01616296
0.00300439 0.05821954 0.01614960
0.00220481 0.05958941 0.01589150
0.00189162 0.06140700 0.01508091
0.00349986 0.06391629 0.01336001
0.00911286 0.06755661 0.01055809
0.02080051 0.07294814 0.00721218
0.03874014 0.08077932 0.00509915
0.06106946 0.09143704 0.00426795
0.08613897 0.10373660 0.00412117
