DIT_DOCS/ARRI_LogC4_v1_LUT_Package/LUTs/ARRI_LogC4-to-Gamma26_P3-D65_v1-65.cube
LUT_3D_SIZE 65
0.00000000 0.00000000 0.00000000
0.00000000 0.00027968 0.00016924
0.00000000 0.00128120 0.00108999
0.00000000 0.00264894 0.00241869
0.00071775 0.00394243 0.00386246
0.00340127 0.00447903 0.00495411
0.00863579 0.00387634 0.00552352
0.01550987 0.00340363 0.00675608
0.02381407 0.00341686 0.00893033
0.03401055 0.00398723 0.01202243
0.04692549 0.00507458 0.01593300
0.06334917 0.00632088 0.02050857
0.08386060 0.00761573 0.02563331
0.10883297 0.00876176 0.03124164
0.13840168 0.00976559 0.03734256
0.17245171 0.01102969 0.04398888
0.21071221 0.01182804 0.05118150
0.25273445 0.01215004 0.05894604
0.29795943 0.01324765 0.06734703
0.34586204 0.01487662 0.07639473
0.39585489 0.01756963 0.08608918
0.44724127 0.02212631 0.09638817
0.49926049 0.02782841 0.10716081
0.55113932 0.03376545 0.11822760
0.60218906 0.03878117 0.12937430
0.65187433 0.04199688 0.14038842
0.69975314 0.04577963 0.15120458
0.74573091 0.04665494 0.16159114
0.78986666 0.04228016 0.17136195
0.83227025 0.03211971 0.18043689
0.87289905 0.01921205 0.18896383
0.91119882 0.01288474 0.19754415
0.94568641 0.02595515 0.20744469
0.97365861 0.06827334 0.22071871
0.99197606 0.14229689 0.23951520
1.00000000 0.22381184 0.26355436
1.00000000 0.29433778 0.28991890
1.00000000 0.34970902 0.31658828
1.00000000 0.39330244 0.34302499
1.00000000 0.42999142 0.36951666
1.00000000 0.46374574 0.39676593
0.99988977 0.49688139 0.42540795
0.99983698 0.53055833 0.45598709
0.99983911 0.56519836 0.48884949
0.99990133 0.60071880 0.52400106
0.99995750 0.63704364 0.56147402
0.99999036 0.67397200 0.60109203
1.00000000 0.71117130 0.64244159
1.00000000 0.74821983 0.68494989
1.00000000 0.78453009 0.72774030
1.00000000 0.81945891 0.76984908
1.00000000 0.85234714 0.81028713
1.00000000 0.88252997 0.84797852
0.99999980 0.90941350 0.88190350
0.99999980 0.93257996 0.91142689
0.99999988 0.95179970 0.93618404
0.99999995 0.96705345 0.95605292
0.99999999 0.97854108 0.97117837
1.00000000 0.98666687 0.98198249
1.00000000 0.99200462 0.98914034
1.00000000 0.99524097 0.99351210
1.00000000 0.99708029 0.99601203
1.00000000 0.99810813 0.99741531
1.00000000 0.99868881 0.99820969
1.00000000 0.99897114 0.99859595
0.00042706 0.00000000 0.00011590
0.00037594 0.00034211 0.00056795
0.00030662 0.00132234 0.00149798
0.00037916 0.00266818 0.00282516
0.00116138 0.00395169 0.00424167
0.00382372 0.00446239 0.00527407
0.00909381 0.00379357 0.00576429
0.01601940 0.00326086 0.00695126
0.02436194 0.00323305 0.00911168
0.03459074 0.00377615 0.01220855
0.04752935 0.00485417 0.01612523
0.06396909 0.00609505 0.02069600
0.08449161 0.00738503 0.02580084
0.10947352 0.00852623 0.03137525
0.13905462 0.00952212 0.03743222
0.17312151 0.01086485 0.04403349
0.21140896 0.01176728 0.05118319
0.25346910 0.01219068 0.05890965
0.29873765 0.01330409 0.06727748
0.34667500 0.01500417 0.07630014
0.39668453 0.01773908 0.08597426
0.44806553 0.02221545 0.09625476
0.50005687 0.02780070 0.10701190
0.55189177 0.03355965 0.11806440
0.60288586 0.03843882 0.12920122
0.65250638 0.04168489 0.14021452
0.70031641 0.04544094 0.15103845
0.74622722 0.04634049 0.16143700
0.79030004 0.04203761 0.17122242
0.83264493 0.03198713 0.18031425
0.87321718 0.01922526 0.18886182
0.91146250 0.01291232 0.19746481
0.94589304 0.02600440 0.20739314
0.97379946 0.06842354 0.22070483
0.99204448 0.14261274 0.23954666
1.00000000 0.22413570 0.26360923
1.00000000 0.29460122 0.28997906
1.00000000 0.34990383 0.31664493
1.00000000 0.39344320 0.34307566
1.00000000 0.43009495 0.36956131
1.00000000 0.46382523 0.39680571
0.99988924 0.49694492 0.42544375
0.99983672 0.53061080 0.45601980
0.99983874 0.56524222 0.48887931
0.99990112 0.60075535 0.52402786
0.99995739 0.63707399 0.56149789
0.99999030 0.67399697 0.60111298
1.00000000 0.71119168 0.64245974
1.00000000 0.74823625 0.68496533
1.00000000 0.78454310 0.72775307
1.00000000 0.81946902 0.76985940
1.00000000 0.85235482 0.81029524
1.00000000 0.88253565 0.84798467
0.99999980 0.90941758 0.88190801
0.99999980 0.93258278 0.91143008
0.99999988 0.95180159 0.93618622
0.99999995 0.96705464 0.95605432
0.99999999 0.97854180 0.97117922
1.00000000 0.98666727 0.98198298
1.00000000 0.99200482 0.98914059
1.00000000 0.99524107 0.99351222
1.00000000 0.99708033 0.99601209
1.00000000 0.99810815 0.99741533
1.00000000 0.99868882 0.99820970
1.00000000 0.99897115 0.99859596
0.00144952 0.00010178 0.00096594
0.00139867 0.00056105 0.00142806
0.00131736 0.00148734 0.00235740
0.00136291 0.00277536 0.00365901
0.00208727 0.00402574 0.00499906
0.00469001 0.00449525 0.00588858
0.01000198 0.00371101 0.00619958
0.01700707 0.00305537 0.00727221
0.02541237 0.00292681 0.00938755
0.03569053 0.00339242 0.01248339
0.04865973 0.00440615 0.01640759
0.06511231 0.00560214 0.02097297
0.08563797 0.00686614 0.02605068
0.11062357 0.00799926 0.03157602
0.14021983 0.00899000 0.03756809
0.17431850 0.01044328 0.04410209
0.21266038 0.01150185 0.05118808
0.25479398 0.01208036 0.05885748
0.30014126 0.01323186 0.06717374
0.34813679 0.01506267 0.07615508
0.39816959 0.01786558 0.08579247
0.44953437 0.02219532 0.09603650
0.50147193 0.02752044 0.10675933
0.55322758 0.03286285 0.11777767
0.60412376 0.03736466 0.12888813
0.65362758 0.04059975 0.13989746
0.70131359 0.04446647 0.15073522
0.74710475 0.04552326 0.16115539
0.79106468 0.04145932 0.17096873
0.83330156 0.03181424 0.18009625
0.87377450 0.01940448 0.18868054
0.91192564 0.01316910 0.19732210
0.94625579 0.02623686 0.20729966
0.97404567 0.06876104 0.22067878
0.99216429 0.14318251 0.23959986
1.00000000 0.22470828 0.26370494
1.00000000 0.29506535 0.29008505
1.00000000 0.35024547 0.31674484
1.00000000 0.39368834 0.34316470
1.00000000 0.43027413 0.36963947
1.00000000 0.46396233 0.39687513
0.99988842 0.49705450 0.42550612
0.99983652 0.53070142 0.45607669
0.99983847 0.56531808 0.48893114
0.99990098 0.60081871 0.52407449
0.99995731 0.63712667 0.56153948
0.99999022 0.67404037 0.60114949
1.00000000 0.71122711 0.64249140
1.00000000 0.74826480 0.68499223
1.00000000 0.78456569 0.72777533
1.00000000 0.81948657 0.76987736
1.00000000 0.85236815 0.81030934
1.00000000 0.88254550 0.84799535
0.99999980 0.90942463 0.88191583
0.99999981 0.93258766 0.91143561
0.99999988 0.95180482 0.93618996
0.99999995 0.96705669 0.95605674
0.99999999 0.97854301 0.97118069
1.00000000 0.98666794 0.98198380
1.00000000 0.99200516 0.98914101
1.00000000 0.99524122 0.99351241
1.00000000 0.99708040 0.99601217
1.00000000 0.99810818 0.99741536
1.00000000 0.99868883 0.99820972
1.00000000 0.99897116 0.99859597
0.00280642 0.00074097 0.00230374
0.00276655 0.00116429 0.00276822
0.00269774 0.00201580 0.00367728
0.00275423 0.00321352 0.00491303
0.00346994 0.00440365 0.00611348
0.00597116 0.00485276 0.00674991
0.01132782 0.00394206 0.00674386
0.01845598 0.00309540 0.00758806
0.02697603 0.00276131 0.00958888
0.03734051 0.00303837 0.01265017
0.05035389 0.00385650 0.01656658
0.06680921 0.00490334 0.02112507
0.08731529 0.00607571 0.02618300
0.11228321 0.00717496 0.03166996
0.14188579 0.00815432 0.03761029
0.17602603 0.00965546 0.04409213
0.21444453 0.01083749 0.05113234
0.25667566 0.01155829 0.05876119
0.30211744 0.01273775 0.06703664
0.35017100 0.01475112 0.07598194
0.40021135 0.01764991 0.08558006
0.45153249 0.02177932 0.09577651
0.50338175 0.02669983 0.10644709
0.55502142 0.03137566 0.11740843
0.60578000 0.03529209 0.12847347
0.65510957 0.03879542 0.13948772
0.70262320 0.04304168 0.15034451
0.74825399 0.04444174 0.16079043
0.79205941 0.04093503 0.17064466
0.83415689 0.03184414 0.17981486
0.87450430 0.01987959 0.18844140
0.91253550 0.01378384 0.19712939
0.94673497 0.02673325 0.20717024
0.97437010 0.06930662 0.22063952
0.99232064 0.14396540 0.23966685
1.00000000 0.22547224 0.26383024
1.00000000 0.29567870 0.29022513
1.00000000 0.35069333 0.31687687
1.00000000 0.39400688 0.34328185
1.00000000 0.43050535 0.36974186
1.00000000 0.46413871 0.39696579
0.99988764 0.49719555 0.42558742
0.99983679 0.53081830 0.45615072
0.99983882 0.56541610 0.48899849
0.99990126 0.60090082 0.52413520
0.99995742 0.63719510 0.56159372
0.99999020 0.67409679 0.60119717
1.00000000 0.71127318 0.64253273
1.00000000 0.74830191 0.68502735
1.00000000 0.78459504 0.72780435
1.00000000 0.81950935 0.76990076
1.00000000 0.85238542 0.81032768
1.00000000 0.88255823 0.84800921
0.99999980 0.90943373 0.88192596
0.99999981 0.93259393 0.91144274
0.99999988 0.95180897 0.93619477
0.99999995 0.96705929 0.95605982
0.99999999 0.97854455 0.97118254
1.00000000 0.98666878 0.98198483
1.00000000 0.99200557 0.98914152
1.00000000 0.99524140 0.99351264
1.00000000 0.99708047 0.99601225
1.00000000 0.99810821 0.99741540
1.00000000 0.99868885 0.99820973
1.00000000 0.99897117 0.99859598
0.00400097 0.00226176 0.00402675
0.00398547 0.00265558 0.00447606
0.00396157 0.00344211 0.00532932
0.00408438 0.00455547 0.00644485
0.00487481 0.00569271 0.00744648
0.00737806 0.00618539 0.00774363
0.01285827 0.00523776 0.00726094
0.02026752 0.00415130 0.00769688
0.02908500 0.00345026 0.00944487
0.03968006 0.00334411 0.01237630
0.05282391 0.00375150 0.01622211
0.06931146 0.00445383 0.02074967
0.08978907 0.00537548 0.02579955
0.11471748 0.00632351 0.03127955
0.14431058 0.00718956 0.03721771
0.17849060 0.00854617 0.04371395
0.21698696 0.00969858 0.05078529
0.25930653 0.01043562 0.05844899
0.30481589 0.01154175 0.06674882
0.35288127 0.01375978 0.07571093
0.40287023 0.01678623 0.08530577
0.45408374 0.02070351 0.09547219
0.50578117 0.02517102 0.10609251
0.55724377 0.02913827 0.11699049
0.60779605 0.03280982 0.12801663
0.65690670 0.03628599 0.13902008
0.70420218 0.04122971 0.14989290
0.74962534 0.04341248 0.16037477
0.79324329 0.04060865 0.17027244
0.83517666 0.03209285 0.17948577
0.87537949 0.02049826 0.18815390
0.91327139 0.01447540 0.19689137
0.94731542 0.02733540 0.20700597
0.97476286 0.06999707 0.22058473
0.99250748 0.14492380 0.23974316
1.00000000 0.22639905 0.26398002
1.00000000 0.29641853 0.29039420
1.00000000 0.35122967 0.31703613
1.00000000 0.39438523 0.34342254
1.00000000 0.43077834 0.36986438
1.00000000 0.46434653 0.39707404
0.99988720 0.49736196 0.42568438
0.99983786 0.53095649 0.45623890
0.99984025 0.56553215 0.48907854
0.99990220 0.60099831 0.52420753
0.99995782 0.63727650 0.56165846
0.99999027 0.67416398 0.60125414
1.00000000 0.71132806 0.64258215
1.00000000 0.74834610 0.68506932
1.00000000 0.78462998 0.72783902
1.00000000 0.81953643 0.76992868
1.00000000 0.85240593 0.81034952
1.00000000 0.88257333 0.84802570
0.99999980 0.90944449 0.88193797
0.99999981 0.93260133 0.91145116
0.99999989 0.95181383 0.93620043
0.99999995 0.96706232 0.95606343
0.99999999 0.97854632 0.97118469
1.00000000 0.98666974 0.98198601
1.00000000 0.99200603 0.98914210
1.00000000 0.99524159 0.99351288
1.00000000 0.99708054 0.99601234
1.00000000 0.99810823 0.99741543
1.00000000 0.99868886 0.99820975
1.00000000 0.99897117 0.99859599
0.00431403 0.00542138 0.00593858
0.00429655 0.00582590 0.00635694
0.00428482 0.00661698 0.00712306
0.00447894 0.00772478 0.00806353
0.00545322 0.00889023 0.00879424
0.00824930 0.00953556 0.00874390
0.01400875 0.00887810 0.00765358
0.02209933 0.00760434 0.00740872
0.03167131 0.00638229 0.00864759
0.04287721 0.00569528 0.01123104
0.05642444 0.00544344 0.01483065
0.07310359 0.00553056 0.01922828
0.09361919 0.00591996 0.02425158
0.11852232 0.00643852 0.02974209
0.14809677 0.00689685 0.03574094
0.18229360 0.00771615 0.04236928
0.22082074 0.00849480 0.04962047
0.26315139 0.00891114 0.05747634
0.30862308 0.00964522 0.06595405
0.35657575 0.01198426 0.07507539
0.40638223 0.01512813 0.08478692
0.45736070 0.01887456 0.09501388
0.50878673 0.02309094 0.10564730
0.55995531 0.02697166 0.11653357
0.61020430 0.03085941 0.12754711
0.65902322 0.03456199 0.13854315
0.70604326 0.04013477 0.14942853
0.75121529 0.04301675 0.15993979
0.79461473 0.04078408 0.16987218
0.83636306 0.03262872 0.17911843
0.87640494 0.02116756 0.18782034
0.91413876 0.01513263 0.19660718
0.94800227 0.02796343 0.20680468
0.97522765 0.07079744 0.22051267
0.99272621 0.14605267 0.23982874
1.00000000 0.22749191 0.26415503
1.00000000 0.29728887 0.29059313
1.00000000 0.35185741 0.31722322
1.00000000 0.39482515 0.34358705
1.00000000 0.43109449 0.37000736
1.00000000 0.46458706 0.39720031
0.99988727 0.49755483 0.42579748
0.99983974 0.53111696 0.45634174
0.99984259 0.56566707 0.48917187
0.99990374 0.60111182 0.52429195
0.99995852 0.63737138 0.56173411
0.99999044 0.67424234 0.60132075
1.00000000 0.71139206 0.64263993
1.00000000 0.74839763 0.68511839
1.00000000 0.78467069 0.72787952
1.00000000 0.81956796 0.76996127
1.00000000 0.85242979 0.81037499
1.00000000 0.88259086 0.84804489
0.99999981 0.90945697 0.88195193
0.99999982 0.93260989 0.91146094
0.99999989 0.95181944 0.93620697
0.99999995 0.96706581 0.95606758
0.99999999 0.97854834 0.97118716
1.00000000 0.98667081 0.98198734
1.00000000 0.99200655 0.98914275
1.00000000 0.99524180 0.99351315
1.00000000 0.99708061 0.99601243
1.00000000 0.99810825 0.99741545
1.00000000 0.99868887 0.99820976
1.00000000 0.99897118 0.99859599
0.00341572 0.01081833 0.00802828
0.00334356 0.01128776 0.00841196
0.00323749 0.01218731 0.00909019
0.00333097 0.01345218 0.00986169
0.00427571 0.01488605 0.01032077
0.00731145 0.01602679 0.00986985
0.01375428 0.01616164 0.00820737
0.02326878 0.01499334 0.00688438
0.03439826 0.01341208 0.00716547
0.04694605 0.01224714 0.00896367
0.06150020 0.01129869 0.01192999
0.07879744 0.01057780 0.01592997
0.09959473 0.01013009 0.02080059
0.12459029 0.00980064 0.02619940
0.15417334 0.00930847 0.03223988
0.18833254 0.00894339 0.03911717
0.22676421 0.00871566 0.04673135
0.26892573 0.00812406 0.05500447
0.31414395 0.00786939 0.06391867
0.36175468 0.00991418 0.07347269
0.41115111 0.01295044 0.08356431
0.46167936 0.01652707 0.09408309
0.51263424 0.02091457 0.10491873
0.56333381 0.02524165 0.11592868
0.61313498 0.02981579 0.12701288
0.66154810 0.03416031 0.13804459
0.70820768 0.04023977 0.14895733
0.75306954 0.04356070 0.15949403
0.79621055 0.04160670 0.16944877
0.83774688 0.03350606 0.17871357
0.87760691 0.02190849 0.18743829
0.91515983 0.01576183 0.19627288
0.94881310 0.02861367 0.20656305
0.97577632 0.07170954 0.22042260
0.99298243 0.14736961 0.23992656
1.00000000 0.22877346 0.26436019
1.00000000 0.29831006 0.29082710
1.00000000 0.35259229 0.31744268
1.00000000 0.39533796 0.34377896
1.00000000 0.43146257 0.37017408
1.00000000 0.46486727 0.39734765
0.99988789 0.49777979 0.42592953
0.99984239 0.53130431 0.45646186
0.99984572 0.56582466 0.48928090
0.99990579 0.60124441 0.52439061
0.99995945 0.63748221 0.56182257
0.99999068 0.67433386 0.60139865
1.00000000 0.71146680 0.64270751
1.00000000 0.74845779 0.68517577
1.00000000 0.78471821 0.72792687
1.00000000 0.81960476 0.76999935
1.00000000 0.85245761 0.81040473
1.00000000 0.88261130 0.84806728
0.99999981 0.90947151 0.88196819
0.99999982 0.93261984 0.91147231
0.99999989 0.95182595 0.93621458
0.99999995 0.96706984 0.95607239
0.99999999 0.97855068 0.97119000
1.00000000 0.98667205 0.98198888
1.00000000 0.99200713 0.98914348
1.00000000 0.99524204 0.99351344
1.00000000 0.99708069 0.99601252
1.00000000 0.99810828 0.99741548
1.00000000 0.99868888 0.99820977
1.00000000 0.99897119 0.99859600
0.00285594 0.01796429 0.01110118
0.00272482 0.01850278 0.01147743
0.00249443 0.01951866 0.01212423
0.00239215 0.02095617 0.01282005
0.00305951 0.02270020 0.01313913
0.00574285 0.02446314 0.01245017
0.01206665 0.02574236 0.01029491
0.02304919 0.02605116 0.00743948
0.03649514 0.02561291 0.00596619
0.05146490 0.02498051 0.00618650
0.06806664 0.02407377 0.00788387
0.08682417 0.02279869 0.01094912
0.10845059 0.02164790 0.01527992
0.13385547 0.02020518 0.02013207
0.16355592 0.01814821 0.02588874
0.19759393 0.01575445 0.03296211
0.23572555 0.01345366 0.04097532
0.27743884 0.01076771 0.04982990
0.32208615 0.00863642 0.05947769
0.36903465 0.00916387 0.06985716
0.41770404 0.01135057 0.08077363
0.46747826 0.01450540 0.09202723
0.51768359 0.01905557 0.10344795
0.56767014 0.02396402 0.11487172
0.61682119 0.02931326 0.12621849
0.66465060 0.03489810 0.13742030
0.71081938 0.04147426 0.14842599
0.75528101 0.04498981 0.15900880
0.79810152 0.04303137 0.16898516
0.83938279 0.03470844 0.17825956
0.87902833 0.02274102 0.18699883
0.91636863 0.01637884 0.19588124
0.94977368 0.02928153 0.20627655
0.97642575 0.07273354 0.22031442
0.99328381 0.14889348 0.24004196
1.00000000 0.23027084 0.26460352
1.00000000 0.29950818 0.29110443
1.00000000 0.35345577 0.31770202
1.00000000 0.39594042 0.34400476
1.00000000 0.43189538 0.37036998
1.00000000 0.46519715 0.39752076
0.99988901 0.49804484 0.42608473
0.99984579 0.53152505 0.45660307
0.99984960 0.56601021 0.48940908
0.99990832 0.60140042 0.52450660
0.99996060 0.63761253 0.56192657
0.99999097 0.67444140 0.60149024
1.00000000 0.71155460 0.64278695
1.00000000 0.74852844 0.68524321
1.00000000 0.78477401 0.72798250
1.00000000 0.81964796 0.77004408
1.00000000 0.85249027 0.81043965
1.00000000 0.88263528 0.84809356
0.99999982 0.90948856 0.88198728
0.99999983 0.93263151 0.91148565
0.99999989 0.95183359 0.93622349
0.99999995 0.96707457 0.95607803
0.99999999 0.97855342 0.97119333
1.00000000 0.98667350 0.98199068
1.00000000 0.99200781 0.98914434
1.00000000 0.99524231 0.99351379
1.00000000 0.99708078 0.99601264
1.00000000 0.99810830 0.99741551
1.00000000 0.99868889 0.99820978
1.00000000 0.99897121 0.99859601
0.00288231 0.02677841 0.01526255
0.00268228 0.02735992 0.01564254
0.00231828 0.02844484 0.01629014
0.00198773 0.02998982 0.01697591
0.00226890 0.03196973 0.01725875
0.00439553 0.03430281 0.01644286
0.01023227 0.03678085 0.01383351
0.02170300 0.03908028 0.00960250
0.03757908 0.04096516 0.00624661
0.05582363 0.04259017 0.00476031
0.07561892 0.04377523 0.00507545
0.09693092 0.04413824 0.00673262
0.12033348 0.04356632 0.00937092
0.14673150 0.04159063 0.01257157
0.17676567 0.03789930 0.01712563
0.21060552 0.03308680 0.02380686
0.24823252 0.02749319 0.03166818
0.28922350 0.02113076 0.04084442
0.33298702 0.01564793 0.05128548
0.37895571 0.01268334 0.06283688
0.42656669 0.01258636 0.07513243
0.47524786 0.01439304 0.08779042
0.52437325 0.01841031 0.10044056
0.57333544 0.02357945 0.11281263
0.62155447 0.02977047 0.12482019
0.66856483 0.03662474 0.13645406
0.71406122 0.04361405 0.14770194
0.75798951 0.04711804 0.15840357
0.80039405 0.04491830 0.16843095
0.84135188 0.03615140 0.17772346
0.88073105 0.02363769 0.18647975
0.91781225 0.01696537 0.19541730
0.95091827 0.02994502 0.20593678
0.97719757 0.07386086 0.22018711
0.99363978 0.15063885 0.24018164
1.00000000 0.23200948 0.26489538
1.00000000 0.30090877 0.29143578
1.00000000 0.35446948 0.31801078
1.00000000 0.39665008 0.34427268
1.00000000 0.43240688 0.37060191
1.00000000 0.46558800 0.39772547
0.99989048 0.49835922 0.42626814
0.99984994 0.53178677 0.45676988
0.99985429 0.56622996 0.48956045
0.99991137 0.60158491 0.52464355
0.99996199 0.63776645 0.56204934
0.99999132 0.67456833 0.60159834
1.00000000 0.71165817 0.64288070
1.00000000 0.74861177 0.68532278
1.00000000 0.78483981 0.72804813
1.00000000 0.81969891 0.77009684
1.00000000 0.85252878 0.81048084
1.00000000 0.88266357 0.84812456
0.99999983 0.90950866 0.88200978
0.99999983 0.93264527 0.91150137
0.99999990 0.95184259 0.93623400
0.99999996 0.96708015 0.95608468
0.99999999 0.97855664 0.97119726
1.00000000 0.98667520 0.98199280
1.00000000 0.99200861 0.98914535
1.00000000 0.99524263 0.99351419
1.00000000 0.99708088 0.99601277
1.00000000 0.99810833 0.99741554
1.00000000 0.99868891 0.99820979
1.00000000 0.99897122 0.99859603
0.00351252 0.03773076 0.02053599
0.00329542 0.03833855 0.02092635
0.00289005 0.03945801 0.02159434
0.00245530 0.04105204 0.02231395
0.00240707 0.04317067 0.02263903
0.00381488 0.04592042 0.02181378
0.00870447 0.04940391 0.01893069
0.01962601 0.05362665 0.01372057
0.03759924 0.05837129 0.00840427
0.05976954 0.06351891 0.00513820
0.08403691 0.06838537 0.00398926
0.10914293 0.07188389 0.00434202
0.13511336 0.07345901 0.00550281
0.16281391 0.07278863 0.00713767
0.19318232 0.06965497 0.00972700
0.22679711 0.06400744 0.01403751
0.26384793 0.05550189 0.02000089
0.30401792 0.04439450 0.02824912
0.34678130 0.03396703 0.03871912
0.39163973 0.02529590 0.05127921
0.43801130 0.02067846 0.06527651
0.48535409 0.01920570 0.08008547
0.53310575 0.02103657 0.09483845
0.58071854 0.02547987 0.10896476
0.62768271 0.03194880 0.12227147
0.67358614 0.03959367 0.13478254
0.71817559 0.04665795 0.14654729
0.76138884 0.04984158 0.15752193
0.80324085 0.04712035 0.16768070
0.84377306 0.03768978 0.17703240
0.88280564 0.02450519 0.18583132
0.91955823 0.01745097 0.19484819
0.95229438 0.03055982 0.20552504
0.97812077 0.07507728 0.22003515
0.99406265 0.15261927 0.24035192
1.00000000 0.23401353 0.26524753
1.00000000 0.30253503 0.29183355
1.00000000 0.35565283 0.31838018
1.00000000 0.39748300 0.34459229
1.00000000 0.43301068 0.37087792
1.00000000 0.46605156 0.39796866
0.99989216 0.49873299 0.42648572
0.99985489 0.53209800 0.45696756
0.99985988 0.56649096 0.48973969
0.99991502 0.60180370 0.52480562
0.99996365 0.63794871 0.56219457
0.99999175 0.67471845 0.60172618
1.00000000 0.71178058 0.64299154
1.00000000 0.74871023 0.68541685
1.00000000 0.78491756 0.72812571
1.00000000 0.81975910 0.77015920
1.00000000 0.85257430 0.81052952
1.00000000 0.88269700 0.84816119
0.99999984 0.90953243 0.88203638
0.99999984 0.93266153 0.91151996
0.99999990 0.95185323 0.93624642
0.99999996 0.96708674 0.95609254
0.99999999 0.97856045 0.97120190
1.00000000 0.98667722 0.98199530
1.00000000 0.99200955 0.98914654
1.00000000 0.99524300 0.99351468
1.00000000 0.99708101 0.99601292
1.00000000 0.99810837 0.99741559
1.00000000 0.99868893 0.99820981
1.00000000 0.99897124 0.99859605
0.00488881 0.05158905 0.02701388
0.00467377 0.05220859 0.02740426
0.00422469 0.05333246 0.02808025
0.00359482 0.05492068 0.02883241
0.00307262 0.05707444 0.02922976
0.00361683 0.06004887 0.02849323
0.00735410 0.06422684 0.02556931
0.01753274 0.07000730 0.01979496
0.03644764 0.07754262 0.01257843
0.06236371 0.08664255 0.00733379
0.09184605 0.09603343 0.00451075
0.12191761 0.10362392 0.00360541
0.15148899 0.10831374 0.00361472
0.18112089 0.10990177 0.00391594
0.21200504 0.10843606 0.00474816
0.24520800 0.10379337 0.00665838
0.28135691 0.09549234 0.01012475
0.32055404 0.08333763 0.01540355
0.36246059 0.06854117 0.02360669
0.40641603 0.05280253 0.03570584
0.45171944 0.04095293 0.05070323
0.49776019 0.03337307 0.06801917
0.54403591 0.03059030 0.08570317
0.59008129 0.03242157 0.10251705
0.63550973 0.03769975 0.11794297
0.68001914 0.04488558 0.13194274
0.72344470 0.05112337 0.14462580
0.76572674 0.05332386 0.15611823
0.80685201 0.04956729 0.16655137
0.84681868 0.03912025 0.17604911
0.88538674 0.02512955 0.18495459
0.92170628 0.01769384 0.19410730
0.95397043 0.03106071 0.20500206
0.97923573 0.07637821 0.21984285
0.99456929 0.15486497 0.24055615
1.00000000 0.23631796 0.26567216
1.00000000 0.30441332 0.29231148
1.00000000 0.35702487 0.31882311
1.00000000 0.39845422 0.34497478
1.00000000 0.43372006 0.37120753
1.00000000 0.46660008 0.39825844
0.99989392 0.49917725 0.42674451
0.99986068 0.53246843 0.45720231
0.99986651 0.56680141 0.48995228
0.99991938 0.60206350 0.52499767
0.99996566 0.63816478 0.56236655
0.99999229 0.67489619 0.60187749
1.00000000 0.71192540 0.64312270
1.00000000 0.74882664 0.68552813
1.00000000 0.78500948 0.72821747
1.00000000 0.81983027 0.77023296
1.00000000 0.85262812 0.81058710
1.00000000 0.88273653 0.84820451
0.99999984 0.90956053 0.88206783
0.99999985 0.93268077 0.91154193
0.99999991 0.95186582 0.93626111
0.99999996 0.96709454 0.95610184
0.99999999 0.97856497 0.97120740
1.00000000 0.98667961 0.98199827
1.00000000 0.99201068 0.98914796
1.00000000 0.99524345 0.99351525
1.00000000 0.99708116 0.99601311
1.00000000 0.99810842 0.99741564
1.00000000 0.99868895 0.99820984
1.00000000 0.99897126 0.99859607
0.00608725 0.06902484 0.03471713
0.00585825 0.06964289 0.03509281
0.00536237 0.07074621 0.03575444
0.00461898 0.07228566 0.03652238
0.00384351 0.07439095 0.03700463
0.00381817 0.07742235 0.03643597
0.00650396 0.08198727 0.03365660
0.01523488 0.08884875 0.02759373
0.03353787 0.09859085 0.01876849
0.06209080 0.11106566 0.01127716
0.09641962 0.12469917 0.00657715
