Swiniec_LUT_-1.cube
TITLE "Generated by Resolve"
LUT_3D_SIZE 5
0.016968 0.0219883 0.0132143
0.196674 0.0213626 0
0.667018 0.0317235 0
1 0.656367 0.419883
1 0.934829 0.763897
0 0.0821851 0.0170443
0.121111 0.147829 0.0342412
0.733837 0.237522 0
1 0.678645 0.420005
1 0.934722 0.762203
0 0.626734 0
0 0.670848 0
0.738308 0.724697 0.0115053
1 0.817365 0.421927
1 0.938827 0.760784
0.523293 0.993164 0.537621
0.549493 0.991684 0.538628
0.707469 0.983459 0.552132
1 0.951415 0.601144
1 0.979461 0.839551
0.955245 1 0.885069
0.955001 1 0.884291
0.95848 1 0.884031
0.986618 1 0.890364
1 1 0.907835
0.0141604 0.031632 0.101091
0.180621 0.0411994 0.126329
0.690822 0.0115663 0.138247
1 0.655024 0.449241
1 0.934936 0.767559
0 0.100877 0.117128
0.118532 0.141726 0.137331
0.7234 0.196094 0.134951
1 0.6757 0.44831
1 0.934615 0.76556
0 0.614588 0.0187076
0 0.656153 0.0156405
0.727672 0.728283 0.0482338
1 0.819303 0.453407
1 0.938521 0.763485
0.520714 0.993164 0.537041
0.547021 0.991638 0.537911
0.705989 0.983413 0.551354
1 0.951247 0.600397
1 0.979538 0.840848
0.955032 1 0.884886
0.954742 1 0.884092
0.958251 1 0.883772
0.98645 1 0.890105
1 1 0.907652
0.000381476 0.119234 0.492973
0.070573 0.139864 0.510903
0.656809 0.0527657 0.519921
1 0.650156 0.65156
1 0.934157 0.789075
0 0.142733 0.508003
0.0810101 0.165072 0.524529
0.677668 0.118029 0.532601
1 0.665187 0.652705
1 0.93341 0.786923
0 0.522866 0.529473
0 0.573632 0.547936
0.679286 0.73727 0.633875
1 0.816129 0.643793
1 0.93724 0.783978
0.445014 0.995972 0.592233
0.477028 0.994232 0.593271
0.658335 0.983963 0.604089
0.998535 0.956283 0.664485
1 0.980407 0.850675
0.954376 1 0.88452
0.954086 1 0.88368
0.957626 1 0.883345
0.986114 1 0.889677
1 1 0.907362
0.262791 0.62089 0.842512
0.275212 0.628092 0.845487
0.666987 0.682445 0.862165
0.987243 0.649042 0.889479
1 0.945907 0.915282
0.285954 0.634852 0.848234
0.294362 0.637186 0.849271
0.669459 0.685771 0.863661
0.985916 0.648402 0.889372
1 0.9449 0.9149
0.205982 0.652033 0.847166
0.300542 0.665446 0.852827
0.672679 0.710109 0.867918
0.993423 0.704005 0.890394
1 0.945281 0.912383
0 0.953262 0.905821
0 0.955749 0.907256
0.436362 0.970306 0.916136
0.975052 0.973312 0.909545
1 0.979751 0.905669
0.940185 1 0.903075
0.939879 1 0.902266
0.943679 1 0.901534
0.976394 1 0.904524
1 1 0.919631
0.880446 0.963638 0.98352
0.883238 0.964782 0.983795
0.886458 0.965438 0.983948
0.987228 0.949142 0.984329
1 0.934051 0.978393
0.885878 0.96585 0.984054
0.886351 0.966033 0.984085
0.887633 0.965972 0.984054
0.986404 0.949447 0.984329
1 0.932509 0.978485
0.885466 0.965682 0.984024
0.884932 0.965484 0.983978
0.887785 0.964981 0.98378
0.984848 0.948379 0.984039
1 0.928954 0.978561
0.856825 0.971405 0.983047
0.858808 0.971084 0.982956
0.881559 0.970657 0.982773
0.980957 0.958511 0.981552
1 0.953216 0.974151
0.868849 1 0.975464
0.868345 1 0.975372
0.875212 1 0.974716
0.934676 1 0.970718
1 1 0.966506
