Swiniec_LUT_0.cube
TITLE "Generated by Resolve"
LUT_3D_SIZE 9
0.0223545 0.0271916 0.0187381
0.042649 0.0315862 0.0222171
0.19559 0.0263676 0.00289921
0.39794 0.0021973 0
0.649531 0.0357061 0
0.891402 0.295689 0.141833
0.992782 0.636622 0.40798
0.996353 0.822553 0.619608
0.994873 0.90483 0.739498
0.0143587 0.0390784 0.0220645
0.0323339 0.0445411 0.0247196
0.152911 0.0615091 0.0184787
0.396963 0.0446479 0
0.667582 0.088426 0
0.900069 0.332326 0.14432
0.992889 0.645151 0.409155
0.996277 0.823865 0.619654
0.994888 0.904921 0.739208
0 0.0850538 0.0222171
0 0.102983 0.0227512
0.122255 0.148058 0.0384222
0.457908 0.189883 0
0.71342 0.233661 0
0.912566 0.391577 0.139147
0.992432 0.658076 0.408026
0.99617 0.825254 0.618051
0.994934 0.904723 0.737865
0 0.262791 0.0160678
0 0.286946 0.0126345
0 0.345663 0.00700389
0.410132 0.413336 0
0.761044 0.460197 0
0.938842 0.561822 0.0740215
0.992279 0.696178 0.405661
0.995895 0.830869 0.614862
0.994949 0.905196 0.736049
0 0.609171 0
0 0.624735 0
0 0.651667 0
0.178149 0.707897 0
0.71603 0.702861 0.0137942
0.941176 0.727642 0.0148165
0.990936 0.791745 0.409384
0.995315 0.850431 0.611597
0.994751 0.908675 0.736477
0 0.88571 0.215198
0 0.886305 0.221454
0 0.887251 0.230106
0.251804 0.889372 0.249821
0.649165 0.885267 0.281422
0.89955 0.85362 0.29369
0.989105 0.864637 0.434302
0.994858 0.89659 0.640742
0.994842 0.92137 0.750744
0.507225 0.961639 0.52108
0.517067 0.961028 0.521431
0.532525 0.960189 0.522026
0.576486 0.95816 0.525017
0.685161 0.952102 0.534951
0.859159 0.938567 0.561608
0.971984 0.920897 0.582132
0.993912 0.927321 0.669963
0.995789 0.947814 0.812482
0.782391 0.976486 0.721004
0.783459 0.976272 0.720699
0.78529 0.975937 0.720241
0.792248 0.975052 0.720119
0.813626 0.972595 0.722042
0.868666 0.966735 0.730434
0.948089 0.962386 0.750164
0.988251 0.955825 0.765408
0.994598 0.960372 0.826627
0.924361 0.975189 0.856474
0.924239 0.975174 0.856153
0.924117 0.975143 0.855726
0.924773 0.975036 0.855421
0.927489 0.974762 0.855467
0.935531 0.974624 0.856657
0.954665 0.974289 0.861555
0.979644 0.973739 0.869459
0.991501 0.972198 0.878416
0.0233463 0.0303044 0.0351415
0.0346838 0.0321508 0.0371405
0.206149 0.0265354 0.0258946
0.435737 0.000137331 0.00936904
0.654078 0.025803 0.0233463
0.891844 0.289799 0.170275
0.992844 0.636591 0.419471
0.996399 0.822522 0.622522
0.994842 0.904921 0.740993
0.0180514 0.0367285 0.0334173
0.0328679 0.0403143 0.0368963
0.170153 0.0507057 0.0282292
0.413565 0.0280919 0.00543221
0.667002 0.0701762 0.0168154
0.899565 0.325216 0.172885
0.99295 0.644556 0.420294
0.996323 0.823667 0.6224
0.994842 0.904952 0.740581
0 0.0849622 0.0332036
0 0.10016 0.0323339
0.131777 0.141817 0.0490425
0.453956 0.180941 0.0111391
0.706264 0.219837 0.00285344
0.91075 0.385153 0.169635
0.992386 0.657237 0.418662
0.996201 0.824948 0.620722
0.994904 0.904707 0.739147
0 0.25745 0.0244755
0 0.278325 0.019913
0 0.333974 0.0162661
0.401694 0.405829 0.00454719
0.759625 0.461952 0
0.936416 0.560906 0.133013
0.992264 0.695232 0.41561
0.995895 0.830518 0.617502
0.994919 0.90515 0.737285
0 0.605158 0
0 0.620493 0
0 0.647501 0
0.16524 0.704952 0
0.714168 0.703136 0.0164034
0.939712 0.730663 0.0598764
0.990814 0.792523 0.421134
0.995315 0.850233 0.614145
0.99472 0.908568 0.737469
0 0.885451 0.214237
0 0.886061 0.220462
0 0.886992 0.229191
0.247929 0.889128 0.249058
0.648463 0.885069 0.280705
0.899535 0.853361 0.292821
0.988785 0.86537 0.444343
0.994842 0.896696 0.643
0.994827 0.921294 0.751522
0.506355 0.961639 0.520912
0.516167 0.961028 0.521218
0.53167 0.960174 0.521782
0.575723 0.958144 0.524773
0.684627 0.952087 0.534676
0.858991 0.938537 0.561349
0.971969 0.920821 0.581857
0.993851 0.927504 0.671992
0.995773 0.947829 0.812985
0.782177 0.976486 0.720897
0.783246 0.976287 0.720577
0.785046 0.975952 0.720119
0.792004 0.975067 0.719982
0.813382 0.972595 0.721874
0.868482 0.96672 0.730266
0.948028 0.962356 0.749996
0.988235 0.955795 0.76524
0.994598 0.960388 0.826917
0.924269 0.975189 0.856397
0.924147 0.975174 0.856077
0.924025 0.975143 0.85565
0.924666 0.975036 0.855314
0.927398 0.974762 0.85536
0.935439 0.974624 0.856535
0.954604 0.974289 0.861448
0.979629 0.973724 0.869368
0.991501 0.972183 0.87834
0.0195926 0.0364233 0.103441
0.0280308 0.0377356 0.106523
0.17998 0.0454108 0.127565
0.449729 0.00161746 0.136553
0.672526 0.0162661 0.138476
0.893462 0.281666 0.221302
0.992966 0.635309 0.436362
0.996414 0.822202 0.627344
0.994812 0.904936 0.743038
0.0166018 0.0405432 0.107408
0.0298314 0.0425422 0.110277
0.19028 0.05066 0.128588
0.463828 0.0175479 0.137209
0.68426 0.0514229 0.139269
0.900114 0.314809 0.225238
0.993072 0.64268 0.437079
0.996384 0.823117 0.626902
0.994812 0.904906 0.74255
0 0.102983 0.118669
0 0.116075 0.123476
0.119768 0.142153 0.137911
0.441932 0.161425 0.122347
0.703441 0.193759 0.134722
0.909209 0.374411 0.224872
0.992523 0.655238 0.43537
0.996292 0.824323 0.624918
0.994858 0.904616 0.741115
0 0.266896 0.118853
0 0.289281 0.111849
0 0.341802 0.112245
0.400443 0.409323 0.120912
0.758068 0.465492 0.112139
0.932174 0.559197 0.214435
0.992325 0.693278 0.432502
0.995926 0.829801 0.621637
0.994873 0.905028 0.739284
0 0.597467 0.0218051
0 0.61149 0.0191806
0 0.637507 0.0186923
0.0983444 0.695888 0.031754
0.70573 0.706325 0.0491951
0.937026 0.734661 0.190784
0.990433 0.793591 0.439796
0.9953 0.849577 0.618311
0.99469 0.908385 0.739086
0 0.884688 0.218494
0 0.885283 0.224842
0 0.886198 0.234211
0.232792 0.88838 0.255055
0.64477 0.884978 0.292042
0.897673 0.854658 0.316457
0.988357 0.866575 0.46157
0.994797 0.896864 0.646387
0.994797 0.921172 0.752743
0.504738 0.961639 0.520516
0.514534 0.961028 0.520806
0.530144 0.960143 0.52134
0.574395 0.958114 0.52433
0.683726 0.952056 0.534203
0.858717 0.938476 0.560906
0.971954 0.920729 0.581415
0.993805 0.927794 0.675441
0.995743 0.94789 0.813748
0.781826 0.976516 0.720714
0.782864 0.976303 0.720378
0.784665 0.975967 0.71989
0.791623 0.975067 0.719738
0.813031 0.97261 0.721599
0.868223 0.96672 0.729992
0.947936 0.962325 0.749752
0.98822 0.955764 0.764996
0.994583 0.960403 0.827329
0.924147 0.975204 0.856291
0.923995 0.975174 0.855955
0.923873 0.975143 0.855528
0.924514 0.975036 0.855192
0.92726 0.974762 0.855222
0.935332 0.974609 0.856382
0.954513 0.974273 0.861311
0.979583 0.973724 0.869245
0.991516 0.972168 0.878233
0.0130312 0.0471046 0.253544
0.0210422 0.0488746 0.255665
0.130663 0.0586557 0.264332
0.411414 0.0105135 0.296193
0.668742 0.00608835 0.340276
0.907118 0.281102 0.392325
0.993545 0.63151 0.485222
0.996384 0.820661 0.640558
0.994797 0.904707 0.748287
0.0102083 0.0513619 0.263554
0.0209354 0.0539559 0.264332
0.143313 0.0637522 0.274556
0.423758 0.0179294 0.304112
0.686351 0.0284733 0.350301
0.912779 0.311009 0.397391
0.993423 0.637995 0.485801
0.996368 0.821378 0.640009
0.994812 0.904601 0.747738
0 0.108965 0.286641
0 0.117327 0.304692
0.125216 0.129809 0.320394
0.467872 0.118013 0.344274
0.719448 0.120394 0.365377
0.920027 0.361944 0.401312
0.993072 0.64921 0.484092
0.996384 0.82237 0.637995
0.994842 0.90428 0.746258
0 0.284611 0.336583
0 0.30132 0.338949
0 0.342275 0.355581
0.37113 0.413825 0.383444
0.735958 0.446357 0.370108
0.923125 0.545785 0.405066
0.992126 0.686427 0.479988
0.996124 0.827695 0.633936
0.994812 0.904646 0.744579
0 0.569024 0.269276
0 0.589944 0.266987
0 0.625803 0.268116
0 0.688869 0.300404
0.687694 0.711757 0.369207
0.929183 0.746838 0.399344
0.989181 0.795682 0.489632
0.9953 0.847333 0.629831
0.994568 0.907942 0.744183
0 0.882963 0.274495
0 0.883177 0.280629
0 0.883772 0.289967
0.0999313 0.883818 0.312596
0.615305 0.882918 0.355322
0.888777 0.860105 0.404395
0.98706 0.870924 0.510781
0.99469 0.897566 0.656809
0.994705 0.920897 0.756283
0.495003 0.961852 0.524697
0.504799 0.961242 0.524987
0.520867 0.96025 0.525322
0.566262 0.958206 0.528664
0.677378 0.952071 0.538949
0.856504 0.938445 0.567605
0.971054 0.921569 0.59321
0.993667 0.928695 0.685893
0.995682 0.948028 0.815824
0.781003 0.976577 0.720378
0.782055 0.976364 0.720027
0.783856 0.976013 0.719524
0.790814 0.975113 0.719356
0.812299 0.972656 0.721157
0.867704 0.96672 0.72958
0.947784 0.962295 0.749386
0.988205 0.955703 0.764645
0.994553 0.960464 0.828931
0.923934 0.975204 0.856153
0.923781 0.975189 0.855817
0.923659 0.975143 0.855375
0.924285 0.975052 0.855024
0.927062 0.974762 0.855055
0.935164 0.974609 0.856214
0.954391 0.974258 0.861143
0.979553 0.973709 0.869093
0.991516 0.972152 0.878111
0.00582895 0.12047 0.48159
0.00914015 0.125414 0.48893
0.0733806 0.140261 0.498787
0.399725 0.149462 0.493874
0.639429 0.0557717 0.507073
0.892821 0.303838 0.593683
0.995041 0.630533 0.631907
0.996536 0.815549 0.681346
0.994659 0.904158 0.763836
0.00534066 0.126299 0.490303
0.010132 0.130755 0.49659
0.0832074 0.144961 0.503685
0.406958 0.151812 0.497765
0.643107 0.0634165 0.510399
0.899992 0.326925 0.600412
0.994949 0.636362 0.633387
0.996551 0.816037 0.680995
0.994675 0.903944 0.763272
0.00161746 0.143069 0.496025
0.00604257 0.149569 0.504814
0.0833295 0.164492 0.511849
0.420951 0.177096 0.507942
0.659388 0.118532 0.519112
0.910597 0.363409 0.607584
0.994949 0.645029 0.632959
0.996551 0.816541 0.679088
0.99472 0.903441 0.761761
0 0.290883 0.520455
0 0.307836 0.531289
0 0.337438 0.549767
0.399161 0.380713 0.572885
0.734401 0.38436 0.586938
0.937133 0.492576 0.624262
0.994064 0.67744 0.630213
0.996551 0.82179 0.674784
0.994736 0.903777 0.759854
0 0.50898 0.515358
0 0.524529 0.520607
0 0.55787 0.533013
0 0.662379 0.572503
0.658793 0.71487 0.614878
0.904707 0.737697 0.606271
0.986557 0.790478 0.623835
0.995712 0.84155 0.667796
0.99443 0.907134 0.758907
0 0.866926 0.489998
0 0.871702 0.493874
0 0.878752 0.501213
0 0.888518 0.524819
0.540642 0.880659 0.569055
0.872862 0.871351 0.607477
0.984054 0.881651 0.630594
0.994446 0.899275 0.685374
0.994446 0.920195 0.767468
0.431586 0.964401 0.573922
0.443839 0.96376 0.57435
0.462516 0.962692 0.574899
0.515389 0.95996 0.577585
0.637675 0.952621 0.585229
0.839933 0.938567 0.611963
0.966445 0.925566 0.643351
0.992966 0.931487 0.715633
0.995422 0.94873 0.82324
0.777066 0.97705 0.723369
0.778103 0.976837 0.722988
0.779873 0.976486 0.722484
0.786847 0.975509 0.722377
0.80853 0.972976 0.723659
0.864836 0.96701 0.732204
0.946792 0.962234 0.753536
0.987793 0.956146 0.771389
0.994369 0.960983 0.834577
0.923522 0.975219 0.85594
0.923369 0.975204 0.855573
0.923232 0.975174 0.855131
0.923842 0.975067 0.85478
0.926665 0.974777 0.854795
0.93489 0.974594 0.85594
0.954177 0.974243 0.860899
0.979492 0.973709 0.868894
0.991531 0.972122 0.877958
0 0.333288 0.67686
0 0.337118 0.679362
0.00619516 0.353689 0.692226
0.34963 0.391028 0.710292
0.675425 0.390173 0.701335
0.841016 0.369207 0.727291
0.989944 0.624109 0.791287
0.997086 0.816693 0.794354
0.994003 0.903227 0.805219
0 0.342107 0.682628
0 0.344594 0.684352
0.00712596 0.360479 0.696681
0.357198 0.395911 0.713161
0.677348 0.393851 0.703578
0.84155 0.371817 0.728756
0.989792 0.628611 0.792493
0.997101 0.817258 0.794812
0.994018 0.902937 0.804913
0 0.3458 0.685039
0 0.348379 0.687129
0.0115358 0.364111 0.699199
0.36408 0.397589 0.71371
0.677836 0.394247 0.703853
0.841382 0.373388 0.72874
0.989609 0.635233 0.792737
0.997101 0.817746 0.794217
0.994079 0.902358 0.803738
0 0.363607 0.684657
0 0.37174 0.69044
0.0018616 0.389685 0.702876
0.36434 0.423606 0.718227
0.689662 0.431968 0.714504
0.859037 0.43444 0.738811
0.990219 0.661234 0.793179
0.996948 0.821317 0.792264
0.99411 0.902358 0.801846
0 0.496742 0.691188
0 0.510918 0.697734
0 0.537148 0.709453
0 0.61503 0.73933
0.668315 0.671977 0.770092
0.903731 0.683009 0.781689
0.99028 0.752499 0.79353
0.996292 0.837186 0.787945
0.993851 0.905531 0.799786
0 0.766934 0.703578
0 0.775326 0.708675
0 0.789059 0.716854
0 0.823178 0.740749
0.447883 0.872969 0.772869
0.851865 0.876204 0.78584
0.971756 0.883864 0.77702
0.993317 0.898894 0.78056
0.993576 0.91812 0.801083
0.215595 0.966705 0.749706
0.239063 0.966613 0.750027
0.27715 0.966552 0.750851
0.375998 0.965911 0.754757
0.559731 0.961349 0.762509
0.797498 0.945113 0.766918
0.955566 0.936889 0.779217
0.99144 0.939452 0.792813
0.994644 0.949813 0.840421
0.751461 0.980636 0.765911
0.752651 0.980407 0.765301
0.754574 0.980072 0.764508
0.762127 0.979065 0.763653
0.784802 0.97612 0.762722
0.843275 0.969497 0.765118
0.938643 0.962997 0.783169
0.985977 0.958434 0.803769
0.993835 0.962585 0.85034
0.921782 0.975509 0.856855
0.92163 0.975479 0.856474
0.921477 0.975448 0.856016
0.922103 0.975341 0.85565
0.925109 0.975021 0.855665
0.933516 0.974655 0.85684
0.953109 0.974304 0.861875
0.979232 0.973724 0.87039
0.991226 0.97232 0.879957
0.256947 0.603067 0.817395
0.263127 0.606897 0.818967
0.268894 0.609995 0.820249
0.412665 0.633768 0.831235
0.647028 0.661967 0.835798
0.85478 0.637751 0.834684
0.956542 0.629419 0.861967
0.996933 0.80383 0.880156
0.990753 0.915465 0.885832
0.272374 0.612406 0.821195
0.275761 0.61442 0.822034
0.280186 0.616098 0.822751
0.41912 0.638254 0.832959
0.649058 0.664744 0.837034
0.854994 0.640024 0.835523
0.956207 0.629953 0.862257
0.996902 0.803937 0.880308
0.990723 0.91516 0.885878
0.279255 0.616495 0.822873
0.280827 0.617456 0.823255
0.287358 0.618738 0.823865
0.423255 0.639857 0.83357
0.649409 0.665171 0.837217
0.8542 0.640238 0.835462
0.955261 0.628824 0.86186
0.996826 0.804059 0.880049
0.990753 0.914488 0.885466
0.280339 0.617151 0.823133
0.280751 0.617411 0.82324
0.303014 0.620722 0.824979
0.435019 0.640681 0.833967
0.651499 0.66389 0.836454
0.853269 0.638422 0.834653
0.954421 0.628763 0.860975
0.996857 0.807721 0.879667
0.990845 0.914015 0.884581
0.201999 0.633127 0.821851
0.236484 0.638041 0.823911
0.293217 0.64596 0.827192
0.425605 0.665934 0.835843
0.65243 0.688609 0.841245
0.862028 0.676402 0.842588
0.96231 0.682383 0.862654
0.995865 0.824994 0.879728
0.990875 0.914855 0.883024
0 0.73933 0.839841
0 0.744396 0.841886
0 0.753277 0.84535
0 0.7794 0.854688
0.469825 0.829511 0.866484
0.84184 0.854551 0.874678
0.969558 0.858183 0.877806
0.992187 0.881483 0.880278
0.991745 0.921248 0.879515
0 0.923461 0.877562
0 0.924544 0.878096
0 0.925856 0.87895
0.0954757 0.929641 0.881605
0.423224 0.939559 0.88716
0.754467 0.945785 0.88452
0.943603 0.941924 0.880232
0.985351 0.944518 0.878035
0.992081 0.948074 0.876417
0.685008 0.987488 0.882216
0.686595 0.987366 0.881773
0.689097 0.987167 0.881209
0.700023 0.986587 0.880247
0.733837 0.984054 0.878294
0.808927 0.977417 0.873442
0.91725 0.967193 0.867414
0.980102 0.964584 0.875959
0.992248 0.966293 0.88484
0.909789 0.977783 0.873884
0.909636 0.977768 0.873549
0.909499 0.977722 0.873106
0.91014 0.977615 0.872694
0.913176 0.977325 0.872389
0.923079 0.976501 0.872404
0.944778 0.975494 0.875257
0.975387 0.974121 0.881544
0.990463 0.972885 0.889815
0.624918 0.833738 0.90605
0.628702 0.835676 0.906935
0.631724 0.837217 0.907637
0.635035 0.838575 0.908232
0.714717 0.845365 0.911376
0.853407 0.83859 0.91397
0.953231 0.803845 0.913725
0.99324 0.789548 0.925933
0.991409 0.911604 0.924559
0.634226 0.838529 0.908232
0.636271 0.839567 0.908721
0.637629 0.840269 0.909056
0.639689 0.840894 0.909346
0.717128 0.846983 0.912123
0.853834 0.839734 0.914473
0.953033 0.80473 0.914015
0.993149 0.789456 0.925978
0.991424 0.910994 0.92459
0.638315 0.84062 0.909224
0.639231 0.841093 0.909453
0.639643 0.841306 0.909545
0.641505 0.841566 0.909651
0.717403 0.847181 0.91223
0.852995 0.839704 0.914443
0.952377 0.804623 0.913802
0.993027 0.788464 0.925658
0.991409 0.910002 0.924407
0.639078 0.841016 0.909407
0.639277 0.841123 0.909453
0.639033 0.840986 0.909392
0.64332 0.841215 0.909438
0.717815 0.846372 0.911879
0.851713 0.838712 0.91397
0.951446 0.803693 0.913191
0.992874 0.78674 0.925017
0.991409 0.909346 0.924056
0.637278 0.840085 0.908965
0.636927 0.839902 0.908888
0.636149 0.839506 0.908705
0.650339 0.840406 0.908873
0.722484 0.844785 0.911299
0.851469 0.836622 0.913054
0.95053 0.801785 0.9122
0.992554 0.788785 0.92398
0.991363 0.910491 0.923552
0.605615 0.849287 0.910506
0.611063 0.849821 0.910506
0.619608 0.850629 0.910506
0.647105 0.853132 0.910704
0.719692 0.858503 0.912673
0.852903 0.85449 0.916793
0.953719 0.831861 0.915908
0.991333 0.828321 0.923033
0.99147 0.919051 0.922805
0.374258 0.907317 0.935882
0.381048 0.907774 0.935668
0.395392 0.908827 0.935409
0.436408 0.911986 0.935378
0.541634 0.920501 0.934356
0.740307 0.931548 0.9299
0.939849 0.933242 0.921004
0.986084 0.933654 0.923461
0.990662 0.945495 0.92076
0.569863 0.986068 0.940551
0.572381 0.985916 0.940368
0.576532 0.985702 0.940124
0.591501 0.985275 0.939483
0.633936 0.984497 0.937881
0.738827 0.980377 0.933089
0.898177 0.970184 0.921996
0.975769 0.967102 0.920134
0.990173 0.968582 0.920089
0.88368 0.984298 0.919112
0.883452 0.984268 0.918944
0.883207 0.984253 0.918746
0.883787 0.984146 0.918425
0.887449 0.98378 0.917693
0.899947 0.982422 0.916518
0.926986 0.979522 0.914504
0.967132 0.975814 0.915022
0.988266 0.975174 0.918746
0.852201 0.932677 0.951904
0.853697 0.933288 0.952041
0.854887 0.933776 0.952163
0.855848 0.934157 0.952255
0.858 0.934401 0.9523
0.901183 0.93167 0.952071
0.955428 0.918593 0.952621
0.986847 0.891875 0.952285
0.992798 0.90399 0.946899
0.855894 0.934188 0.95227
0.856718 0.934508 0.952346
0.857206 0.934707 0.952392
0.857572 0.934859 0.952422
0.859068 0.93489 0.952392
0.901381 0.932052 0.952132
0.955184 0.918914 0.952667
0.986755 0.892134 0.952346
0.992767 0.903548 0.946944
0.857435 0.934798 0.952407
0.857755 0.934936 0.952438
0.857893 0.934981 0.952438
0.857939 0.934997 0.952453
0.859144 0.93492 0.952407
0.900862 0.932021 0.952102
0.954635 0.918883 0.952621
0.986557 0.891859 0.952361
0.992721 0.90251 0.94699
0.857694 0.934905 0.952422
0.85774 0.93492 0.952438
0.857618 0.934874 0.952422
0.857435 0.934798 0.952407
0.858854 0.934615 0.952331
0.900053 0.931655 0.952026
0.953887 0.918547 0.952514
0.986297 0.891188 0.952331
0.992645 0.901045 0.947005
0.857038 0.934646 0.952377
0.856886 0.934585 0.952361
0.856535 0.934447 0.952331
0.856123 0.934279 0.952285
0.859281 0.933959 0.952148
0.899779 0.930907 0.951904
0.95314 0.917861 0.952346
0.986023 0.890074 0.952224
0.992584 0.899092 0.947082
0.855421 0.933989 0.952224
0.85507 0.933837 0.952178
0.85452 0.933623 0.952132
0.853941 0.933379 0.952071
0.863111 0.932815 0.951843
0.90193 0.929625 0.951675
0.95317 0.916548 0.952102
0.985763 0.888426 0.951934
0.992447 0.900557 0.946517
0.829358 0.940185 0.951446
0.829877 0.940032 0.951415
0.831266 0.939879 0.951354
0.836591 0.939727 0.951278
0.853254 0.939437 0.951156
0.89337 0.937804 0.950515
0.94934 0.927626 0.94992
0.986389 0.909255 0.950271
0.992401 0.922484 0.942733
0.687358 0.979355 0.955062
0.687922 0.979217 0.955016
0.689204 0.979034 0.95494
0.695857 0.978668 0.954681
0.716335 0.977951 0.95349
0.772396 0.975814 0.950195
0.882704 0.969619 0.942763
0.97528 0.964736 0.937102
0.991409 0.966217 0.936614
0.840787 0.990921 0.943908
0.840528 0.990906 0.943862
0.840299 0.990875 0.943816
0.841474 0.990692 0.943679
0.846937 0.990021 0.943191
0.863447 0.988464 0.942
0.904402 0.983917 0.939284
0.958968 0.978119 0.936706
0.986542 0.976684 0.935149
