Swiniec_LUT_0.cube
TITLE "Generated by Resolve"
LUT_3D_SIZE 33
0.0223545 0.0271916 0.0187381
0.0223545 0.0271916 0.0187381
0.0240635 0.0276341 0.0192416
0.0271611 0.0295109 0.0221256
0.042649 0.0315862 0.0222171
0.0721447 0.035462 0.0213474
0.102281 0.0380255 0.018555
0.143648 0.0338598 0.0114748
0.19559 0.0263676 0.00289921
0.24445 0.0186618 0
0.296635 0.0114748 0
0.346929 0.00511177 0
0.39794 0.0021973 0
0.453666 0.00218204 0
0.517189 0.00563058 0
0.583185 0.0158999 0
0.649531 0.0357061 0
0.713787 0.0695811 0.00633249
0.776684 0.123171 0.0356146
0.837339 0.201129 0.0840925
0.891402 0.295689 0.141833
0.938003 0.39115 0.206332
0.972412 0.482033 0.275746
0.987259 0.565118 0.34406
0.992782 0.636622 0.40798
0.994705 0.696025 0.466911
0.995621 0.746029 0.521737
0.995926 0.788128 0.573053
0.996353 0.822553 0.619608
0.99556 0.848936 0.653758
0.995315 0.868971 0.676524
0.995392 0.887083 0.704143
0.994873 0.90483 0.739498
0.0223545 0.0271916 0.0187381
0.0223545 0.0271916 0.0187381
0.0241245 0.0279393 0.0197604
0.0288853 0.0298009 0.0222782
0.0470741 0.0322728 0.0221714
0.0760662 0.0360266 0.0211337
0.105348 0.0382544 0.0181277
0.145647 0.0341497 0.0113222
0.195743 0.0271763 0.00308232
0.242481 0.0206302 0
0.293095 0.0136873 0
0.343359 0.00848402 0
0.395819 0.00578317 0
0.455085 0.00665293 0
0.520058 0.0124056 0
0.587427 0.0237278 0
0.654307 0.0463111 0
0.718563 0.0819715 0.00631724
0.781338 0.136736 0.0348516
0.841108 0.214374 0.0846418
0.893797 0.30486 0.143221
0.939803 0.398032 0.207736
0.973114 0.487266 0.276967
0.987503 0.568551 0.345022
0.992844 0.638926 0.408667
0.994736 0.697581 0.467399
0.995651 0.747005 0.522087
0.995911 0.788739 0.573281
0.996338 0.822965 0.619776
0.995575 0.849195 0.653788
0.995315 0.869139 0.676539
0.995377 0.887205 0.704234
0.994873 0.904906 0.739559
0.0227817 0.0287938 0.0209812
0.0229801 0.0289769 0.0212253
0.0235447 0.0292363 0.0216678
0.0295109 0.0303197 0.0223697
0.0484016 0.032929 0.0222171
0.0756847 0.0366369 0.0212711
0.102998 0.0392462 0.0187991
0.139971 0.0363165 0.0125582
0.187274 0.0311742 0.00512703
0.232364 0.0257572 0
0.283085 0.0203555 0
0.336461 0.0155795 0
0.394537 0.0132296 0
0.457847 0.0147097 0
0.524056 0.0203555 0
0.591806 0.0355077 0
0.658549 0.058793 0
0.722866 0.0945449 0.00538643
0.785458 0.149645 0.0332494
0.844404 0.226734 0.0851301
0.895979 0.313848 0.144121
0.941161 0.404501 0.208545
0.97348 0.492073 0.277562
0.987716 0.571817 0.345632
0.992905 0.641077 0.409018
0.994766 0.699046 0.467628
0.995682 0.747936 0.52224
0.99588 0.789319 0.573373
0.996307 0.823346 0.619837
0.995575 0.849424 0.653758
0.995331 0.869276 0.676509
0.995377 0.887297 0.704234
0.994873 0.904952 0.739528
0.0201419 0.0323033 0.0222629
0.019913 0.0325933 0.0222629
0.0202182 0.032929 0.0223697
0.0248112 0.0339666 0.0229953
0.0389868 0.036286 0.0234836
0.0610971 0.0397955 0.02327
0.0863355 0.0439612 0.0224155
0.115297 0.0467994 0.0190127
0.157443 0.0450446 0.0122988
0.209262 0.0397955 0.00448615
0.264118 0.0346685 0
0.328649 0.0279088 0
0.394888 0.0239872 0
0.461021 0.0245975 0
0.528664 0.032517 0
0.596567 0.0474861 0
0.663096 0.0733959 0
0.727169 0.108782 0.00300603
0.789319 0.16408 0.0318914
0.847593 0.239094 0.0834516
0.898116 0.323156 0.144228
0.942321 0.4112 0.208835
0.973922 0.496895 0.278019
0.987869 0.575189 0.345998
0.99295 0.643198 0.409171
0.99472 0.70042 0.467689
0.995697 0.748775 0.52221
0.995865 0.789822 0.573343
0.996292 0.823636 0.619806
0.99559 0.849592 0.653635
0.995331 0.869368 0.676432
0.995377 0.887327 0.704173
0.994873 0.904952 0.739406
0.0143587 0.0390784 0.0220645
0.0142214 0.0394751 0.0221103
0.0148165 0.0400854 0.0222782
0.0196078 0.0415808 0.0231937
0.0323339 0.0445411 0.0247196
0.0535439 0.0484321 0.0261387
0.0810864 0.0534524 0.0264439
0.111177 0.059556 0.024445
0.152911 0.0615091 0.0184787
0.204105 0.0590677 0.00999466
0.260609 0.0547341 0.00370794
0.325658 0.0492561 0
0.396963 0.0446479 0
0.466758 0.0423438 0
0.534768 0.0484627 0
0.60209 0.0637522 0
0.667582 0.088426 0
0.731899 0.124178 1.5259e-05
0.792706 0.178119 0.0302739
0.850309 0.250675 0.0828565
0.900069 0.332326 0.14432
0.943328 0.417594 0.208942
0.974319 0.501457 0.278248
0.988006 0.578332 0.346136
0.992889 0.645151 0.409155
0.994659 0.70164 0.467597
0.995697 0.749508 0.522057
0.995834 0.790234 0.573175
0.996277 0.823865 0.619654
0.99559 0.849699 0.653452
0.995331 0.869429 0.676295
0.995377 0.887343 0.704021
0.994888 0.904921 0.739208
0.00842298 0.0465248 0.0216678
0.00840772 0.0470893 0.0217594
0.00892653 0.0480049 0.0219577
0.0131991 0.0503548 0.022797
0.0260777 0.0539864 0.0249027
0.046479 0.0586709 0.0275425
0.0760662 0.0647135 0.0302129
0.108995 0.0716106 0.0300603
0.153109 0.078172 0.0239109
0.212604 0.0806744 0.0145113
0.272251 0.0780346 0.00579843
0.332647 0.0750744 0.000106813
0.404181 0.0711376 0
0.475578 0.0704356 0
0.544167 0.074464 0
0.609537 0.0852216 0
0.673381 0.107027 0
0.736904 0.142489 0
0.796582 0.194003 0.0277409
0.853208 0.263249 0.0820478
0.902098 0.342153 0.143908
0.944488 0.424308 0.209018
0.974777 0.506508 0.278309
0.988144 0.58175 0.34609
0.992813 0.647242 0.409003
0.994568 0.702983 0.467384
0.995712 0.75024 0.521767
0.995819 0.790631 0.572885
0.996262 0.824079 0.619394
0.99559 0.84979 0.653193
0.995331 0.869474 0.676112
0.995377 0.887327 0.703822
0.994888 0.904875 0.738949
0.00283818 0.0559091 0.0215457
0.00306706 0.0568399 0.0216678
0.0031281 0.0584726 0.0217594
0.00608835 0.0616312 0.0223697
0.0175326 0.0664988 0.0241093
0.0366064 0.0721599 0.0273899
0.0662242 0.0794232 0.0320745
0.104173 0.0877546 0.0352789
0.148974 0.096376 0.0306249
0.213016 0.102739 0.0205539
0.287388 0.106783 0.00994888
0.352224 0.107652 0.00292973
0.42031 0.106462 0
0.48954 0.107424 0
0.557961 0.111894 0
0.621485 0.120775 0
0.682719 0.137423 0
0.743587 0.167452 0
0.802182 0.215518 0.0224918
0.856855 0.279072 0.0795911
0.904845 0.35462 0.143069
0.946532 0.433585 0.208881
0.975235 0.5131 0.278279
0.988128 0.586114 0.345953
0.99266 0.65005 0.408759
0.994461 0.704723 0.467048
0.995712 0.751202 0.52134
0.995789 0.791135 0.572488
0.996231 0.824338 0.619043
0.99559 0.849912 0.652857
0.995331 0.86952 0.675883
0.995377 0.887343 0.703578
0.994904 0.904814 0.738628
0 0.0683909 0.0215305
0 0.0699931 0.0216373
0 0.0726329 0.0219425
0 0.0767987 0.0220493
0.00749218 0.0822919 0.0232548
0.0233463 0.0886854 0.0257725
0.0495918 0.0978561 0.0306401
0.0899519 0.1084 0.0365759
0.140307 0.119158 0.0376745
0.207675 0.128679 0.0273136
0.288823 0.136446 0.0142824
0.369574 0.142855 0.0034638
0.444312 0.146807 0
0.511101 0.151431 0
0.575341 0.158389 0
0.637415 0.168124 0
0.696712 0.18291 0
0.753155 0.204608 0
0.808942 0.243641 0.0181125
0.861326 0.300069 0.0737011
0.908309 0.371099 0.141878
0.948867 0.445777 0.208698
0.975464 0.521477 0.278035
0.988128 0.591623 0.345708
0.992477 0.653559 0.408438
0.994324 0.70695 0.466636
0.995727 0.752529 0.520821
0.995743 0.791852 0.571984
0.996201 0.824704 0.618585
0.995605 0.850111 0.65243
0.995331 0.869627 0.675593
0.995377 0.887358 0.703288
0.994919 0.904753 0.738277
0 0.0850538 0.0222171
0 0.0872511 0.0221714
0 0.0909895 0.0222171
0 0.0965744 0.0221561
0 0.102983 0.0227512
0.00709545 0.110567 0.0241703
0.027863 0.121248 0.0271305
0.0630808 0.134478 0.033051
0.122255 0.148058 0.0384222
0.193729 0.160678 0.0302129
0.282811 0.171374 0.0162814
0.372488 0.181125 0.00373846
0.457908 0.189883 0
0.532662 0.197513 0
0.597574 0.206592 0
0.657099 0.218708 0
0.71342 0.233661 0
0.767514 0.254322 0
0.818845 0.282872 0.00737011
0.867475 0.329198 0.0667124
0.912566 0.391577 0.139147
0.951049 0.461219 0.207523
0.975967 0.53196 0.277577
0.987915 0.598566 0.345159
0.992432 0.658076 0.408026
0.994293 0.709773 0.466072
0.995727 0.75433 0.520165
0.995682 0.792844 0.571405
0.99617 0.825254 0.618051
0.995605 0.850401 0.651911
0.995331 0.869795 0.675242
0.995377 0.887434 0.702953
0.994934 0.904723 0.737865
0 0.108873 0.0225376
0 0.112047 0.0224155
0 0.117968 0.0220493
0 0.12401 0.0218509
0 0.131243 0.0219272
0 0.139879 0.0225986
0.0034638 0.152071 0.0240787
0.0294041 0.167895 0.0275273
0.0852674 0.185443 0.033051
0.170718 0.199954 0.032639
0.265538 0.213169 0.0144198
0.367529 0.22472 0
0.460105 0.235981 0
0.54345 0.246708 0
0.615 0.258076 0
0.677775 0.270085 0
0.732326 0.286473 0
0.78323 0.307652 0
0.831662 0.334859 0
0.876112 0.371527 0.0522164
0.918318 0.419654 0.133898
0.953704 0.481117 0.205386
0.976928 0.545815 0.276631
0.987915 0.608011 0.344442
0.992508 0.664118 0.407538
0.994354 0.713588 0.465324
0.995544 0.756634 0.519493
0.995605 0.794293 0.570733
0.996109 0.826032 0.617456
0.995621 0.850843 0.651286
0.995346 0.870054 0.67483
0.995361 0.887572 0.702602
0.994949 0.904723 0.737423
0 0.14464 0.0218662
0 0.14966 0.0214389
0 0.155688 0.0207218
0 0.162005 0.0203708
0 0.169894 0.0201572
0 0.1794 0.0205234
0 0.192966 0.0213016
0 0.210361 0.0225528
0.0345464 0.230411 0.0247959
0.12784 0.249195 0.0273594
0.239445 0.263325 0.0186618
0.34934 0.276402 0
0.453574 0.28751 0
0.544396 0.298802 0
0.623423 0.311574 0
0.692088 0.325628 0
0.750164 0.343236 0
0.799908 0.364843 0
0.844312 0.39086 0
0.88661 0.422812 0.0319829
0.92546 0.461173 0.122087
0.957168 0.508354 0.201556
0.977951 0.564034 0.274739
0.987488 0.620157 0.343618
0.992401 0.671962 0.40705
0.994446 0.718715 0.464485
0.9953 0.759793 0.518715
0.995605 0.796262 0.56997
0.996033 0.827176 0.616815
0.995636 0.851499 0.650599
0.995361 0.87042 0.674357
0.995361 0.887816 0.70222
0.994949 0.904799 0.736965
0 0.196612 0.0192264
0 0.202197 0.0188449
0 0.207904 0.0180056
0 0.214405 0.0174258
0 0.221775 0.016968
0 0.231418 0.0169223
0 0.245151 0.0169985
0 0.262943 0.0168612
0 0.283757 0.0162203
0.0605631 0.305638 0.0151827
0.196216 0.322988 0.0140536
0.321874 0.335821 0.00572213
0.437003 0.346868 0
0.538415 0.357153 0
0.624933 0.368612 0
0.698116 0.383093 0
0.75903 0.401205 0
0.811765 0.423667 0
0.856931 0.450065 0
0.896864 0.477882 0.0154879
0.932738 0.510719 0.101045
0.960983 0.547387 0.193027
0.978622 0.588739 0.272312
0.987625 0.635874 0.342596
0.992477 0.682139 0.40647
0.994446 0.725414 0.463813
0.995285 0.764141 0.517922
0.995651 0.798901 0.569146
0.995911 0.828809 0.6159
0.995666 0.852506 0.649912
0.995392 0.871046 0.673991
0.995346 0.888197 0.701839
0.994949 0.904936 0.736507
0 0.262791 0.0160678
0 0.269062 0.0152132
0 0.274113 0.0142061
0 0.280232 0.0133669
0 0.286946 0.0126345
0 0.295567 0.0120241
0 0.308354 0.0111696
0 0.325505 0.00962844
0 0.345663 0.00700389
0 0.368612 0.00233463
0.124102 0.389929 0
0.282109 0.403388 0
0.410132 0.413336 0
0.522805 0.421439 0
0.61738 0.430304 0
0.696101 0.442741 0
0.761044 0.460197 0
0.817014 0.481834 0
0.865431 0.507301 0
0.905241 0.533974 0.00642405
0.938842 0.561822 0.0740215
0.963867 0.591104 0.180072
0.979446 0.62327 0.266682
0.988144 0.657496 0.341283
0.992279 0.696178 0.405661
0.994324 0.734218 0.463783
0.995346 0.770108 0.517143
0.995743 0.80235 0.568292
0.995895 0.830869 0.614862
0.995697 0.853941 0.649104
0.995422 0.871946 0.673671
0.995315 0.888792 0.701473
0.994949 0.905196 0.736049
0 0.341222 0.00994888
0 0.345617 0.00866712
0 0.350484 0.00753796
0 0.356558 0.00634775
0 0.362448 0.00537118
0 0.369512 0.0041352
0 0.380911 0.00236515
0 0.395636 0
0 0.414282 0
0 0.435584 0
0.0199588 0.458244 0
0.216175 0.475532 0
0.374456 0.484886 0
0.49691 0.491539 0
0.60206 0.497826 0
0.686732 0.506767 0
0.756802 0.5205 0
0.817472 0.539178 0
0.867552 0.561196 0
0.909545 0.586206 0
0.942535 0.610285 0.0583658
0.966308 0.634287 0.169436
0.979858 0.660075 0.260105
0.987839 0.686854 0.338552
0.991638 0.715129 0.4056
0.994018 0.746029 0.463432
0.995239 0.777569 0.516991
0.99585 0.807065 0.567422
0.99588 0.833539 0.613581
0.995743 0.85594 0.648188
0.995483 0.873228 0.673411
0.99527 0.889662 0.701198
0.994934 0.905608 0.735653
0 0.425376 0
0 0.429816 0
0 0.434211 0
0 0.439033 0
0 0.444602 0
0 0.450874 0
0 0.459739 0
0 0.472343 0
0 0.488838 0
0 0.508461 0
0 0.529503 0
0.125505 0.549142 0
0.318791 0.561364 0
0.463355 0.565911 0
0.576028 0.569574 0.000167849
0.671244 0.57406 0
0.748196 0.581506 0
0.812116 0.595209 0
0.866285 0.612375 0
0.909728 0.632212 0
0.943969 0.654002 0.0397955
0.967407 0.675135 0.160922
0.980652 0.696132 0.256382
0.987747 0.718044 0.335851
0.99173 0.740307 0.404608
0.993317 0.7626 0.463127
0.994812 0.787121 0.51722
0.995544 0.813519 0.567193
0.995727 0.837263 0.612253
0.995636 0.858503 0.647135
0.995544 0.875029 0.673198
0.995224 0.890867 0.701091
0.994904 0.906264 0.735454
0 0.515999 0
0 0.519585 0
0 0.523964 0
0 0.528847 0
0 0.533761 0
0 0.539422 0
0 0.54612 0
0 0.55639 0
0 0.569589 0
0 0.585306 0
0 0.603723 0
0.0107118 0.622477 0
0.247227 0.63682 0
0.417166 0.642435 0
0.547646 0.642374 0.00454719
0.649805 0.641566 0.00563058
0.735393 0.643626 0.00192264
0.804685 0.649439 0
0.861494 0.659815 0
0.907835 0.674739 0.000793469
0.943175 0.692363 0.0204166
0.967086 0.71162 0.147524
0.980331 0.72958 0.255497
0.986999 0.74847 0.337102
0.990997 0.766674 0.404791
0.993393 0.784024 0.464332
0.994522 0.801083 0.517632
0.995651 0.822293 0.567193
0.995453 0.842908 0.611811
0.995438 0.861769 0.646082
0.995636 0.877501 0.673045
0.995132 0.8925 0.701183
0.994842 0.90724 0.735744
0 0.609171 0
0 0.612955 0
0 0.616831 0
0 0.620691 0
0 0.624735 0
0 0.629145 0
0 0.634668 0
0 0.642008 0
0 0.651667 0
0 0.664622 0
0 0.678691 0
0 0.694041 0
0.178149 0.707897 0
0.369879 0.714031 0
0.515038 0.712856 0.00386053
0.626963 0.707408 0.0138399
0.71603 0.702861 0.0137942
0.79234 0.702007 0.00921645
0.854109 0.705577 0.00605783
0.903487 0.714214 0.00721752
0.941176 0.727642 0.0148165
0.966827 0.743069 0.125811
0.980011 0.759548 0.252232
0.987213 0.775631 0.339635
0.990936 0.791745 0.409384
0.992935 0.805707 0.467689
0.994202 0.819669 0.519844
0.9953 0.833387 0.567864
0.995315 0.850431 0.611597
0.995377 0.86656 0.646174
0.995666 0.880766 0.672892
0.995026 0.894682 0.70132
0.994751 0.908675 0.736477
0 0.701213 0
0 0.70425 0
0 0.707195 0
0 0.710246 0
0 0.713008 0
0 0.715648 0
0 0.719631 0
0 0.724804 0
0 0.730846 0
0 0.738994 0
0 0.748455 0
0 0.758694 0
0.135927 0.767788 0.00129702
0.333303 0.774105 0.00788891
0.483513 0.77348 0.0194553
0.60238 0.767498 0.0301976
0.695827 0.759396 0.0321965
0.773693 0.753201 0.0272679
0.84184 0.750072 0.0204013
0.895567 0.752224 0.0179141
0.936522 0.759793 0.0225223
0.964416 0.772061 0.118471
0.978958 0.785702 0.248875
0.986267 0.800015 0.33994
0.9906 0.813947 0.414328
0.992737 0.826398 0.47454
0.994202 0.837598 0.525292
0.994644 0.848646 0.57171
0.995544 0.860029 0.613108
0.995636 0.87245 0.645426
0.995575 0.884947 0.673274
0.994873 0.897841 0.702327
0.994644 0.910582 0.737728
0 0.781674 0.0207523
0 0.783719 0.0231937
0 0.785153 0.0258793
0 0.786908 0.0280308
0 0.788739 0.0298772
0 0.790112 0.0323033
0 0.792096 0.0354314
0 0.794507 0.039826
0 0.798062 0.0454261
0 0.802182 0.0526284
0 0.807126 0.0616312
0 0.812482 0.0707561
0.128923 0.81799 0.0798657
0.318975 0.82211 0.0880446
0.461906 0.822751 0.095201
0.579736 0.818601 0.0975204
0.676173 0.810681 0.0906233
0.755093 0.801144 0.0747997
0.823789 0.793118 0.0560616
0.882582 0.789609 0.0421149
0.928176 0.791531 0.0505684
0.960357 0.798199 0.139849
0.977783 0.808652 0.256001
0.98584 0.820691 0.343313
0.989837 0.833005 0.417868
0.992615 0.844953 0.482475
0.993866 0.854475 0.534188
0.994568 0.863569 0.578973
0.995575 0.872953 0.617731
0.995621 0.881117 0.648905
0.995315 0.890929 0.675959
0.995071 0.901823 0.70515
0.994492 0.913207 0.739574
0 0.842878 0.116014
0 0.843748 0.118898
0 0.84445 0.121279
0 0.845212 0.123613
0 0.845945 0.125917
0 0.846586 0.128115
0 0.847379 0.13077
0 0.84828 0.134585
0 0.849943 0.139162
0 0.851408 0.144533
0 0.853376 0.15111
0 0.85565 0.158984
0.177996 0.858106 0.16643
0.328817 0.86041 0.173938
0.455192 0.860471 0.180713
0.56524 0.858442 0.185855
0.659449 0.853239 0.186557
0.738598 0.844373 0.181979
0.806271 0.834592 0.169421
0.865751 0.826535 0.162432
0.915785 0.822568 0.17116
0.953201 0.824094 0.208164
0.974838 0.830427 0.280659
0.985122 0.839185 0.353399
0.989334 0.849668 0.423438
0.992157 0.859785 0.487419
0.993439 0.869398 0.544259
0.994781 0.877577 0.589944
0.995422 0.885283 0.626902
0.995239 0.892546 0.658091
0.99501 0.898634 0.681743
0.995254 0.90695 0.709163
0.994446 0.916609 0.743297
0 0.88571 0.215198
0 0.885939 0.217014
0 0.886015 0.218463
0 0.886183 0.219928
0 0.886305 0.221454
0 0.886397 0.222873
0 0.886671 0.224598
0 0.887022 0.227115
0 0.887251 0.230106
0 0.887709 0.233753
0.00395209 0.888395 0.238148
0.123552 0.889021 0.243473
0.251804 0.889372 0.249821
0.361303 0.890043 0.25594
0.46334 0.890013 0.263157
0.561303 0.888518 0.272709
0.649165 0.885267 0.281422
0.725963 0.879408 0.289265
0.791669 0.871077 0.293278
0.849256 0.86128 0.292729
0.89955 0.85362 0.29369
0.941848 0.849714 0.300801
0.969497 0.850935 0.324636
0.982986 0.856977 0.376699
0.989105 0.864637 0.434302
0.991913 0.873091 0.493584
0.993484 0.881422 0.549905
0.994598 0.889723 0.601053
0.994858 0.89659 0.640742
0.995224 0.90338 0.672877
0.995315 0.9093 0.696849
0.994675 0.914427 0.720455
0.994842 0.92137 0.750744
0 0.915084 0.306889
0 0.91516 0.308095
0 0.915129 0.308965
0 0.915053 0.30985
0 0.914916 0.310643
0 0.914794 0.311452
0.0104219 0.914717 0.312444
0.0446784 0.914656 0.313832
0.0946975 0.914595 0.315663
0.151141 0.914534 0.31783
0.211765 0.914137 0.320455
0.272786 0.914 0.32398
0.338949 0.914153 0.328435
0.41178 0.913863 0.333623
0.487999 0.9131 0.339422
0.567224 0.911559 0.347143
0.646387 0.908873 0.356298
0.718364 0.904891 0.365988
0.781262 0.899428 0.373465
0.836728 0.891493 0.378775
0.884703 0.882719 0.381582
0.926619 0.875456 0.384634
0.960662 0.872343 0.393164
0.979278 0.873289 0.411887
0.987411 0.878325 0.454795
0.990768 0.88484 0.504967
0.993255 0.892149 0.557
0.994095 0.899443 0.606744
0.994858 0.9066 0.652567
0.994842 0.912871 0.689204
0.994888 0.918547 0.718013
0.995193 0.923598 0.741726
0.995331 0.92845 0.766369
0.214084 0.935622 0.388037
0.224674 0.935576 0.388739
0.234226 0.935454 0.389166
0.243183 0.935347 0.389578
0.252049 0.935225 0.389975
0.261387 0.935103 0.390402
0.273472 0.934936 0.390936
0.288167 0.934722 0.391669
0.305577 0.934539 0.392706
0.327901 0.934234 0.394064
0.354726 0.933959 0.395773
0.387152 0.933455 0.397971
0.426184 0.932738 0.400839
0.470649 0.93225 0.404303
0.524239 0.931182 0.40856
0.585367 0.929625 0.413962
0.65066 0.926772 0.4215
0.715465 0.923491 0.429953
0.774807 0.919493 0.438346
0.827527 0.914366 0.445899
0.873396 0.907561 0.45037
0.913237 0.899825 0.453895
0.947356 0.893645 0.458701
0.972656 0.890761 0.467338
0.985107 0.891737 0.484367
0.989776 0.895781 0.522454
0.99263 0.901595 0.566659
0.993774 0.907591 0.613123
0.994186 0.914031 0.656947
0.994842 0.920699 0.698848
0.995438 0.92639 0.734737
0.995132 0.93193 0.764324
0.995254 0.936812 0.790387
0.390829 0.950881 0.458427
0.395621 0.95079 0.458885
0.399786 0.950622 0.459083
0.403891 0.950469 0.459266
0.407965 0.950301 0.459434
0.412284 0.950134 0.459617
0.417899 0.94992 0.459907
0.425406 0.94966 0.460288
0.435187 0.949386 0.460853
0.446952 0.949142 0.46154
0.462318 0.948837 0.462501
0.481819 0.948257 0.463844
0.505974 0.947341 0.46566
0.533898 0.94667 0.468086
0.568826 0.945647 0.471107
0.612573 0.943771 0.475059
0.663996 0.941054 0.480323
0.718547 0.937789 0.48716
0.772534 0.933806 0.495537
0.821469 0.930388 0.50338
0.865446 0.925841 0.509438
0.902602 0.920317 0.514076
0.935195 0.913481 0.518044
0.962509 0.908629 0.523339
0.980041 0.906233 0.531685
0.987762 0.907057 0.547448
0.991852 0.910414 0.581857
0.992966 0.915373 0.621317
0.994171 0.920928 0.662531
0.995071 0.926619 0.702037
0.9953 0.932601 0.741253
0.995666 0.938125 0.776257
0.995453 0.94345 0.807172
0.507225 0.961639 0.52108
0.509987 0.961517 0.521355
0.512367 0.961349 0.521385
0.514717 0.961196 0.521401
0.517067 0.961028 0.521431
0.519539 0.960861 0.521447
0.522713 0.960647 0.521523
0.526986 0.960433 0.521721
0.532525 0.960189 0.522026
0.539757 0.959854 0.522499
0.549264 0.959442 0.523171
0.561517 0.958907 0.524102
0.576486 0.95816 0.525017
0.595605 0.957229 0.526314
0.618647 0.956115 0.528298
0.647944 0.954437 0.530938
0.685161 0.952102 0.534951
0.728298 0.948669 0.540352
0.773739 0.94522 0.54699
0.818341 0.941695 0.554681
0.859159 0.938567 0.561608
0.894652 0.935286 0.567742
0.925856 0.93048 0.572122
0.952026 0.925124 0.576272
0.971984 0.920897 0.582132
0.983673 0.919051 0.589426
0.990311 0.919463 0.603632
0.992767 0.922774 0.63444
0.993912 0.927321 0.669963
0.994598 0.932082 0.707591
0.99556 0.93724 0.743252
0.99585 0.942626 0.779248
0.995789 0.947814 0.812482
0.597406 0.969146 0.577539
0.599054 0.969055 0.577737
0.600397 0.968933 0.577691
0.601755 0.968811 0.577646
0.603143 0.968688 0.577615
0.604562 0.968551 0.577554
0.606485 0.968399 0.577539
0.609079 0.968185 0.577569
0.612436 0.967941 0.577676
0.616815 0.967605 0.577859
0.62269 0.967285 0.578119
0.630396 0.966857 0.578531
0.640299 0.966293 0.579156
0.652583 0.965393 0.580056
0.668315 0.964202 0.581216
0.688212 0.9626 0.583001
0.712963 0.960433 0.585626
0.744518 0.957794 0.589807
0.781094 0.954223 0.595132
0.818616 0.951125 0.601404
0.855695 0.948363 0.608515
0.888914 0.945724 0.614862
0.918395 0.943374 0.620798
0.943542 0.939651 0.624674
0.963928 0.935042 0.62829
0.978241 0.931594 0.633921
0.987243 0.929976 0.640497
0.991058 0.930587 0.653452
0.992981 0.933455 0.681193
0.994659 0.937346 0.714473
0.995361 0.941939 0.748775
0.996078 0.946441 0.78143
0.995773 0.951171 0.813306
0.670695 0.973846 0.628656
0.671778 0.973785 0.628794
0.672618 0.973693 0.628717
0.673411 0.973602 0.628656
0.674235 0.97351 0.628565
0.675074 0.973419 0.628489
0.676143 0.973312 0.628428
0.677607 0.973175 0.628428
0.679606 0.972992 0.628443
0.682322 0.972747 0.62855
0.685924 0.972442 0.628702
0.690944 0.971923 0.628946
0.697551 0.971237 0.629358
0.705562 0.970367 0.629969
0.715587 0.969436 0.630762
0.728527 0.968307 0.631693
0.745663 0.966644 0.633692
0.766644 0.964416 0.636393
0.792996 0.961715 0.640467
0.823148 0.958892 0.64567
0.854688 0.956115 0.651316
0.885924 0.953674 0.657542
0.91339 0.952255 0.664286
0.936873 0.950332 0.669154
0.95697 0.947173 0.67277
0.972625 0.943465 0.676036
0.982803 0.941024 0.681315
0.989364 0.939788 0.687663
0.992691 0.940475 0.69897
0.99443 0.942824 0.725689
0.995544 0.946242 0.756069
0.99585 0.950149 0.786877
0.995422 0.954299 0.815274
0.730236 0.97615 0.677119
0.730892 0.976089 0.67718
0.731334 0.976013 0.677058
0.731792 0.975937 0.676936
0.732235 0.97586 0.676814
0.732692 0.975784 0.676692
0.733333 0.975708 0.67657
0.734234 0.975601 0.676463
0.73547 0.975464 0.676371
