Swiniec_LUT_1.cube
TITLE "Generated by Resolve"
LUT_3D_SIZE 33
0.0191348 0.0237125 0.0157015
0.0191348 0.0237125 0.0157015
0.0213016 0.0246891 0.0167239
0.025864 0.0280919 0.0211032
0.0437476 0.0332799 0.0243992
0.0768139 0.0421149 0.028748
0.109346 0.0485084 0.0300603
0.151171 0.0468299 0.0256046
0.203601 0.0415503 0.0192721
0.253697 0.0354162 0.016022
0.308431 0.0297398 0.0108797
0.362112 0.0247349 0.0099031
0.417487 0.0235904 0.00823987
0.478386 0.0259098 0.0108339
0.548165 0.0320592 0.0126955
0.621347 0.0456245 0.0184176
0.695293 0.0694438 0.0289464
0.767452 0.108446 0.0485389
0.838743 0.16846 0.08542
0.906706 0.25362 0.140719
0.962325 0.353826 0.199924
1 0.452781 0.261707
1 0.543877 0.327474
1 0.624201 0.391516
1 0.690929 0.451057
1 0.74461 0.50602
1 0.788525 0.557778
1 0.824704 0.606683
1 0.853788 0.651102
1 0.875944 0.683253
1 0.892729 0.704219
1 0.907729 0.729961
1 0.922301 0.763027
0.0191348 0.0237125 0.0157015
0.0191348 0.0237125 0.0157015
0.021561 0.0251926 0.0174258
0.027924 0.0287938 0.0216678
0.0488136 0.0348058 0.0252537
0.0811627 0.0432746 0.0291752
0.112627 0.0490578 0.0299992
0.153353 0.047364 0.0257267
0.204013 0.0425574 0.0196841
0.252094 0.037705 0.0168917
0.305135 0.0322271 0.0119631
0.358984 0.0285801 0.0110933
0.415961 0.0277104 0.00944533
0.480827 0.0311131 0.0119326
0.552514 0.0398108 0.0142672
0.627176 0.0544137 0.0186923
0.7019 0.0811933 0.0294041
0.774044 0.121996 0.0503548
0.844953 0.183124 0.0863661
0.911177 0.267659 0.142107
0.964599 0.363378 0.201282
1 0.4598 0.262867
1 0.549035 0.328374
1 0.627482 0.392187
1 0.693049 0.45153
1 0.746014 0.50634
1 0.789395 0.558038
1 0.825238 0.606851
1 0.854139 0.651255
1 0.876158 0.683268
1 0.892866 0.704219
1 0.907835 0.730037
1 0.922377 0.763073
0.0206149 0.0263066 0.0189059
0.0209506 0.026627 0.0192721
0.0217288 0.0271305 0.0199588
0.0288853 0.0296483 0.0221103
0.0505379 0.0359045 0.0257572
0.0809949 0.0440528 0.0294957
0.110521 0.0501259 0.0307622
0.148089 0.0496223 0.0270848
0.196201 0.046891 0.0221714
0.242634 0.0432898 0.0191043
0.295949 0.0397192 0.0154269
0.353094 0.0366674 0.0131838
0.416175 0.036347 0.0118715
0.48539 0.0404364 0.0136416
0.558251 0.0488899 0.0164187
0.633753 0.0675822 0.020798
0.708186 0.0949264 0.0307774
0.780118 0.135698 0.0512398
0.850416 0.197009 0.0863203
0.915022 0.28072 0.143236
0.966628 0.372702 0.202106
1 0.466361 0.263416
1 0.55378 0.328664
1 0.630579 0.392523
1 0.695048 0.451667
1 0.747341 0.506432
1 0.790219 0.558099
1 0.825742 0.606897
1 0.854459 0.65127
1 0.876356 0.683207
1 0.892973 0.704173
1 0.907912 0.730037
1 0.922408 0.763043
0.0195926 0.0311131 0.0216068
0.0194858 0.0314946 0.0217136
0.0199893 0.0320439 0.022034
0.0255589 0.034226 0.0238346
0.0419165 0.0393683 0.0272374
0.0668345 0.0466926 0.0310216
0.0947433 0.0546273 0.0342412
0.125673 0.0607309 0.0344244
0.168856 0.0617838 0.0307469
0.221775 0.0588693 0.0253758
0.278981 0.0558328 0.022797
0.347341 0.0508278 0.0181125
0.418814 0.0488289 0.0161593
0.490684 0.0517739 0.0160678
0.565301 0.0626078 0.019089
0.640711 0.0809033 0.0232548
0.715023 0.110918 0.0324712
0.786328 0.151156 0.0508888
0.85568 0.212497 0.0865339
0.918608 0.293721 0.142214
0.968551 0.382361 0.202121
1 0.473152 0.263432
1 0.558511 0.328786
1 0.633799 0.392584
1 0.697017 0.451606
1 0.748577 0.506355
1 0.790951 0.557992
1 0.826185 0.606806
1 0.854719 0.651209
1 0.876509 0.68307
1 0.89305 0.704082
1 0.907942 0.729976
1 0.922408 0.762921
0.0165408 0.0399481 0.0238346
0.0165713 0.0404974 0.0240482
0.0175021 0.0414282 0.024567
0.0233463 0.0441749 0.0267491
0.0382239 0.0497902 0.0310063
0.0620584 0.0572366 0.0361334
0.0923781 0.0662242 0.0406653
0.125124 0.076173 0.0429389
0.168505 0.0813916 0.0406653
0.221027 0.0814832 0.0350042
0.279774 0.0792096 0.0308537
0.348608 0.0754253 0.0271153
0.425071 0.0724651 0.0224613
0.500053 0.0719158 0.0206455
0.574502 0.0804608 0.0221408
0.649058 0.0988632 0.0255436
0.721782 0.127337 0.0337682
0.792981 0.167788 0.0504463
0.860288 0.227512 0.0863355
0.921614 0.305882 0.142046
0.970306 0.391852 0.20209
1 0.479606 0.263264
1 0.562997 0.32871
1 0.636805 0.392416
1 0.698817 0.451392
1 0.749691 0.506127
1 0.791608 0.557748
1 0.826535 0.606592
1 0.854917 0.651026
1 0.8766 0.682872
1 0.893111 0.703944
1 0.907958 0.729824
1 0.922393 0.762722
0.0133669 0.049485 0.0259556
0.0135958 0.050248 0.0262608
0.0145266 0.0515755 0.0269017
0.0200656 0.0552529 0.0291752
0.0351263 0.0615396 0.0340276
0.0581064 0.0696422 0.040177
0.090547 0.0798047 0.0471656
0.126085 0.0906233 0.0513161
0.172641 0.101091 0.0497444
0.234531 0.106981 0.0443427
0.296803 0.10634 0.0379339
0.360983 0.104891 0.034226
0.437522 0.102373 0.0295109
0.514229 0.103365 0.0272374
0.588617 0.10927 0.0248112
0.66006 0.122438 0.027512
0.730297 0.147616 0.0358434
0.800168 0.187564 0.051194
0.865385 0.244465 0.0852674
0.924697 0.319036 0.141619
0.972045 0.402014 0.201541
1 0.486381 0.263066
1 0.567956 0.328389
1 0.640055 0.39205
1 0.700755 0.451011
1 0.750896 0.505776
1 0.792264 0.557382
1 0.826886 0.606256
1 0.8551 0.650736
1 0.876677 0.682612
1 0.893156 0.703746
1 0.907942 0.729625
1 0.922347 0.762478
0.0111391 0.0614328 0.0289006
0.0117342 0.0626993 0.0294041
0.0124056 0.0648508 0.0300908
0.0166781 0.0692912 0.0321202
0.0303502 0.0766918 0.0365759
0.0519417 0.0855726 0.0432136
0.0843824 0.0968795 0.052079
0.125017 0.109438 0.0597848
0.17229 0.121981 0.0597391
0.239155 0.132113 0.0542916
0.317937 0.139132 0.0473793
0.387488 0.141711 0.0424811
0.460441 0.141817 0.0370336
0.534768 0.144289 0.0335393
0.608743 0.150439 0.0322576
0.677485 0.161273 0.0319371
0.74374 0.180621 0.037995
0.809522 0.214435 0.0512093
0.872312 0.267323 0.0817884
0.92842 0.335546 0.139528
0.974395 0.414878 0.200473
1 0.49572 0.262531
1 0.574411 0.327871
1 0.644205 0.391485
1 0.703365 0.450477
1 0.752483 0.505257
1 0.793118 0.556832
1 0.827344 0.605798
1 0.855329 0.650355
1 0.876783 0.682246
1 0.893202 0.703517
1 0.907958 0.729381
1 0.922301 0.762173
0.0115816 0.0771038 0.0327611
0.0121157 0.0791638 0.033402
0.0129702 0.0825208 0.0345464
0.0142977 0.0877699 0.0359503
0.0246281 0.0954757 0.0395819
0.0427405 0.104585 0.0450446
0.0718395 0.11754 0.0538949
0.114977 0.132509 0.0644694
0.167819 0.147555 0.0702983
0.238025 0.161059 0.0648966
0.324041 0.172091 0.0561227
0.411185 0.180804 0.0484016
0.491661 0.18645 0.0436866
0.563653 0.192599 0.040116
0.633051 0.201129 0.0366369
0.699763 0.21268 0.0355993
0.762905 0.22974 0.0393835
0.822248 0.254231 0.0492866
0.880308 0.297093 0.079118
0.932784 0.357412 0.134066
0.977264 0.431815 0.198917
1 0.507942 0.261784
1 0.582589 0.326955
1 0.649439 0.390707
1 0.7066 0.449775
1 0.754498 0.504601
1 0.794293 0.556161
1 0.82797 0.605203
1 0.85565 0.649866
1 0.876967 0.681804
1 0.893294 0.703227
1 0.907973 0.729091
1 0.922271 0.761837
0.0166934 0.0980087 0.038529
0.0173037 0.10071 0.0391089
0.0183261 0.105272 0.0401617
0.019791 0.112032 0.0415808
0.0214084 0.119738 0.0437629
0.0314031 0.129458 0.0476081
0.0548104 0.143343 0.0541085
0.0928206 0.160708 0.0644083
0.154406 0.179156 0.0748913
0.228443 0.196124 0.07187
0.322347 0.210407 0.0625467
0.418997 0.222705 0.0534066
0.511086 0.233555 0.0471351
0.591623 0.242863 0.0436866
0.661387 0.253498 0.0415961
0.724758 0.267338 0.0403449
0.783719 0.284245 0.042237
0.839261 0.307149 0.0462806
0.890867 0.338277 0.0699474
0.938476 0.387671 0.127275
0.980667 0.452796 0.195651
1 0.523384 0.259815
1 0.592813 0.325658
1 0.656016 0.389456
1 0.710781 0.44889
1 0.757046 0.503716
1 0.795895 0.555291
1 0.82884 0.604501
1 0.856138 0.649271
1 0.877211 0.681254
1 0.893446 0.702846
1 0.908049 0.728756
1 0.922255 0.76144
0.0228122 0.126741 0.0449531
0.0235447 0.13051 0.0455634
0.0248569 0.137453 0.0465248
0.0261387 0.144518 0.0476387
0.0276341 0.152926 0.0491951
0.0293126 0.16289 0.0515297
0.0359655 0.177264 0.0555123
0.0645762 0.196597 0.0627756
0.122713 0.219043 0.0733043
0.209964 0.238682 0.0782483
0.308766 0.255818 0.0649882
0.417914 0.270115 0.0527504
0.517418 0.283543 0.0456397
0.606851 0.296025 0.0426032
0.683085 0.308904 0.0421149
0.748821 0.322393 0.0433051
0.804776 0.340414 0.0444343
0.855741 0.363302 0.0453193
0.903181 0.392493 0.0601968
0.945876 0.431388 0.112764
0.985092 0.481346 0.189609
1 0.54316 0.256535
1 0.606241 0.323522
1 0.664942 0.387778
1 0.716335 0.447761
1 0.760479 0.502541
1 0.79794 0.55436
1 0.830121 0.603677
1 0.856825 0.648585
1 0.877607 0.680568
1 0.893675 0.702419
1 0.908171 0.728389
1 0.922255 0.760998
0.0301976 0.168353 0.0516976
0.0310826 0.17409 0.0521859
0.0321202 0.180957 0.0525368
0.0331731 0.188128 0.053254
0.0344244 0.197055 0.0543221
0.035874 0.207782 0.0561074
0.0378119 0.223056 0.0587778
0.0400549 0.242542 0.0622263
0.0775616 0.266606 0.0683299
0.171771 0.291279 0.0764477
0.285939 0.310231 0.0727398
0.402197 0.326101 0.0525826
0.513436 0.339132 0.0443122
0.610147 0.351873 0.0430915
0.693477 0.36585 0.0437781
0.764309 0.381079 0.0442817
0.822721 0.399985 0.0447242
0.871595 0.423011 0.0449989
0.91429 0.450462 0.0520333
0.954253 0.483848 0.0920424
0.990051 0.52314 0.176501
1 0.570077 0.250935
1 0.623804 0.319997
1 0.676371 0.385718
1 0.723537 0.446433
1 0.765072 0.501137
1 0.800748 0.553231
1 0.831846 0.602686
1 0.857816 0.647822
1 0.878172 0.67982
1 0.89398 0.7019
1 0.908385 0.727993
1 0.922316 0.76054
0.0382544 0.2271 0.0572519
0.0389868 0.233356 0.0576181
0.0396887 0.239734 0.0575265
0.0404669 0.246983 0.0577707
0.0413214 0.255207 0.0581826
0.0423743 0.265949 0.0591897
0.0437781 0.281239 0.0606699
0.0454108 0.300999 0.0621653
0.0470893 0.324071 0.0632334
0.109224 0.35079 0.0662547
0.245014 0.374411 0.0706645
0.375753 0.390356 0.0652628
0.497627 0.402747 0.0518196
0.604608 0.413764 0.0461585
0.695018 0.425727 0.0437476
0.769863 0.441016 0.0437629
0.830549 0.460136 0.0437934
0.881727 0.483665 0.0436866
0.924559 0.510933 0.0489052
0.961654 0.539391 0.0740978
0.994003 0.572412 0.153521
1 0.608255 0.239536
1 0.647456 0.315251
1 0.691066 0.383078
1 0.732845 0.444785
1 0.771084 0.499733
1 0.804578 0.551965
1 0.83415 0.601572
1 0.859236 0.646723
1 0.879057 0.679011
1 0.89453 0.701473
1 0.908705 0.727565
1 0.922438 0.760082
0.0453956 0.300816 0.0614023
0.0459144 0.307759 0.0610971
0.0463111 0.313344 0.0605478
0.0467689 0.320119 0.0602274
0.0472725 0.327565 0.0600137
0.0478676 0.337102 0.060029
0.0487221 0.351247 0.0600748
0.0497292 0.370199 0.059617
0.050782 0.392401 0.0581826
0.0517891 0.417578 0.0547341
0.175128 0.444938 0.0545663
0.33518 0.462333 0.0596933
0.469596 0.472969 0.0594339
0.587716 0.481056 0.0518654
0.686336 0.489845 0.0472877
0.766613 0.502525 0.0449226
0.8309 0.5205 0.0438849
0.884688 0.542687 0.0432441
0.929931 0.568505 0.0446326
0.966247 0.595193 0.0621347
0.996048 0.622477 0.124163
1 0.650385 0.223072
1 0.680156 0.306203
1 0.711131 0.379522
1 0.745632 0.442512
1 0.778943 0.498802
1 0.809842 0.550561
1 0.83714 0.600351
1 0.861036 0.645457
1 0.880293 0.678065
1 0.895293 0.70106
1 0.909224 0.727153
1 0.922652 0.759609
0.0505837 0.387549 0.0607767
0.0507973 0.39237 0.0597696
0.0510262 0.397726 0.0589303
0.0513008 0.404379 0.0580758
0.051545 0.410849 0.0573892
0.0518502 0.418585 0.0565042
0.0522927 0.431067 0.0552682
0.0527962 0.447089 0.0537728
0.0533913 0.467308 0.0504616
0.0539864 0.490288 0.0458076
0.0748455 0.515251 0.0392767
0.267628 0.537636 0.0433051
0.431373 0.547539 0.0550088
0.559335 0.553674 0.0572824
0.668727 0.559197 0.0514992
0.754955 0.567727 0.0478981
0.824094 0.581415 0.0457313
0.882048 0.600076 0.0444648
0.928542 0.621836 0.0436561
0.966476 0.646189 0.0489052
0.995514 0.669154 0.105333
1 0.691341 0.208743
1 0.714534 0.295933
1 0.738125 0.373724
1 0.762737 0.440528
1 0.789441 0.497246
1 0.816388 0.549661
1 0.841245 0.598978
1 0.86334 0.643885
1 0.882017 0.676936
1 0.896391 0.700679
1 0.909972 0.726787
1 0.923018 0.759182
0.0537881 0.479377 0.054612
0.0539101 0.484154 0.0534066
0.0540322 0.488884 0.0522927
0.0541543 0.494072 0.0511635
0.0542763 0.500038 0.0498512
0.0544289 0.506767 0.0485084
0.0545968 0.516258 0.0467079
0.0547799 0.529702 0.04448
0.0549325 0.547234 0.0409552
0.0550088 0.568002 0.0388342
0.0549783 0.590143 0.0387884
0.177127 0.613184 0.0411383
0.371374 0.626642 0.0469215
0.521843 0.629862 0.0559854
0.638834 0.632059 0.0559396
0.736004 0.635325 0.0510262
0.812116 0.642069 0.0474403
0.873228 0.655177 0.0454108
0.923552 0.67158 0.044358
0.962905 0.690318 0.0440528
0.993057 0.710521 0.0839551
1 0.729412 0.196674
1 0.747677 0.288624
1 0.766415 0.367819
1 0.785275 0.436942
1 0.80412 0.495262
1 0.824735 0.548959
1 0.846845 0.598123
1 0.866575 0.642161
1 0.884215 0.675624
1 0.897932 0.700282
1 0.910994 0.726574
1 0.923568 0.758923
0.0550546 0.575998 0.043595
0.0550393 0.579751 0.0422827
0.0550088 0.584344 0.0406653
0.0549783 0.589456 0.0390173
0.0549477 0.594614 0.0387579
0.0549172 0.600534 0.0387274
0.0548714 0.607538 0.0386816
0.0547799 0.61825 0.0386053
0.0546731 0.632013 0.0384833
0.0545205 0.648325 0.0383459
0.0543374 0.667384 0.0381628
0.0653544 0.686961 0.0382391
0.295796 0.703609 0.0400702
0.470909 0.707103 0.0491798
0.60589 0.704707 0.0566567
0.71043 0.701961 0.0557717
0.795483 0.702678 0.0508431
0.862119 0.707454 0.0477302
0.915236 0.716793 0.0458381
0.95758 0.730404 0.045655
0.989013 0.746288 0.0623026
1 0.762936 0.180392
1 0.777951 0.284504
1 0.793622 0.36611
1 0.808637 0.434516
1 0.822904 0.494392
1 0.836896 0.548012
1 0.854414 0.597253
1 0.871427 0.641169
1 0.887037 0.674235
1 0.900023 0.699886
1 0.912383 0.726497
1 0.924407 0.759106
0.0542763 0.672999 0.0381018
0.0542458 0.67689 0.038056
0.0542 0.680888 0.0380255
0.0541695 0.684855 0.0379797
0.0541238 0.689006 0.0379339
0.054078 0.693523 0.0378882
0.0540169 0.699184 0.0378271
0.0539406 0.706661 0.0377661
0.0538491 0.716503 0.0376593
0.053727 0.729656 0.0375525
0.0536202 0.743877 0.0374304
0.0535134 0.759319 0.0373236
0.225422 0.774502 0.0385595
0.419257 0.778027 0.0414893
0.568704 0.77351 0.0531777
0.683345 0.765438 0.0600595
0.772412 0.759197 0.0583505
0.846387 0.757137 0.0527962
0.904631 0.75964 0.0487068
0.950164 0.766964 0.0484627
0.984085 0.778637 0.0539559
1 0.791501 0.156771
1 0.804761 0.27834
1 0.817609 0.366079
1 0.830579 0.436835
1 0.841764 0.495766
1 0.852964 0.548501
1 0.863966 0.596872
1 0.877882 0.640208
1 0.891127 0.673869
1 0.9028 0.699413
1 0.914229 0.726421
1 0.925612 0.759686
0.0534676 0.766506 0.0372778
0.0534524 0.769543 0.0380407
0.0534371 0.772488 0.0390021
0.0534218 0.77554 0.0396735
0.0533913 0.778286 0.0388037
0.0533761 0.780911 0.0380102
0.0533608 0.784863 0.037171
0.0533303 0.790005 0.0373541
0.0532998 0.795987 0.0399786
0.0532845 0.804059 0.0450904
0.0532387 0.813367 0.0462348
0.0532082 0.823438 0.0513466
0.183551 0.832914 0.0557259
0.379553 0.83624 0.059144
0.533364 0.831388 0.0658885
0.654871 0.822095 0.0726177
0.748684 0.811994 0.0723583
0.824689 0.804578 0.0663767
0.889509 0.800534 0.0589151
0.939559 0.801602 0.0555123
0.976928 0.807691 0.0585184
1 0.817472 0.147234
1 0.827939 0.272541
1 0.839002 0.364096
1 0.849821 0.439841
1 0.859571 0.500893
1 0.86833 0.552422
1 0.877028 0.599374
1 0.886061 0.640818
1 0.896147 0.672526
1 0.906355 0.699382
1 0.916899 0.727108
1 0.927214 0.760723
0.0531777 0.845884 0.0736248
0.0531624 0.847868 0.0759136
0.0531624 0.849271 0.0784619
0.0531472 0.850965 0.0805066
0.0531472 0.852735 0.0822461
0.0531472 0.854063 0.084535
0.0531319 0.855985 0.0874952
0.0531319 0.858305 0.0916457
0.0531167 0.861738 0.0969253
0.0531014 0.865705 0.103731
0.0530709 0.870436 0.1122
0.0530251 0.875578 0.120806
0.175967 0.880735 0.12929
0.363043 0.881209 0.133562
0.508644 0.877119 0.135637
0.628656 0.869108 0.133822
0.725628 0.858747 0.124514
0.803128 0.848066 0.108049
0.869001 0.839414 0.0894636
0.924254 0.835187 0.0754406
0.966293 0.83595 0.0823224
0.994827 0.840482 0.16527
1 0.847974 0.277607
1 0.856947 0.365652
1 0.86627 0.441718
1 0.875425 0.507332
1 0.882673 0.560021
1 0.889677 0.605432
1 0.897017 0.644282
1 0.903471 0.675196
1 0.911406 0.701488
1 0.920226 0.729519
1 0.929412 0.76228
0.0527199 0.904418 0.163455
0.0527047 0.905226 0.166186
0.0526894 0.905882 0.16846
0.0526741 0.9066 0.170672
0.0526589 0.907286 0.172869
0.0526589 0.907897 0.17496
0.0526284 0.908629 0.177478
0.0526131 0.909468 0.181125
0.0525826 0.911025 0.185489
0.0525521 0.912398 0.190616
0.0525063 0.914229 0.196902
0.0524453 0.916335 0.204471
0.221622 0.917327 0.21033
0.371023 0.915511 0.213657
0.49929 0.910887 0.21561
0.610895 0.904677 0.216373
0.70547 0.896422 0.213764
0.783276 0.886015 0.207324
0.848432 0.875654 0.194049
0.904677 0.867216 0.186542
0.951217 0.862531 0.194156
0.985229 0.862608 0.229191
1 0.866621 0.300633
1 0.872801 0.374395
1 0.880537 0.445914
1 0.888075 0.511055
1 0.895277 0.569024
1 0.901442 0.615366
1 0.907378 0.65243
1 0.913054 0.68336
1 0.917876 0.706523
1 0.924514 0.732982
1 0.932235 0.765576
0.051606 0.94406 0.258915
0.0515908 0.944259 0.260716
0.0515755 0.94432 0.262135
0.0515602 0.944472 0.2636
0.051545 0.944564 0.26511
0.0515297 0.94464 0.266529
0.0515145 0.944884 0.268238
0.0514992 0.94519 0.270726
0.0514687 0.945388 0.273716
0.0514382 0.945785 0.277348
0.0559243 0.946441 0.281804
0.1682 0.945861 0.286015
0.291814 0.943526 0.289799
0.40177 0.94023 0.292088
0.504921 0.936019 0.295277
0.603922 0.930404 0.300877
0.691814 0.923766 0.306325
0.767086 0.915724 0.311925
0.830228 0.906355 0.314641
0.88484 0.8963 0.313344
0.931991 0.88838 0.313695
0.971191 0.883833 0.320272
0.99617 0.883803 0.343969
1 0.88777 0.396948
1 0.893202 0.455726
1 0.899351 0.516167
1 0.90544 0.573693
1 0.911604 0.625589
1 0.916777 0.665415
1 0.922026 0.697169
1 0.926665 0.720531
1 0.930694 0.743389
1 0.936156 0.772335
0.0500038 0.97026 0.351019
0.0499886 0.970321 0.352255
0.0499733 0.970275 0.353155
0.0499733 0.970199 0.35407
0.049958 0.970062 0.354894
0.049958 0.969955 0.355734
0.0605783 0.969833 0.356725
0.0926375 0.96939 0.357794
0.139376 0.968719 0.359091
0.192462 0.967773 0.360464
0.250568 0.966049 0.361868
0.310475 0.96405 0.363668
0.376806 0.961608 0.365774
0.450416 0.958221 0.368093
0.527214 0.954192 0.370871
0.60708 0.949172 0.375418
0.686091 0.943236 0.381674
0.756451 0.936828 0.389242
0.816739 0.92987 0.395331
0.869184 0.921309 0.399878
0.91429 0.912413 0.402258
0.95346 0.905013 0.404974
0.984909 0.901289 0.413199
1 0.901259 0.431998
1 0.904616 0.475624
1 0.909209 0.526879
1 0.914458 0.580011
1 0.919783 0.630503
1 0.925078 0.676417
1 0.929824 0.712581
1 0.934218 0.740566
1 0.938155 0.763317
1 0.941924 0.786786
0.250736 0.984237 0.430808
0.261006 0.983871 0.43125
0.270329 0.983459 0.431403
0.279103 0.983078 0.431556
0.287816 0.982681 0.431662
0.297017 0.982238 0.4318
0.30898 0.981643 0.431937
0.323598 0.980896 0.432166
0.341009 0.980041 0.432578
0.363439 0.978836 0.433097
0.390478 0.977432 0.433738
0.423224 0.975525 0.434638
0.462608 0.973129 0.435935
0.507317 0.970672 0.437583
0.561334 0.967208 0.439612
0.622782 0.962936 0.442496
0.687755 0.957443 0.447654
0.751019 0.951888 0.454063
0.807797 0.946212 0.460975
0.85745 0.940032 0.467567
0.900435 0.93283 0.471489
0.937728 0.925048 0.474723
0.969558 0.918746 0.479332
0.992935 0.915434 0.487831
1 0.915602 0.505013
1 0.918242 0.543984
1 0.922316 0.589075
1 0.926589 0.63624
1 0.931319 0.680125
1 0.936309 0.721386
1 0.940597 0.756191
1 0.9449 0.784451
1 0.948699 0.809064
0.424735 0.989639 0.495796
0.429572 0.989334 0.49604
0.433783 0.988998 0.496071
0.437919 0.988678 0.496086
0.442039 0.988342 0.496086
0.446403 0.987991 0.496101
0.452064 0.987549 0.496162
0.459632 0.986984 0.496239
0.469459 0.986282 0.496406
0.48127 0.985534 0.496605
0.496727 0.984543 0.496925
0.516365 0.983108 0.497429
0.540734 0.98114 0.498253
0.568856 0.979202 0.499489
0.603952 0.976608 0.501045
0.64773 0.972885 0.503273
0.698634 0.968185 0.506676
0.751736 0.963058 0.511849
0.803372 0.957549 0.518929
0.849348 0.952911 0.525795
0.890379 0.947601 0.531182
0.924987 0.941741 0.535439
0.955474 0.934936 0.539284
0.980926 0.929946 0.544457
0.997116 0.927245 0.552834
1 0.927443 0.568841
1 0.929564 0.603922
1 0.933074 0.64387
1 0.937072 0.685069
1 0.941253 0.723949
1 0.945769 0.761944
1 0.949966 0.795331
1 0.954086 0.824414
0.539879 0.992508 0.554482
0.542657 0.992264 0.55465
0.545068 0.992004 0.554574
0.547448 0.99176 0.554498
0.549828 0.991501 0.554421
0.552331 0.991241 0.55433
0.555535 0.99089 0.554284
0.559838 0.990494 0.554299
0.565438 0.990021 0.55436
0.572717 0.989364 0.554528
0.5823 0.98854 0.554803
0.594598 0.987472 0.55523
0.609644 0.986099 0.55552
0.628794 0.98436 0.556039
0.651774 0.9823 0.557107
0.680812 0.979477 0.558663
0.717357 0.975814 0.56144
0.759167 0.971069 0.565637
0.802548 0.966354 0.57116
0.84448 0.96173 0.577966
0.882445 0.957702 0.584176
0.915312 0.953765 0.589776
0.94432 0.948684 0.593851
0.968765 0.943313 0.597894
0.987396 0.93904 0.603754
0.998199 0.936996 0.611109
1 0.936904 0.625452
1 0.939116 0.656504
1 0.942367 0.691905
1 0.945815 0.728923
1 0.949645 0.763409
1 0.953719 0.797757
1 0.957702 0.829023
0.628641 0.993622 0.607858
0.630289 0.993469 0.607996
0.631632 0.993286 0.607889
0.633005 0.993133 0.607797
0.634394 0.99295 0.607706
0.635813 0.992767 0.607584
0.637736 0.992554 0.607492
0.640345 0.992248 0.607431
0.643702 0.991867 0.607401
0.648066 0.991379 0.607416
0.653925 0.990829 0.607431
0.66157 0.990097 0.607538
0.671382 0.989136 0.607782
0.683528 0.987808 0.60824
0.699031 0.986068 0.60885
0.718517 0.983825 0.609995
0.742596 0.980926 0.611887
0.772946 0.977371 0.615213
0.807797 0.97293 0.619715
0.84303 0.968948 0.625208
0.877501 0.965316 0.631601
0.908217 0.961975 0.637354
0.935378 0.959014 0.642786
0.958724 0.955047 0.646357
0.977829 0.950484 0.649882
0.991211 0.947036 0.655543
0.999542 0.945296 0.662104
1 0.94548 0.675044
1 0.947417 0.702586
1 0.950164 0.73518
1 0.953552 0.768322
1 0.956909 0.799451
1 0.960525 0.829465
0.699641 0.993408 0.656458
0.70071 0.993301 0.656565
0.701534 0.993194 0.656458
0.702312 0.993072 0.656352
0.703136 0.992966 0.656245
0.70396 0.992844 0.656138
0.705013 0.992721 0.656046
0.706447 0.992538 0.655985
0.708415 0.992294 0.65594
0.71107 0.991974 0.65594
0.714595 0.991547 0.65597
0.719509 0.99089 0.656062
0.725963 0.990021 0.656275
0.733761 0.988937 0.656657
0.743496 0.987732 0.657145
0.755978 0.986236 0.657679
0.772457 0.984131 0.65922
0.792508 0.981414 0.661402
0.817472 0.978134 0.664881
0.845747 0.974655 0.669429
0.875105 0.971222 0.674434
0.90399 0.968093 0.680003
0.929198 0.965972 0.686122
0.950835 0.963561 0.690517
0.969512 0.960235 0.693858
0.984192 0.956573 0.697032
0.993713 0.954116 0.702251
0.999756 0.952789 0.708507
1 0.953094 0.719585
1 0.954635 0.745693
1 0.957076 0.774975
1 0.959976 0.804318
1 0.963149 0.831022
0.75613 0.992126 0.702724
0.756756 0.99205 0.702754
0.757198 0.991974 0.702632
0.757641 0.991882 0.702495
0.758068 0.991806 0.702358
0.758526 0.99173 0.702235
0.759136 0.991638 0.702083
0.760006 0.991516 0.701961
0.761212 0.991348 0.701839
