Swiniec_LUT_red.cube
TITLE "Generated by Resolve"
LUT_3D_SIZE 33
0.0585641 0.0173037 0.0296788
0.0585641 0.0173037 0.0296788
0.0600595 0.0175784 0.0300908
0.062974 0.0188754 0.032517
0.0764172 0.0201267 0.0327001
0.102388 0.0224765 0.0321965
0.129137 0.0238651 0.0300298
0.165118 0.0199435 0.0234073
0.210346 0.0132448 0.0148623
0.252857 0.00653086 0.00839246
0.298375 0.00015259 0.00102235
0.343496 0 0
0.390524 0 0
0.443 0 0
0.504112 0 0
0.570489 0 0
0.640558 0.0112764 0.00151064
0.709926 0.0388037 0.0156558
0.779171 0.085481 0.0437629
0.846387 0.157107 0.0893721
0.905394 0.247684 0.143511
0.954604 0.342138 0.203387
0.989746 0.434226 0.267979
1 0.519997 0.332326
1 0.594858 0.393622
1 0.65771 0.451118
1 0.71104 0.505104
1 0.756222 0.556115
1 0.793347 0.602838
1 0.821912 0.637201
0.99942 0.843671 0.660014
0.998383 0.863371 0.688136
0.996719 0.882704 0.72459
0.0585641 0.0173037 0.0296788
0.0585641 0.0173037 0.0296788
0.0601663 0.0178073 0.0305333
0.0644846 0.0190585 0.0326543
0.080293 0.0205386 0.0327001
0.105882 0.0228275 0.0320592
0.131868 0.0239719 0.0296788
0.166949 0.0201114 0.0233158
0.210666 0.0138399 0.0151675
0.251637 0.00799573 0.00933852
0.29575 0.0018616 0.00216678
0.340963 0 0
0.389349 0 0
0.445396 0 0
0.508736 0 0
0.577295 0.0027924 0
0.64744 0.0198672 0.00294499
0.716472 0.0494392 0.0174563
0.785168 0.0977035 0.0445258
0.850996 0.169574 0.0906386
0.90811 0.256626 0.145022
0.956497 0.349035 0.20473
0.990417 0.439582 0.269093
1 0.523568 0.333181
1 0.597284 0.394247
1 0.659358 0.451545
1 0.712077 0.505409
1 0.756878 0.556329
1 0.793805 0.603006
1 0.822187 0.637217
0.999405 0.843839 0.660029
0.998352 0.863508 0.688228
0.996719 0.882795 0.724651
0.059205 0.0184329 0.0316014
0.0594034 0.018555 0.0318151
0.0599069 0.0187381 0.0321965
0.065095 0.0194247 0.0328069
0.0815442 0.0210117 0.0328222
0.105653 0.0232853 0.0322728
0.129961 0.0247654 0.0303807
0.162264 0.0218662 0.0246738
0.203845 0.0170291 0.0175631
0.243702 0.0119783 0.0118715
0.288838 0.00683604 0.00595102
0.336614 0.0021973 0.000915541
0.390143 0 0
0.450324 0 0
0.51545 0.00151064 0
0.584512 0.0120699 0
0.65388 0.0302281 0.00483711
0.722408 0.0603647 0.0184634
0.790448 0.109392 0.0444495
0.854994 0.181277 0.0917372
0.910567 0.2654 0.146075
0.957916 0.35552 0.205509
0.990738 0.444495 0.269612
1 0.52697 0.333715
1 0.599542 0.394522
1 0.660914 0.451713
1 0.713069 0.505531
1 0.757504 0.55639
1 0.794202 0.603052
1 0.822446 0.637171
0.999405 0.843992 0.659983
0.998352 0.863615 0.688228
0.996719 0.882841 0.72462
0.0575723 0.0209659 0.0331884
0.0574197 0.0211795 0.0332341
0.0577249 0.0214237 0.0333562
0.061738 0.0221103 0.0339208
0.074052 0.0236057 0.0344396
0.0935073 0.0258793 0.0344701
0.11603 0.0286259 0.0340429
0.141955 0.0303349 0.0314488
0.179324 0.0282292 0.0255741
0.225406 0.0231632 0.0182803
0.274769 0.0180819 0.0128328
0.333059 0.0114595 0.0062562
0.39408 0.00700389 0.00128176
0.456672 0.00607309 0
0.523125 0.0108949 0
0.591608 0.0217594 0.000656138
0.660655 0.0425574 0.00665293
0.728359 0.0728466 0.0185092
0.795499 0.122591 0.0445869
0.858808 0.192996 0.090959
0.912947 0.274525 0.146395
0.959121 0.362234 0.205814
0.991135 0.449439 0.269978
1 0.530465 0.333974
1 0.60177 0.394598
1 0.662379 0.451713
1 0.71397 0.505455
1 0.758053 0.556329
1 0.794522 0.602991
1 0.822629 0.637034
0.999405 0.844099 0.659892
0.998352 0.863645 0.688151
0.996719 0.882841 0.724483
0.0537575 0.0259709 0.0340887
0.0536965 0.0262608 0.0341802
0.0542763 0.0267033 0.0343938
0.0584573 0.0277714 0.0352178
0.0695506 0.0298314 0.0366064
0.0881514 0.032517 0.0379034
0.112688 0.0360113 0.0383917
0.139956 0.0403754 0.0372015
0.177493 0.0413062 0.0323796
0.223606 0.0384985 0.0251011
0.274937 0.0340124 0.0191653
0.334493 0.0283818 0.0132601
0.400549 0.0232395 0.00747692
0.466148 0.0199893 0.0031281
0.53228 0.0236973 0.00213626
0.599802 0.0352636 0.00321965
0.66714 0.0554665 0.00794995
0.734646 0.0864881 0.018143
0.799939 0.135515 0.0443885
0.862074 0.204044 0.0909895
0.915145 0.283528 0.146685
0.960174 0.368673 0.205921
0.991485 0.454109 0.270161
1 0.533745 0.334035
1 0.60383 0.394522
1 0.663676 0.451575
1 0.714748 0.505272
1 0.758495 0.55613
1 0.794766 0.602823
1 0.822736 0.636835
0.999405 0.84416 0.659739
0.998352 0.863661 0.687999
0.996735 0.882811 0.724269
0.0497749 0.0315557 0.0348058
0.0498207 0.0319677 0.0349279
0.0503548 0.0326543 0.0351873
0.0541695 0.0343938 0.0360418
0.0653849 0.0370642 0.0379339
0.0832685 0.0404822 0.0402228
0.109575 0.0449073 0.0425879
0.13933 0.0500343 0.0428016
0.179522 0.0547799 0.0382544
0.233951 0.0560159 0.0307469
0.288716 0.052903 0.0233921
0.344701 0.0494545 0.018265
0.411536 0.0449226 0.0126955
0.47921 0.043061 0.00877394
0.54548 0.0452735 0.005066
0.610132 0.0534829 0.00531014
0.67509 0.0717021 0.00981155
0.741344 0.102937 0.0188296
0.804868 0.150256 0.0435187
0.865522 0.216098 0.090837
0.917372 0.293202 0.146517
0.961364 0.375418 0.206012
0.991882 0.459281 0.270161
1 0.537301 0.333913
1 0.606027 0.394293
1 0.665095 0.451301
1 0.715541 0.504936
1 0.758923 0.55581
1 0.794995 0.602533
1 0.822843 0.636545
0.999405 0.844205 0.659541
0.998352 0.863645 0.687785
0.996735 0.882765 0.723995
0.0461891 0.0386816 0.0357671
0.046479 0.0393988 0.0359655
0.0466926 0.04065 0.0361791
0.0494392 0.0430762 0.0369268
0.0594339 0.0467994 0.0386358
0.0761273 0.0511635 0.0415198
0.102373 0.0567636 0.0455177
0.136553 0.0632181 0.0483711
0.177462 0.0699016 0.0450599
0.236439 0.0745098 0.0372625
0.305715 0.0769818 0.0289769
0.366629 0.0768444 0.0233463
0.43093 0.074815 0.0174411
0.497032 0.0746014 0.0135805
0.563333 0.0775311 0.0106661
0.625849 0.0845045 0.00881972
0.687327 0.0986954 0.0115511
0.749981 0.125612 0.0190433
0.811704 0.170336 0.0407874
0.869764 0.231312 0.0893568
0.920363 0.305516 0.145998
0.963439 0.384771 0.205905
0.992264 0.466056 0.270039
1 0.541848 0.333669
1 0.608988 0.393957
1 0.666941 0.450904
1 0.716564 0.504448
1 0.759457 0.555367
1 0.795285 0.602152
1 0.822965 0.636194
0.999405 0.844266 0.659297
0.998352 0.863661 0.687526
0.99675 0.882689 0.723659
0.0435798 0.0483253 0.0369268
0.0437171 0.0495918 0.0371557
0.0439307 0.051667 0.0375982
0.0442817 0.0549477 0.037995
0.0523232 0.0593271 0.0393225
0.0661326 0.0644541 0.0416724
0.0893263 0.0718853 0.0459297
0.125475 0.0804456 0.0510414
0.171328 0.0892195 0.0522621
0.233478 0.0968032 0.0443427
0.309377 0.102724 0.0343633
0.385885 0.107439 0.0263218
0.457237 0.110063 0.0209659
0.521599 0.113359 0.0174716
0.584207 0.118837 0.0133059
0.645365 0.127016 0.0110628
0.704585 0.140047 0.0123598
0.761791 0.159869 0.0181735
0.819806 0.196918 0.03888
0.874891 0.251606 0.0851148
0.924102 0.321843 0.145174
0.965789 0.397086 0.205707
0.99237 0.474662 0.269673
1 0.547585 0.333288
1 0.61268 0.3935
1 0.669306 0.450385
1 0.717983 0.503853
1 0.760235 0.554803
1 0.795666 0.601663
1 0.823178 0.635737
0.99939 0.844373 0.658991
0.998352 0.863676 0.687221
0.996765 0.882643 0.723293
0.0448615 0.0615244 0.0387427
0.0450141 0.0632944 0.0388495
0.0452735 0.0663157 0.0391394
0.0456245 0.0708324 0.0394446
0.0460059 0.0760662 0.0402686
0.0538033 0.0823682 0.0418097
0.0719615 0.0913405 0.0446632
0.103212 0.102602 0.0498665
0.156619 0.114199 0.0545663
0.222416 0.124895 0.0484474
0.30576 0.13373 0.0378882
0.390921 0.141711 0.0287327
0.472847 0.148852 0.0224002
0.545266 0.155123 0.018677
0.60882 0.162921 0.0159762
0.667659 0.173709 0.0138857
0.723857 0.187366 0.0141604
0.778347 0.206653 0.0162051
0.831037 0.234318 0.0325017
0.881727 0.279973 0.0800183
0.928573 0.342245 0.142962
0.967926 0.412741 0.204562
0.992706 0.485466 0.269078
1 0.554818 0.332555
1 0.617441 0.39292
1 0.672312 0.449683
1 0.719905 0.50309
1 0.761288 0.554162
1 0.796262 0.601068
1 0.823499 0.635172
0.999374 0.844556 0.65861
0.998337 0.863752 0.686854
0.996796 0.882612 0.72285
0.0463264 0.0809186 0.0404364
0.0464942 0.0835431 0.0405127
0.0467842 0.0884565 0.040528
0.0470741 0.0935073 0.0406653
0.0473945 0.0995956 0.0410468
0.0477302 0.106905 0.041886
0.0525368 0.117403 0.043473
0.0751202 0.13135 0.0467842
0.124743 0.147051 0.0517586
0.202701 0.160052 0.0518807
0.291127 0.171633 0.0382239
0.387823 0.181582 0.0267948
0.476692 0.191318 0.0205539
0.557702 0.200839 0.0171206
0.627924 0.211139 0.0157473
0.690044 0.222217 0.0157778
0.744472 0.237644 0.0159609
0.795605 0.257877 0.0162509
0.844907 0.284627 0.0264286
0.890913 0.321569 0.0687572
0.934462 0.370321 0.13846
0.970459 0.432959 0.202472
0.993423 0.499763 0.267903
1 0.564691 0.331594
1 0.623804 0.392218
1 0.676356 0.448737
1 0.722377 0.502281
1 0.762844 0.553384
1 0.797101 0.600412
1 0.823987 0.634485
0.999374 0.844846 0.658152
0.998322 0.863905 0.686473
0.996811 0.882612 0.722377
0.0478981 0.110964 0.0415045
0.0480659 0.115267 0.0413672
0.048249 0.120439 0.0410163
0.0484321 0.125887 0.04094
0.0486458 0.132738 0.0409857
0.0488746 0.141054 0.0414893
0.049134 0.153002 0.0423285
0.0493935 0.168475 0.0435187
0.0806897 0.18703 0.0458991
0.164279 0.204837 0.048661
0.267735 0.218051 0.0424353
0.371527 0.229816 0.0256504
0.471534 0.239841 0.0187991
0.559853 0.250294 0.0170443
0.637461 0.262333 0.0169833
0.705455 0.275731 0.016968
0.763333 0.292729 0.0170138
0.813169 0.313848 0.0171054
0.857954 0.339696 0.0222324
0.901442 0.372457 0.0528267
0.941466 0.412131 0.127977
0.973617 0.460792 0.198642
0.994049 0.518593 0.265721
1 0.577386 0.330419
1 0.63209 0.391424
1 0.681788 0.447669
1 0.72575 0.50132
1 0.764965 0.552483
1 0.798337 0.599664
1 0.824689 0.633722
0.999374 0.845243 0.657633
0.998306 0.864179 0.686061
0.996796 0.882673 0.721889
0.0491798 0.156207 0.0408331
0.0492561 0.161166 0.0406195
0.0493172 0.166247 0.0400702
0.0493935 0.172045 0.0397345
0.0494545 0.178653 0.0394446
0.0495155 0.18735 0.0394751
0.0495613 0.199802 0.0395819
0.049546 0.216052 0.0394598
0.049424 0.235218 0.03888
0.103456 0.256611 0.038941
0.227359 0.274083 0.0390784
0.345876 0.28661 0.0334325
0.456077 0.297017 0.023743
0.554543 0.306828 0.0192569
0.63946 0.317906 0.0174868
0.711879 0.332082 0.0174105
0.772488 0.349966 0.017319
0.825162 0.37232 0.0172122
0.870481 0.398917 0.021149
0.911116 0.427771 0.0398413
0.948043 0.462409 0.109148
0.976745 0.500908 0.190173
0.99411 0.544259 0.262821
1 0.593851 0.328923
1 0.642847 0.390448
1 0.688945 0.446677
1 0.730404 0.500282
1 0.767803 0.551476
1 0.800107 0.598611
1 0.825788 0.632944
0.999359 0.845914 0.657206
0.99826 0.864591 0.685618
0.996796 0.882826 0.721401
0.0495308 0.2159 0.03888
0.0495003 0.221637 0.0382239
0.0494698 0.226291 0.0374609
0.0494087 0.231922 0.0368048
0.0493477 0.238132 0.0362097
0.0492561 0.246128 0.0356909
0.0490883 0.25803 0.0349126
0.0488136 0.274098 0.0335393
0.0483864 0.29308 0.0312963
0.047776 0.314839 0.027512
0.159274 0.337392 0.0253147
0.307088 0.351843 0.0276493
0.429786 0.362158 0.0277562
0.53904 0.370214 0.0234836
0.631785 0.379034 0.0203861
0.709606 0.39147 0.0188449
0.774105 0.409018 0.0181735
0.829892 0.43093 0.0178683
0.878218 0.456947 0.0192416
0.918441 0.484886 0.0322728
0.952865 0.514687 0.0851148
0.978485 0.54612 0.17731
0.993896 0.58027 0.256458
1 0.616587 0.326879
1 0.65771 0.389059
1 0.698314 0.44625
1 0.736797 0.499184
1 0.771511 0.550408
1 0.802335 0.597421
1 0.827344 0.631998
0.999344 0.846891 0.656825
0.998199 0.865232 0.685191
0.99678 0.883116 0.720897
0.0485237 0.28893 0.0334783
0.0484169 0.293065 0.0324712
0.0482795 0.297673 0.0315557
0.048127 0.303426 0.0305791
0.0479744 0.30901 0.0297551
0.047776 0.31574 0.0287175
0.0474403 0.326619 0.0271916
0.0469673 0.340719 0.0250248
0.0462806 0.358618 0.0217746
0.0453651 0.379126 0.0176547
0.0630655 0.401679 0.0117952
0.242237 0.421927 0.0142367
0.393561 0.432883 0.0234531
0.512474 0.44033 0.0259709
0.615579 0.446921 0.0233768
0.69926 0.456153 0.0213474
0.768856 0.470268 0.020264
0.829252 0.489525 0.019791
0.879164 0.512291 0.0197299
0.921157 0.538521 0.0238956
0.955001 0.564813 0.0707256
0.979507 0.59115 0.166339
0.992981 0.618891 0.248966
1 0.647578 0.323064
1 0.677806 0.38819
1 0.710918 0.445335
1 0.744793 0.49865
1 0.776593 0.549249
1 0.805219 0.595911
1 0.829511 0.630915
0.999329 0.848295 0.656474
0.998093 0.866178 0.684855
0.996735 0.883558 0.720439
0.0459907 0.369451 0.0239414
0.0458076 0.373739 0.022858
0.0456092 0.377981 0.0218662
0.0453956 0.38265 0.0208591
0.0451514 0.388037 0.0197604
0.0448463 0.39411 0.0187228
0.0444495 0.402716 0.0171359
0.0438544 0.415 0.0146487
0.0430457 0.431174 0.0112917
0.0420844 0.450553 0.00874342
0.041062 0.471473 0.00770581
0.154376 0.494194 0.00978103
0.336828 0.50927 0.0156252
0.477195 0.515511 0.0238651
0.587854 0.520058 0.0256962
0.682078 0.525063 0.0235447
0.758633 0.532998 0.0220493
0.822354 0.547402 0.0214389
0.876417 0.565454 0.0212711
0.919738 0.586358 0.0216068
0.954589 0.610254 0.0540932
0.979004 0.634012 0.157137
0.992309 0.656947 0.243992
0.998993 0.680644 0.319112
1 0.704616 0.386038
1 0.728634 0.444205
1 0.755047 0.49839
1 0.783536 0.548653
1 0.809247 0.594308
1 0.832288 0.629664
0.999283 0.850248 0.656123
0.997971 0.867491 0.684657
0.996658 0.884276 0.72018
0.041825 0.458137 0.0118257
0.0416266 0.461677 0.0107271
0.0413672 0.465995 0.00933852
0.0410925 0.470832 0.00790417
0.0408484 0.475715 0.00749218
0.0405432 0.481376 0.00720226
0.0401923 0.488075 0.0068513
0.0396582 0.498344 0.00630198
0.0389258 0.511604 0.00556954
0.0380407 0.527443 0.00468452
0.0369573 0.546075 0.00360113
0.0466011 0.56556 0.00289921
0.264363 0.585336 0.00717174
0.428489 0.593576 0.0171206
0.556817 0.595026 0.0254063
0.658228 0.59498 0.026978
0.743618 0.597589 0.0248569
0.812985 0.603983 0.0233158
0.869886 0.615137 0.0227512
0.916259 0.631113 0.0236973
0.951812 0.650294 0.0373541
0.976959 0.672465 0.143557
0.990463 0.692439 0.241657
0.996796 0.713039 0.318883
1 0.732799 0.384909
1 0.751598 0.444343
1 0.770062 0.49807
1 0.793011 0.548165
1 0.815351 0.593515
0.999954 0.835828 0.628351
0.999222 0.852934 0.655818
0.997772 0.869276 0.684657
0.996536 0.885359 0.720424
0.0366217 0.551598 0.00326543
0.0363928 0.555444 0.00303655
0.0361639 0.55938 0.00280766
0.0359197 0.563302 0.00256352
0.0356603 0.567407 0.00231937
0.0353857 0.571908 0.00204471
0.0350347 0.577539 0.00169375
0.0345769 0.585 0.00122072
0.0339513 0.594873 0.000595102
0.0330816 0.608148 0
0.0321355 0.622599 0
0.0310674 0.638407 0
0.194415 0.657588 0.00161746
0.37818 0.667247 0.00840772
0.520867 0.668223 0.0208743
0.632349 0.663813 0.0294652
0.72163 0.659754 0.030396
0.798337 0.659312 0.0276493
0.860487 0.663417 0.0256199
0.910185 0.672892 0.0263371
0.947997 0.687495 0.0314488
0.97496 0.705653 0.12282
0.988632 0.724361 0.23711
0.995651 0.742107 0.319966
0.998886 0.759701 0.38822
1 0.774899 0.446586
1 0.790082 0.499306
1 0.80499 0.548226
1 0.823499 0.592844
0.999603 0.841031 0.628153
0.999039 0.856489 0.655451
0.997528 0.871656 0.684657
0.996338 0.886915 0.721111
0.0305638 0.645808 0
0.0303655 0.648951 0
0.0301823 0.652018 0
0.029984 0.655192 0
0.0297551 0.65803 0
0.0295567 0.660746 0
0.0292515 0.664836 0
0.0288701 0.670207 0
0.0284886 0.676524 0
0.0280156 0.68513 0.000244144
0.0273594 0.695018 0.000595102
0.0267491 0.705867 0.00292973
0.15111 0.719692 0.00944533
0.339284 0.730327 0.0174411
0.486397 0.732036 0.0281682
0.604685 0.727275 0.0381933
0.698604 0.719646 0.0411688
0.777173 0.713664 0.0383612
0.846067 0.71075 0.0337987
0.900404 0.713375 0.0321965
0.941756 0.721813 0.035584
0.970916 0.736492 0.11487
0.98616 0.752331 0.232578
0.993362 0.768261 0.318944
0.99733 0.783597 0.391974
0.998978 0.797223 0.45243
0.999969 0.809461 0.503899
0.999847 0.8215 0.551324
1 0.833906 0.593866
0.999512 0.847425 0.627008
0.998688 0.861036 0.655589
0.997162 0.875074 0.685527
0.996109 0.888991 0.722332
0.0254826 0.730373 0.018265
0.0253605 0.732555 0.0199435
0.0252842 0.734112 0.0218967
0.0251926 0.735988 0.0234379
0.0250706 0.737926 0.0247196
0.0249943 0.739406 0.0265049
0.0248875 0.741543 0.028809
0.0247654 0.744137 0.032105
0.024567 0.747951 0.036286
0.0243381 0.752377 0.0418097
0.0240635 0.757671 0.0487678
0.0237278 0.763439 0.0559243
0.142 0.773587 0.0673686
0.323171 0.782101 0.0780346
0.462867 0.785138 0.0863813
0.579782 0.7823 0.0902266
0.676555 0.774884 0.0859388
0.756298 0.765301 0.0739452
0.825925 0.757076 0.0594949
0.885557 0.753597 0.0488746
0.931975 0.756146 0.0559548
0.965545 0.764675 0.132204
0.983719 0.777005 0.23798
0.991775 0.790539 0.32105
0.995468 0.80415 0.394446
0.997787 0.817304 0.459449
0.998642 0.827756 0.512078
0.998886 0.83769 0.557992
0.99939 0.847944 0.59791
0.998962 0.856855 0.630137
0.998047 0.867552 0.658045
0.997116 0.879423 0.688273
0.995789 0.891859 0.724117
0.0217136 0.795972 0.0920577
0.0216678 0.796918 0.0944991
0.0216373 0.797681 0.0965286
0.0215915 0.79852 0.0985122
0.0215457 0.799313 0.100465
0.0215152 0.800015 0.102342
0.0214694 0.80087 0.104601
0.0214389 0.801862 0.107897
0.0213321 0.803662 0.111803
0.0212558 0.805264 0.116442
0.021149 0.807401 0.122118
0.0210117 0.809873 0.128969
0.18584 0.818204 0.141115
0.330663 0.823911 0.150896
0.454337 0.826169 0.159167
0.563455 0.825635 0.165576
0.657908 0.821256 0.167788
0.738033 0.812589 0.165133
0.806928 0.80267 0.155108
0.86772 0.794507 0.149889
0.918944 0.790768 0.15845
0.957351 0.793057 0.192401
0.979599 0.80058 0.260029
0.98999 0.810513 0.329809
0.993973 0.822187 0.399084
0.996445 0.833371 0.463615
0.997299 0.843946 0.521584
0.99826 0.852934 0.568566
0.998474 0.861372 0.606744
0.997848 0.869307 0.639078
0.997238 0.875959 0.663676
0.996963 0.885039 0.692195
0.995514 0.895567 0.727871
0.0188296 0.842191 0.177447
0.0188296 0.842451 0.17911
0.0188296 0.842542 0.180423
0.0188144 0.842725 0.181765
0.0188144 0.842878 0.183169
0.0188144 0.842969 0.184466
0.0187991 0.843275 0.186038
0.0187839 0.843671 0.188327
0.0187839 0.843931 0.191073
0.0187686 0.844434 0.194415
0.0236973 0.845457 0.198703
0.132555 0.850278 0.207752
0.254429 0.85388 0.216861
0.360586 0.85684 0.22475
0.460716 0.85861 0.23331
0.557946 0.858534 0.243946
0.646006 0.856291 0.253666
0.72369 0.850965 0.262501
0.790661 0.842741 0.267674
0.849714 0.832776 0.268421
0.901396 0.82501 0.270329
0.944823 0.821225 0.27779
0.973144 0.822934 0.300954
0.986831 0.829847 0.351629
0.992844 0.838437 0.409155
0.995392 0.847822 0.469108
0.996597 0.857023 0.526665
0.997314 0.866163 0.579385
0.997192 0.873686 0.620554
0.997147 0.881132 0.653986
0.996872 0.887587 0.678981
0.995895 0.893187 0.7037
0.995605 0.900786 0.7355
0.0167239 0.874006 0.261173
0.0167239 0.874098 0.262333
0.0167239 0.874067 0.263172
0.0167391 0.873991 0.264027
0.0167544 0.873838 0.26479
0.0167697 0.873716 0.265583
0.0274357 0.874174 0.267094
0.0580453 0.875486 0.269795
0.103883 0.877119 0.273274
0.15668 0.878721 0.277012
0.214328 0.879866 0.281147
0.272999 0.881148 0.285954
0.337224 0.882704 0.291646
0.40853 0.883787 0.298054
0.483696 0.884291 0.305074
0.562509 0.883909 0.313939
0.641886 0.882155 0.324224
0.714595 0.878828 0.334981
0.778576 0.873732 0.343511
0.835401 0.865782 0.34992
0.884825 0.856794 0.353811
0.928054 0.849363 0.357763
0.963088 0.846372 0.366888
0.982162 0.847654 0.385855
0.990326 0.853346 0.429084
0.993515 0.860609 0.480034
0.995697 0.868711 0.533349
0.996185 0.876753 0.58471
0.996551 0.884611 0.632349
0.996155 0.891478 0.670634
0.995834 0.897688 0.700832
0.995819 0.903227 0.725734
0.995636 0.908537 0.751736
0.215 0.903304 0.345556
0.225147 0.903517 0.346532
0.234348 0.903624 0.347204
0.242954 0.903716 0.347845
0.251499 0.903792 0.348455
0.260502 0.903883 0.349111
0.27219 0.903975 0.34995
0.286427 0.904067 0.351019
0.303349 0.90425 0.352453
0.325093 0.904402 0.354314
0.351278 0.904646 0.356588
0.383078 0.904753 0.359472
0.421439 0.904707 0.363134
0.465324 0.904967 0.367437
0.518486 0.904723 0.372702
0.579492 0.904005 0.379217
0.645106 0.901884 0.388006
0.710582 0.899229 0.397681
0.770871 0.895674 0.407233
0.82472 0.890776 0.415915
0.871885 0.883925 0.421469
0.913039 0.875959 0.426001
0.948333 0.869612 0.431662
0.974456 0.866758 0.440925
0.987198 0.868009 0.458396
0.991821 0.872557 0.497337
0.994461 0.878996 0.542748
0.995315 0.885649 0.59086
0.995377 0.892714 0.636469
0.995636 0.900038 0.680339
0.99588 0.906279 0.718105
0.995193 0.912337 0.74931
0.994995 0.917693 0.776898
0.385428 0.923873 0.419257
0.390143 0.923873 0.419821
0.394247 0.923766 0.420111
0.398276 0.923674 0.420401
0.402289 0.923568 0.420661
0.406546 0.923476 0.420935
0.412085 0.923354 0.421363
0.419486 0.923217 0.421927
0.429129 0.923095 0.422705
0.440757 0.923049 0.423636
0.45594 0.922988 0.424918
0.475257 0.922713 0.426657
0.49926 0.922133 0.429007
0.527062 0.921874 0.431983
0.561913 0.921324 0.435721
0.605798 0.919982 0.440589
0.657603 0.917784 0.446921
0.712795 0.915007 0.454917
0.767697 0.911406 0.464515
0.817594 0.908324 0.473442
0.862684 0.903899 0.480522
0.900969 0.898329 0.486107
0.934752 0.891249 0.491035
0.963043 0.886275 0.497124
0.981186 0.883848 0.506081
0.989075 0.884886 0.522423
0.993118 0.88864 0.557977
0.993988 0.894133 0.598917
0.994904 0.900252 0.641901
0.995483 0.906508 0.68333
0.995331 0.913069 0.724636
0.995331 0.919127 0.761669
0.994736 0.924956 0.794461
0.499489 0.937819 0.484703
0.502235 0.937743 0.485039
0.504616 0.937606 0.48513
0.506966 0.937469 0.485191
0.5093 0.937331 0.485283
0.511772 0.937194 0.485359
0.514946 0.937011 0.485512
0.519219 0.936858 0.485801
0.524742 0.936675 0.486229
0.53196 0.936431 0.486854
0.541466 0.936141 0.487739
0.553704 0.935775 0.488945
0.568704 0.935195 0.490196
0.5879 0.934493 0.491905
0.611048 0.933639 0.494392
0.640558 0.93225 0.497704
0.678187 0.930266 0.502571
0.72195 0.927138 0.50901
0.7682 0.923995 0.516762
0.813718 0.920729 0.525551
0.855497 0.91783 0.533471
0.891936 0.914687 0.540505
0.924147 0.909804 0.545754
0.951308 0.904265 0.550744
0.972045 0.89987 0.557351
0.984176 0.897993 0.565209
0.990982 0.898543 0.580102
0.993301 0.90222 0.612207
0.994217 0.90724 0.649317
0.994629 0.91249 0.688853
0.99527 0.918166 0.726452
0.995209 0.924071 0.764569
0.994781 0.929747 0.799893
0.588846 0.947601 0.544076
0.590494 0.947524 0.54432
0.591852 0.947417 0.544305
0.593225 0.947311 0.544289
0.594629 0.947188 0.544289
0.596048 0.947066 0.544259
0.597986 0.946929 0.544289
0.60061 0.946746 0.544366
0.603983 0.946532 0.544549
0.608408 0.946227 0.544839
0.614313 0.945968 0.545235
0.62208 0.945617 0.545815
0.632044 0.945159 0.546654
0.644465 0.944366 0.54786
0.66038 0.943297 0.549386
0.680537 0.941848 0.551659
0.705669 0.939849 0.554925
0.737758 0.937407 0.55993
0.775082 0.934005 0.566247
0.813397 0.931121 0.573526
0.851331 0.928588 0.581628
0.88542 0.926116 0.588876
0.915694 0.923903 0.595621
0.94168 0.920119 0.600244
0.96289 0.915312 0.604578
0.977813 0.911711 0.610895
0.987167 0.910048 0.618006
0.991058 0.91078 0.631647
0.992844 0.913954 0.660761
0.994339 0.918257 0.695796
0.994751 0.923308 0.732021
0.995163 0.928252 0.766644
0.994537 0.933425 0.800549
0.662089 0.953933 0.598291
0.663172 0.953887 0.598459
0.664027 0.953796 0.598398
0.664836 0.953704 0.598337
0.665675 0.953628 0.598276
0.666529 0.953536 0.598215
0.667613 0.953429 0.598169
0.669093 0.953307 0.598184
0.671122 0.95314 0.59826
0.673884 0.952911 0.598413
0.677531 0.952636 0.598657
0.682628 0.952132 0.599039
0.689342 0.951492 0.599634
0.69749 0.950652 0.600458
0.707683 0.949783 0.601511
0.720836 0.94873 0.602731
0.738293 0.947158 0.605219
0.759716 0.945006 0.608499
0.786648 0.942412 0.613352
0.817487 0.939727 0.619425
0.849805 0.937102 0.625986
0.881834 0.934829 0.633112
0.909987 0.933608 0.640665
0.934157 0.931792 0.64622
0.954971 0.928573 0.650507
0.971283 0.924697 0.654398
0.981888 0.922133 0.660258
0.988708 0.920851 0.66714
0.992081 0.92166 0.679118
0.993729 0.924269 0.707362
0.994644 0.928023 0.739513
0.99469 0.932311 0.772229
0.993957 0.936858 0.802441
0.721996 0.957382 0.650019
0.722667 0.957321 0.650111
0.723125 0.957244 0.649989
0.723583 0.957168 0.649866
0.724041 0.957092 0.64976
0.724514 0.957015 0.649638
0.72517 0.956939 0.649516
0.726085 0.956832 0.649424
0.727352 0.956695 0.649363
