Swiniec_LUT_1.cube
TITLE "Generated by Resolve"
LUT_3D_SIZE 9
0.0191348 0.0237125 0.0157015
0.0437476 0.0332799 0.0243992
0.203601 0.0415503 0.0192721
0.417487 0.0235904 0.00823987
0.695293 0.0694438 0.0289464
0.962325 0.353826 0.199924
1 0.690929 0.451057
1 0.853788 0.651102
1 0.922301 0.763027
0.0165408 0.0399481 0.0238346
0.0382239 0.0497902 0.0310063
0.168505 0.0813916 0.0406653
0.425071 0.0724651 0.0224613
0.721782 0.127337 0.0337682
0.970306 0.391852 0.20209
1 0.698817 0.451392
1 0.854917 0.651026
1 0.922393 0.762722
0.0166934 0.0980087 0.038529
0.0214084 0.119738 0.0437629
0.154406 0.179156 0.0748913
0.511086 0.233555 0.0471351
0.783719 0.284245 0.042237
0.980667 0.452796 0.195651
1 0.710781 0.44889
1 0.856138 0.649271
1 0.922255 0.76144
0.0453956 0.300816 0.0614023
0.0472725 0.327565 0.0600137
0.050782 0.392401 0.0581826
0.469596 0.472969 0.0594339
0.8309 0.5205 0.0438849
0.996048 0.622477 0.124163
1 0.745632 0.442512
1 0.861036 0.645457
1 0.922652 0.759609
0.0542763 0.672999 0.0381018
0.0541238 0.689006 0.0379339
0.0538491 0.716503 0.0376593
0.225422 0.774502 0.0385595
0.772412 0.759197 0.0583505
0.984085 0.778637 0.0539559
1 0.830579 0.436835
1 0.877882 0.640208
1 0.925612 0.759686
0.051606 0.94406 0.258915
0.051545 0.944564 0.26511
0.0514687 0.945388 0.273716
0.291814 0.943526 0.289799
0.691814 0.923766 0.306325
0.931991 0.88838 0.313695
1 0.893202 0.455726
1 0.916777 0.665415
1 0.936156 0.772335
0.539879 0.992508 0.554482
0.549828 0.991501 0.554421
0.565438 0.990021 0.55436
0.609644 0.986099 0.55552
0.717357 0.975814 0.56144
0.882445 0.957702 0.584176
0.987396 0.93904 0.603754
1 0.942367 0.691905
1 0.957702 0.829023
0.804852 0.989822 0.74432
0.805875 0.989609 0.743999
0.80763 0.989258 0.743526
0.814237 0.988266 0.743252
0.834379 0.985443 0.744656
0.885725 0.978607 0.751736
0.958709 0.972244 0.769039
0.996017 0.96527 0.783276
1 0.96817 0.841199
0.934386 0.982513 0.870024
0.934279 0.982498 0.869718
0.934173 0.982483 0.869322
0.934798 0.982376 0.869032
0.937316 0.982071 0.869017
0.944671 0.981689 0.869917
0.962173 0.980774 0.873976
0.985046 0.979446 0.88069
0.996002 0.977676 0.888884
0.0227512 0.0293584 0.0339361
0.0360723 0.0336919 0.038407
0.215549 0.0431678 0.0425727
0.458732 0.0234684 0.0319066
0.699092 0.0591897 0.0568704
0.962905 0.347875 0.227619
1 0.690761 0.463004
1 0.853712 0.654093
1 0.922362 0.764477
0.0199893 0.0376745 0.0345464
0.0376135 0.0446632 0.0414282
0.183993 0.0699321 0.048661
0.440299 0.054551 0.0330358
0.719081 0.107958 0.057435
0.970062 0.384634 0.230015
1 0.698131 0.463035
1 0.854704 0.653864
1 0.922393 0.764065
0.0169833 0.0982071 0.0492256
0.0209506 0.116594 0.0523842
0.163165 0.172793 0.084596
0.506172 0.224018 0.0619211
0.77583 0.269673 0.0611734
0.979232 0.446296 0.225437
1 0.70988 0.460029
1 0.855833 0.652018
1 0.922225 0.762692
0.0450446 0.295003 0.0690166
0.0467231 0.318105 0.0663767
0.0502937 0.379629 0.0664836
0.460838 0.465202 0.0652171
0.829435 0.522286 0.0448157
0.993774 0.621546 0.180316
1 0.74464 0.452949
1 0.860685 0.648188
1 0.922606 0.76083
0.0543221 0.668864 0.0382239
0.0541695 0.684642 0.0379797
0.0538949 0.712276 0.037705
0.212879 0.771603 0.0386053
0.770565 0.759487 0.0608377
0.982223 0.781155 0.0961318
1 0.831067 0.448951
1 0.877684 0.642847
1 0.925521 0.760662
0.051606 0.943816 0.257954
0.0515602 0.94435 0.264134
0.0514839 0.945159 0.272801
0.287999 0.94342 0.289143
0.691157 0.923629 0.305623
0.932021 0.888167 0.31284
1 0.893675 0.466026
1 0.916838 0.667704
1 0.936095 0.773114
0.53901 0.992554 0.55436
0.548928 0.991547 0.554253
0.564584 0.990051 0.554147
0.608881 0.98613 0.555306
0.716838 0.97583 0.561181
0.882292 0.957687 0.583917
0.987396 0.938979 0.603494
1 0.942489 0.693935
1 0.957717 0.829511
0.804654 0.989837 0.744228
0.805676 0.989639 0.743893
0.807401 0.989288 0.743404
0.814008 0.988296 0.743114
0.834165 0.985458 0.744503
0.885573 0.978607 0.751568
0.958663 0.972229 0.768887
0.996002 0.965255 0.783123
1 0.968185 0.841459
0.93431 0.982513 0.869947
0.934203 0.982513 0.869657
0.934096 0.982498 0.869261
0.934707 0.982391 0.86894
0.937224 0.982071 0.868925
0.944595 0.981689 0.869795
0.962127 0.980774 0.873869
0.985031 0.979431 0.880598
0.996002 0.977661 0.888808
0.024567 0.0405127 0.103975
0.0342107 0.0434119 0.108568
0.195377 0.0666972 0.144671
0.477043 0.0281682 0.156283
0.718791 0.0509957 0.167041
0.96463 0.339651 0.278233
1 0.689372 0.480659
1 0.853361 0.659037
1 0.922347 0.766476
0.0231937 0.0458686 0.109224
0.0380713 0.0500954 0.114275
0.20734 0.0735027 0.147494
0.495216 0.0466773 0.160281
0.736156 0.0897231 0.173251
0.970871 0.374044 0.282124
1 0.696193 0.480629
1 0.854154 0.658488
1 0.922332 0.766003
0.0237125 0.122042 0.136995
0.0266728 0.137469 0.144533
0.152636 0.17409 0.170001
0.492622 0.204074 0.166461
0.772457 0.243198 0.185794
0.97818 0.435401 0.280476
1 0.70782 0.477577
1 0.855222 0.656367
1 0.922118 0.76463
0.0471809 0.306813 0.160616
0.0487831 0.331502 0.15555
0.0518959 0.389471 0.159045
0.460319 0.469673 0.176379
0.82829 0.52639 0.165728
0.98967 0.619669 0.259785
1 0.742641 0.470665
1 0.859998 0.652491
1 0.922484 0.762798
0.0546883 0.661204 0.0761273
0.0545052 0.675639 0.0734722
0.0542153 0.702296 0.0727092
0.148699 0.762463 0.0856641
0.761959 0.762554 0.0917525
0.9785 0.783963 0.220569
1 0.831724 0.468147
1 0.877043 0.647166
1 0.925338 0.762264
0.051606 0.943099 0.262211
0.051545 0.943603 0.268513
0.0514687 0.944381 0.277852
0.273075 0.943114 0.295628
0.687343 0.923537 0.317342
0.929808 0.888975 0.337026
1 0.894423 0.483742
1 0.916915 0.671122
1 0.935973 0.774304
0.537377 0.99263 0.554025
0.547295 0.991638 0.553903
0.563058 0.990097 0.55378
0.607569 0.986175 0.55491
0.715984 0.975845 0.560723
0.882063 0.957641 0.583474
0.987396 0.938918 0.603037
1 0.942687 0.697368
1 0.957748 0.830213
0.804318 0.989868 0.744045
0.805325 0.989654 0.743709
0.80705 0.989319 0.743191
0.813657 0.988312 0.742885
0.833844 0.985473 0.744244
0.885328 0.978607 0.751324
0.958587 0.972213 0.768658
0.996002 0.965225 0.782895
1 0.968185 0.841856
0.934203 0.982528 0.869856
0.934066 0.982513 0.869551
0.933959 0.982498 0.869154
0.934569 0.982391 0.868818
0.937102 0.982071 0.868803
0.944503 0.981689 0.869657
0.962036 0.980758 0.873747
0.984985 0.979431 0.880476
0.996017 0.977646 0.888716
0.0264591 0.058732 0.259312
0.0353704 0.0617227 0.262791
0.150256 0.0818494 0.282521
0.439551 0.0393683 0.318517
0.715465 0.0418402 0.371283
0.977768 0.339269 0.455833
1 0.685252 0.531853
1 0.851835 0.672648
1 0.922103 0.771618
0.0250706 0.0640574 0.270832
0.0369573 0.0682078 0.273335
0.164416 0.0886702 0.295033
0.454307 0.0482032 0.328542
0.737118 0.0668498 0.38558
0.982925 0.370153 0.46099
1 0.691264 0.531777
1 0.852461 0.672007
1 0.922026 0.771099
0.0281071 0.132143 0.308095
0.0299687 0.14197 0.328695
0.158434 0.162829 0.354025
0.517021 0.159457 0.386969
0.78323 0.166827 0.414298
0.988571 0.422415 0.463905
1 0.701656 0.528817
1 0.853346 0.669871
1 0.921767 0.76968
0.0505684 0.328435 0.38265
0.0516518 0.346868 0.386236
0.0538338 0.391897 0.405905
0.429984 0.474968 0.442954
0.806912 0.506752 0.42652
0.98085 0.60531 0.457206
1 0.73579 0.520653
1 0.858 0.665232
1 0.922103 0.768002
0.0560616 0.632792 0.31812
0.0557412 0.654398 0.31545
0.0551614 0.691142 0.31603
0.054078 0.754665 0.348333
0.741604 0.765835 0.408621
0.967498 0.792432 0.432105
1 0.832792 0.5196
1 0.874937 0.659144
1 0.92491 0.7673
0.0512398 0.941085 0.318669
0.0511788 0.941238 0.324941
0.0510872 0.941695 0.334508
0.14551 0.940734 0.357031
0.657298 0.922011 0.384009
0.919707 0.89247 0.427863
1 0.897337 0.534356
1 0.917342 0.681605
1 0.935699 0.777783
0.527504 0.993225 0.558816
0.537408 0.992218 0.558694
0.553658 0.990585 0.558343
0.599344 0.986572 0.559792
0.709712 0.976043 0.565911
0.879911 0.957565 0.590463
0.986282 0.939452 0.615122
1 0.943297 0.707729
1 0.957855 0.832181
0.80354 0.98996 0.74374
0.804562 0.989746 0.743374
0.806287 0.989395 0.742855
0.812909 0.988388 0.742519
0.833158 0.98555 0.743832
0.884855 0.978637 0.750942
0.95845 0.972183 0.768307
0.995987 0.965179 0.782559
1 0.968215 0.843366
0.934005 0.982544 0.869734
0.933867 0.982528 0.869413
0.933761 0.982498 0.869017
0.934356 0.982422 0.868666
0.936919 0.982086 0.86865
0.94435 0.981689 0.869505
0.961929 0.980758 0.873594
0.98497 0.979416 0.880354
0.996017 0.97763 0.888609
0.0392615 0.147982 0.517647
0.043473 0.15378 0.526436
0.109834 0.173526 0.542367
0.449012 0.193225 0.548012
0.692714 0.0962539 0.554177
0.963409 0.362051 0.666773
1 0.682597 0.684001
1 0.84683 0.71429
1 0.921447 0.786786
0.039826 0.154589 0.527855
0.0454108 0.159869 0.535515
0.120317 0.179217 0.548699
0.457038 0.195911 0.552529
0.697643 0.104616 0.558816
0.969818 0.385779 0.673411
1 0.687953 0.684886
1 0.847257 0.713893
1 0.921263 0.786267
0.0388342 0.173205 0.536431
0.0443122 0.180743 0.54696
0.12314 0.200824 0.560021
0.474784 0.223484 0.566278
0.721645 0.164218 0.575296
0.978759 0.423056 0.679805
1 0.695949 0.683497
1 0.84773 0.711925
1 0.920851 0.784848
0.051957 0.336324 0.577585
0.0529641 0.354971 0.590021
0.0544137 0.387396 0.61091
0.459602 0.440146 0.64239
0.806745 0.442924 0.656046
0.996674 0.551781 0.689921
1 0.725597 0.677165
1 0.852293 0.707088
1 0.921172 0.782956
0.0565957 0.570123 0.576852
0.0563821 0.586313 0.582177
0.0558175 0.620829 0.59469
0.0533761 0.727016 0.633768
0.70988 0.766659 0.664561
0.942779 0.781811 0.64802
1 0.826215 0.658869
1 0.869398 0.698146
1 0.924025 0.78172
0.049546 0.924163 0.543053
0.0493629 0.928527 0.54696
0.049073 0.93492 0.554421
0.0485084 0.943618 0.578744
0.579293 0.920058 0.609155
0.900664 0.899229 0.637354
1 0.904555 0.656901
1 0.918379 0.710109
1 0.934966 0.788708
0.462821 0.99765 0.612589
0.475151 0.996506 0.612512
0.493965 0.994705 0.612284
0.547311 0.989746 0.612741
0.669947 0.977478 0.615427
0.863828 0.957427 0.636576
0.980835 0.942138 0.666072
1 0.945251 0.736965
1 0.958358 0.839155
0.799756 0.990463 0.746761
0.800763 0.99025 0.74638
0.802472 0.989899 0.745846
0.80911 0.988815 0.745602
0.829587 0.985916 0.74638
0.882155 0.978927 0.753552
0.957488 0.972107 0.772381
0.995499 0.965484 0.789044
1 0.968597 0.848661
0.933623 0.982574 0.869535
0.933486 0.982559 0.8692
0.933379 0.982544 0.868788
0.933944 0.982437 0.868452
0.936553 0.982101 0.868406
0.944106 0.981689 0.869261
0.961746 0.980743 0.873365
0.984909 0.979431 0.880156
0.996033 0.977615 0.888457
0.0549477 0.38349 0.743267
0.0551003 0.387671 0.745968
0.0626078 0.406043 0.759945
0.407538 0.451164 0.783902
0.747066 0.448646 0.773297
0.911528 0.428031 0.800748
1 0.675319 0.843153
1 0.846418 0.824842
1 0.92018 0.826673
0.0552224 0.393118 0.749477
0.0553445 0.395819 0.751324
0.0637369 0.413428 0.764691
0.415412 0.45623 0.786694
0.748913 0.452415 0.775433
0.91194 0.430686 0.802106
1 0.679469 0.843809
1 0.846906 0.825238
1 0.919936 0.826413
0.0553597 0.397116 0.752056
0.0556954 0.399939 0.754284
0.0681621 0.417502 0.767468
0.422614 0.457954 0.787198
0.749386 0.452827 0.775692
0.911711 0.432273 0.802029
1 0.685557 0.84329
1 0.847318 0.824613
1 0.919463 0.825345
0.0558785 0.416403 0.752194
0.0561074 0.425208 0.758282
0.0592355 0.444739 0.771435
0.422507 0.484932 0.791318
0.759976 0.491112 0.78497
0.92578 0.493782 0.809277
1 0.709316 0.840757
1 0.850416 0.822385
1 0.919478 0.823514
0.0567178 0.557351 0.759655
0.0565347 0.572122 0.766079
0.0561074 0.599329 0.777432
0.0542458 0.679057 0.805356
0.72163 0.725368 0.823331
0.945586 0.730709 0.828794
1 0.790829 0.83093
1 0.864088 0.816663
1 0.922179 0.821256
0.0503548 0.828672 0.765774
0.0501106 0.836637 0.770657
0.0497292 0.849622 0.77847
0.048661 0.881483 0.801175
0.483742 0.9149 0.818662
0.87837 0.901534 0.814878
0.987945 0.904753 0.802228
1 0.916823 0.803494
1 0.93283 0.821241
0.245228 1 0.798901
0.267994 1 0.798398
0.305379 1 0.797726
0.404318 0.9991 0.797086
0.589059 0.986114 0.796048
0.821515 0.962112 0.79173
0.967788 0.950118 0.799542
1 0.951019 0.811246
1 0.959106 0.855344
0.774655 0.993881 0.788876
0.775814 0.993652 0.788251
0.777691 0.993301 0.787457
0.784939 0.992187 0.786435
0.806592 0.988876 0.785016
0.861601 0.981277 0.786053
0.949569 0.972625 0.80119
0.993194 0.967071 0.819944
0.999451 0.969802 0.863401
0.931991 0.982864 0.87042
0.931868 0.982834 0.870069
0.931731 0.982818 0.869642
0.932311 0.982712 0.869291
0.935103 0.982361 0.869245
0.942824 0.981781 0.870146
0.960739 0.980819 0.874311
0.984649 0.979431 0.881575
0.995712 0.977768 0.890318
0.30544 0.66836 0.883284
0.311513 0.672099 0.884535
0.31722 0.675105 0.885542
0.463676 0.695674 0.892012
0.700923 0.716258 0.887953
0.904295 0.68957 0.8851
1 0.680308 0.910475
1 0.834501 0.907469
1 0.929747 0.901701
0.320623 0.677455 0.886305
0.323964 0.679393 0.886946
0.328389 0.680995 0.887495
0.470024 0.699855 0.893217
0.702708 0.718791 0.888838
0.90425 0.691661 0.885649
0.999695 0.680797 0.910689
1 0.834592 0.907607
1 0.929488 0.901762
0.327413 0.681407 0.887602
0.328969 0.682338 0.887907
0.335561 0.683513 0.888334
0.474159 0.701305 0.893599
0.703029 0.719173 0.888975
0.903487 0.691875 0.885588
0.998932 0.679759 0.91046
1 0.834699 0.907347
1 0.928923 0.901457
0.328481 0.682033 0.887816
0.328893 0.682292 0.887892
0.351461 0.685206 0.889052
0.486183 0.701823 0.893645
0.705242 0.717922 0.888304
0.9028 0.690211 0.885023
0.998169 0.679744 0.909636
1 0.837858 0.906615
1 0.928527 0.900664
0.249165 0.698528 0.886534
0.283177 0.703136 0.888029
0.340093 0.710094 0.889982
0.474845 0.726284 0.89398
0.70399 0.740871 0.890684
0.907012 0.724987 0.888472
0.999435 0.728496 0.905043
1 0.85272 0.904921
1 0.929259 0.899123
0.050782 0.801892 0.89958
0.0506447 0.80676 0.901396
0.0503853 0.815274 0.904448
0.0495918 0.840101 0.912566
0.508309 0.874937 0.910216
0.870237 0.882383 0.901518
0.987396 0.881865 0.900526
1 0.900999 0.899855
1 0.934676 0.895155
0.044007 0.972183 0.928725
0.043946 0.973159 0.929168
0.0438697 0.974319 0.929915
0.133272 0.976089 0.930617
0.45275 0.972839 0.923247
0.779675 0.962905 0.904936
0.955184 0.953597 0.895201
0.993225 0.954528 0.891585
0.999054 0.957336 0.889494
0.708965 1 0.901427
0.710506 1 0.900954
0.712963 1 0.900328
0.723583 0.999725 0.899016
0.756283 0.996216 0.896056
0.827726 0.987869 0.889418
0.928603 0.97586 0.881361
0.986358 0.971633 0.887739
0.997223 0.972595 0.895506
0.920592 0.984955 0.88658
0.920455 0.984955 0.886259
0.920333 0.984924 0.885863
0.920943 0.984817 0.885466
0.923751 0.984482 0.885115
0.932906 0.98349 0.884901
0.95285 0.981933 0.887022
0.980972 0.979767 0.892119
0.994842 0.978164 0.899535
0.663813 0.871702 0.940459
0.667399 0.873228 0.940978
0.670253 0.874434 0.94139
0.673426 0.875486 0.941695
0.750744 0.878233 0.940917
0.882124 0.867979 0.93959
0.977508 0.835386 0.940139
1 0.821851 0.951995
1 0.926085 0.938323
0.672633 0.875471 0.941726
0.674556 0.876295 0.942
0.675837 0.876844 0.942199
0.677821 0.877302 0.942336
0.752941 0.879545 0.94139
0.882399 0.86894 0.939941
0.977234 0.836149 0.940322
1 0.821775 0.952056
1 0.925551 0.938415
0.676493 0.877119 0.94229
0.677348 0.877485 0.942428
0.677745 0.877653 0.942489
0.679561 0.877806 0.942489
0.753185 0.879698 0.941451
0.881636 0.86894 0.939941
0.976654 0.836072 0.940154
1 0.82092 0.951858
1 0.924712 0.938338
0.677211 0.877424 0.942397
0.677394 0.877516 0.942428
0.677165 0.877409 0.942397
0.681392 0.877424 0.942245
0.753658 0.878996 0.941192
0.880552 0.868132 0.93962
0.975891 0.835309 0.939696
1 0.81944 0.951446
1 0.924163 0.938079
0.675517 0.876692 0.942138
0.675181 0.876554 0.942107
0.674449 0.876234 0.942
0.688396 0.876432 0.941497
0.758282 0.877455 0.940612
0.880522 0.866346 0.938964
0.97525 0.833677 0.938994
1 0.821225 0.950271
1 0.925139 0.937499
0.643244 0.886046 0.944152
0.64863 0.886275 0.943877
0.657069 0.88661 0.943435
0.684092 0.887617 0.942245
0.75436 0.889387 0.940764
0.88011 0.881621 0.940719
0.975113 0.859449 0.93933
1 0.855283 0.945312
1 0.932372 0.935927
0.405646 0.946822 0.973831
0.412451 0.946914 0.973297
0.426856 0.947158 0.972305
0.467826 0.948013 0.970138
0.572885 0.950332 0.963439
0.767147 0.950912 0.949355
0.952209 0.945953 0.934386
0.994537 0.944869 0.935225
0.997559 0.954742 0.931334
0.59498 1 0.961715
0.597513 1 0.96144
0.601678 1 0.961013
0.616648 1 0.959701
0.658778 1 0.956207
0.760861 0.99234 0.947555
0.910262 0.978393 0.932784
0.981643 0.973434 0.928985
0.99472 0.974227 0.928328
0.895506 0.990784 0.929061
0.895308 0.990768 0.928908
0.895094 0.990753 0.92874
0.895628 0.990662 0.92842
0.899046 0.99025 0.927672
0.910658 0.988724 0.926329
0.935714 0.985473 0.923919
0.972869 0.981094 0.923552
0.992264 0.979858 0.926436
0.871519 0.947829 0.966018
0.872831 0.948287 0.966033
0.873884 0.948669 0.966064
0.874723 0.948959 0.966079
0.876677 0.949096 0.966033
0.916625 0.94548 0.964782
0.967636 0.932784 0.964981
0.999176 0.909239 0.9664
1 0.919371 0.95996
0.874769 0.948989 0.966094
0.875486 0.949233 0.96611
0.875929 0.949386 0.96611
0.876249 0.949493 0.96611
0.877623 0.949477 0.966033
0.916762 0.945785 0.964782
0.967376 0.933059 0.964996
0.999069 0.909468 0.966445
1 0.919005 0.960052
0.876127 0.949447 0.96611
0.876402 0.949554 0.96611
0.876524 0.949599 0.96611
0.87657 0.949599 0.966125
0.877684 0.949508 0.966049
0.916289 0.945785 0.964782
0.966888 0.933059 0.964981
0.998901 0.909239 0.966491
1 0.91812 0.960189
0.876356 0.949538 0.96611
0.876387 0.949538 0.966125
0.87628 0.949508 0.96611
0.876127 0.949447 0.96611
0.87744 0.949248 0.966018
0.915602 0.945495 0.964767
0.966232 0.932799 0.964935
0.998734 0.908675 0.966537
1 0.916869 0.960357
0.875776 0.94934 0.96611
0.875639 0.949279 0.96611
0.875334 0.949187 0.96611
0.874968 0.94905 0.966094
0.877913 0.948684 0.965896
0.915434 0.944869 0.964736
0.965621 0.932235 0.964858
0.998596 0.907744 0.966552
1 0.915236 0.960632
0.874342 0.948837 0.966079
0.874037 0.948714 0.966064
0.873549 0.948547 0.966064
0.873045 0.948363 0.966049
0.881559 0.947601 0.965606
0.917525 0.943725 0.964584
0.965774 0.931136 0.964767
0.998535 0.906355 0.966461
1 0.916487 0.95996
0.849653 0.95491 0.96556
0.850156 0.954757 0.96553
0.851453 0.954589 0.965454
0.856397 0.954284 0.965225
0.871824 0.953521 0.964599
0.908858 0.950912 0.962936
0.961181 0.940627 0.961715
0.997024 0.92398 0.962783
1 0.935042 0.954192
0.71133 0.993393 0.970367
0.711894 0.993255 0.970306
0.713161 0.993042 0.970199
0.719631 0.992447 0.969711
0.739422 0.990982 0.967803
0.792935 0.987015 0.962753
0.895903 0.97818 0.952758
0.981277 0.971283 0.945113
0.995926 0.972015 0.943999
0.855085 0.997497 0.952926
0.854856 0.997482 0.952895
0.854643 0.997467 0.952865
0.855756 0.997269 0.952712
0.860868 0.996536 0.952148
0.876249 0.99469 0.950668
0.914336 0.989609 0.947326
0.96492 0.983078 0.943847
0.990372 0.981018 0.94168
