Swiniec_LUT_1.cube
TITLE "Generated by Resolve"
LUT_3D_SIZE 5
0.0191348 0.0237125 0.0157015
0.203601 0.0415503 0.0192721
0.695293 0.0694438 0.0289464
1 0.690929 0.451057
1 0.922301 0.763027
0.0166934 0.0980087 0.038529
0.154406 0.179156 0.0748913
0.783719 0.284245 0.042237
1 0.710781 0.44889
1 0.922255 0.76144
0.0542763 0.672999 0.0381018
0.0538491 0.716503 0.0376593
0.772412 0.759197 0.0583505
1 0.830579 0.436835
1 0.925612 0.759686
0.539879 0.992508 0.554482
0.565438 0.990021 0.55436
0.717357 0.975814 0.56144
0.987396 0.93904 0.603754
1 0.957702 0.829023
0.934386 0.982513 0.870024
0.934173 0.982483 0.869322
0.937316 0.982071 0.869017
0.962173 0.980774 0.873976
0.996002 0.977676 0.888884
0.024567 0.0405127 0.103975
0.195377 0.0666972 0.144671
0.718791 0.0509957 0.167041
1 0.689372 0.480659
1 0.922347 0.766476
0.0237125 0.122042 0.136995
0.152636 0.17409 0.170001
0.772457 0.243198 0.185794
1 0.70782 0.477577
1 0.922118 0.76463
0.0546883 0.661204 0.0761273
0.0542153 0.702296 0.0727092
0.761959 0.762554 0.0917525
1 0.831724 0.468147
1 0.925338 0.762264
0.537377 0.99263 0.554025
0.563058 0.990097 0.55378
0.715984 0.975845 0.560723
0.987396 0.938918 0.603037
1 0.957748 0.830213
0.934203 0.982528 0.869856
0.933959 0.982498 0.869154
0.937102 0.982071 0.868803
0.962036 0.980758 0.873747
0.996017 0.977646 0.888716
0.0392615 0.147982 0.517647
0.109834 0.173526 0.542367
0.692714 0.0962539 0.554177
1 0.682597 0.684001
1 0.921447 0.786786
0.0388342 0.173205 0.536431
0.12314 0.200824 0.560021
0.721645 0.164218 0.575296
1 0.695949 0.683497
1 0.920851 0.784848
0.0565957 0.570123 0.576852
0.0558175 0.620829 0.59469
0.70988 0.766659 0.664561
1 0.826215 0.658869
1 0.924025 0.78172
0.462821 0.99765 0.612589
0.493965 0.994705 0.612284
0.669947 0.977478 0.615427
0.980835 0.942138 0.666072
1 0.958358 0.839155
0.933623 0.982574 0.869535
0.933379 0.982544 0.868788
0.936553 0.982101 0.868406
0.961746 0.980743 0.873365
0.996033 0.977615 0.888457
0.30544 0.66836 0.883284
0.31722 0.675105 0.885542
0.700923 0.716258 0.887953
1 0.680308 0.910475
1 0.929747 0.901701
0.327413 0.681407 0.887602
0.335561 0.683513 0.888334
0.703029 0.719173 0.888975
0.998932 0.679759 0.91046
1 0.928923 0.901457
0.249165 0.698528 0.886534
0.340093 0.710094 0.889982
0.70399 0.740871 0.890684
0.999435 0.728496 0.905043
1 0.929259 0.899123
0.044007 0.972183 0.928725
0.0438697 0.974319 0.929915
0.45275 0.972839 0.923247
0.955184 0.953597 0.895201
0.999054 0.957336 0.889494
0.920592 0.984955 0.88658
0.920333 0.984924 0.885863
0.923751 0.984482 0.885115
0.95285 0.981933 0.887022
0.994842 0.978164 0.899535
0.871519 0.947829 0.966018
0.873884 0.948669 0.966064
0.876677 0.949096 0.966033
0.967636 0.932784 0.964981
1 0.919371 0.95996
0.876127 0.949447 0.96611
0.876524 0.949599 0.96611
0.877684 0.949508 0.966049
0.966888 0.933059 0.964981
1 0.91812 0.960189
0.875776 0.94934 0.96611
0.875334 0.949187 0.96611
0.877913 0.948684 0.965896
0.965621 0.932235 0.964858
1 0.915236 0.960632
0.849653 0.95491 0.96556
0.851453 0.954589 0.965454
0.871824 0.953521 0.964599
0.961181 0.940627 0.961715
1 0.935042 0.954192
0.855085 0.997497 0.952926
0.854643 0.997467 0.952865
0.860868 0.996536 0.952148
0.914336 0.989609 0.947326
0.990372 0.981018 0.94168
