Swiniec_LUT_-1.cube
TITLE "Generated by Resolve"
LUT_3D_SIZE 33
0.016968 0.0219883 0.0132143
0.016968 0.0219883 0.0132143
0.0187381 0.022446 0.0137331
0.0219577 0.0243992 0.0167391
0.038056 0.0265812 0.0168612
0.0686961 0.0306554 0.016022
0.0999619 0.0333715 0.0131685
0.142855 0.0290837 0.00584421
0.196674 0.0213626 0
0.247318 0.0134127 0
0.301366 0.0059968 0
0.353491 0 0
0.406348 0 0
0.464073 0 0
0.529885 0.000228885 0
0.59826 0.0110323 0
0.667018 0.0317235 0
0.733654 0.0670329 0.00143435
0.798962 0.12282 0.0320745
0.862013 0.203906 0.0827039
0.918349 0.30222 0.142931
0.966934 0.401419 0.210147
1 0.495842 0.282399
1 0.582132 0.35346
1 0.656367 0.419883
1 0.718059 0.481102
1 0.76997 0.538018
1 0.813672 0.591272
1 0.849409 0.639567
1 0.876799 0.674983
1 0.897597 0.698619
1 0.916411 0.72726
1 0.934829 0.763897
0.016968 0.0219883 0.0132143
0.016968 0.0219883 0.0132143
0.0187991 0.0227665 0.0142672
0.0237583 0.0247044 0.016907
0.042649 0.0272984 0.0168307
0.072755 0.0312352 0.0158083
0.103151 0.0336004 0.012726
0.144915 0.0293736 0.00570687
0.196857 0.0222019 0
0.245274 0.0154574 0
0.297719 0.00830091 0
0.349783 0.00294499 0
0.40415 0.000213626 0
0.465553 0.00120546 0
0.53286 0.00729381 0
0.60267 0.0191653 0
0.671992 0.0427558 0
0.738628 0.0799115 0.00144961
0.803815 0.136934 0.031342
0.865965 0.217685 0.0833143
0.920851 0.311742 0.144411
0.968826 0.408576 0.211627
1 0.501274 0.28368
1 0.585687 0.354467
1 0.658763 0.4206
1 0.719676 0.481605
1 0.770977 0.538384
1 0.814313 0.591501
1 0.849836 0.63975
1 0.877073 0.675029
1 0.89778 0.698634
1 0.916533 0.727367
1 0.934905 0.763958
0.0174258 0.0236515 0.0155489
0.0176242 0.0238499 0.0157931
0.018204 0.0241245 0.0162661
0.0244144 0.0252537 0.0169985
0.0440375 0.0280003 0.0168765
0.0723735 0.0318914 0.0159457
0.10071 0.034638 0.0134279
0.13904 0.031632 0.00697337
0.188083 0.0263523 0
0.234806 0.0207675 0
0.287358 0.0152285 0
0.342657 0.0103304 0
0.402838 0.00796521 0
0.468437 0.00959792 0
0.537026 0.0155642 0
0.607233 0.0314336 0
0.676417 0.0557412 0
0.74313 0.0929885 0.000534066
0.808133 0.150332 0.0297398
0.869429 0.230518 0.0838636
0.923156 0.32108 0.145388
0.97026 0.41529 0.212497
1 0.506264 0.284321
1 0.58909 0.355108
1 0.661006 0.420981
1 0.721202 0.481849
1 0.771954 0.538552
1 0.814908 0.591608
1 0.850233 0.639811
1 0.877317 0.674998
1 0.897917 0.698604
1 0.91664 0.727367
1 0.934951 0.763928
0.0146792 0.0272984 0.0168917
0.0144503 0.0276036 0.0168917
0.0147707 0.0279545 0.0169985
0.0195468 0.0290532 0.0176547
0.0342718 0.0314641 0.0181888
0.0572366 0.0351568 0.0180056
0.0834516 0.0395209 0.0171664
0.113497 0.0425116 0.0136873
0.157183 0.0407416 0.00675975
0.21091 0.0353552 0
0.26775 0.0300908 0
0.3346 0.0231479 0
0.40322 0.0191653 0
0.471748 0.0198978 0
0.541833 0.0282292 0
0.612207 0.0438849 0
0.681178 0.0709239 0
0.747631 0.10779 0
0.812177 0.165347 0.0283665
0.87277 0.243366 0.0821851
0.925383 0.330739 0.145525
0.971481 0.422248 0.212818
1 0.511269 0.28481
1 0.592584 0.355489
1 0.663203 0.421149
1 0.722622 0.48191
1 0.772824 0.538521
1 0.815442 0.591577
1 0.850538 0.639765
1 0.877485 0.674861
1 0.898009 0.698528
1 0.916655 0.727306
1 0.934951 0.76379
0.0087129 0.0343481 0.0166934
0.00857557 0.0347753 0.0167544
0.00918593 0.0354009 0.0169375
0.0141604 0.0369726 0.0178836
0.0274052 0.0400702 0.019501
0.049424 0.0441444 0.0210117
0.0780346 0.0493935 0.0213779
0.109285 0.055787 0.0193637
0.15256 0.0578622 0.0132448
0.205615 0.0553902 0.00448615
0.264179 0.0509651 0
0.331563 0.0453498 0
0.405447 0.0406653 0
0.477745 0.0383612 0
0.548196 0.0448157 0
0.617975 0.0608072 0
0.685863 0.0865492 0
0.752575 0.123796 0
0.815732 0.179934 0.0267491
0.875624 0.25539 0.0816052
0.927443 0.340276 0.145647
0.972549 0.428885 0.212955
1 0.516014 0.285069
1 0.59585 0.355657
1 0.665232 0.421134
1 0.723888 0.481819
1 0.773571 0.538354
1 0.815869 0.591409
1 0.850767 0.639612
1 0.877592 0.674678
1 0.89807 0.69839
1 0.916671 0.727138
1 0.93492 0.763592
0.00256352 0.0420996 0.0163272
0.00254826 0.0426947 0.0164034
0.00309758 0.0436408 0.0166323
0.00755322 0.0460822 0.0175174
0.0209506 0.0498817 0.0197299
0.0421302 0.0547799 0.0224918
0.0728771 0.0610971 0.02533
0.107057 0.0683146 0.0252537
0.152834 0.0751965 0.0189364
0.214511 0.0778821 0.00927749
0.276326 0.0752117 0.000289921
0.338903 0.072221 0
0.413001 0.0682231 0
0.486961 0.0675822 0
0.558022 0.07187 0
0.625757 0.0831464 0
0.691936 0.105898 0
0.757824 0.14284 0
0.819791 0.196445 0.0241855
0.878676 0.268467 0.080827
0.929564 0.350469 0.145266
0.97377 0.435859 0.213062
1 0.521263 0.285161
1 0.599405 0.355612
1 0.667399 0.420981
1 0.725277 0.481605
1 0.774334 0.538064
1 0.816281 0.591104
1 0.850996 0.639338
1 0.877684 0.674403
1 0.898131 0.698192
1 0.916671 0.72694
1 0.934874 0.763333
0 0.0518654 0.0162203
0 0.052842 0.0163577
0 0.0545357 0.0164492
0.000198367 0.0578317 0.0171054
0.0121157 0.0628824 0.0189364
0.0319524 0.0688182 0.022385
0.0627146 0.0764019 0.0273136
0.102113 0.0850996 0.0307164
0.148623 0.0941176 0.0259709
0.21503 0.100816 0.0156252
0.292103 0.105119 0.00471504
0.359304 0.106096 0
0.429831 0.104952 0
0.501534 0.106065 0
0.572412 0.110796 0
0.638239 0.120119 0
0.701701 0.137499 0
0.764828 0.16878 0
0.825666 0.218784 0.0188144
0.882506 0.284901 0.0783246
0.932464 0.363424 0.144442
0.975921 0.445502 0.212955
1 0.528099 0.285145
1 0.603922 0.355489
1 0.670314 0.420737
1 0.727092 0.481285
1 0.775341 0.537621
1 0.8168 0.590692
1 0.851255 0.638987
1 0.877821 0.674067
1 0.898177 0.697963
1 0.916671 0.72668
1 0.934813 0.762997
0 0.0648508 0.0162509
0 0.0665293 0.0163729
0 0.0692607 0.0167086
0 0.0736095 0.0168307
0.00173953 0.0793164 0.0181125
0.0182345 0.0859846 0.0207675
0.0455329 0.095552 0.0258793
0.0874495 0.106554 0.0321202
0.139712 0.1178 0.0333562
0.209583 0.127779 0.0227207
0.293706 0.135958 0.00932326
0.377401 0.142718 0
0.454841 0.146929 0
0.524025 0.151812 0
0.590585 0.159136 0
0.654887 0.169329 0
0.71635 0.184771 0
0.774868 0.207385 0
0.832761 0.24802 0.014374
0.887205 0.306706 0.0723125
0.93611 0.380545 0.143267
0.978378 0.458152 0.212802
1 0.536797 0.284916
1 0.609644 0.355261
1 0.673961 0.420417
1 0.729397 0.480858
1 0.776715 0.537102
1 0.817548 0.590173
1 0.851637 0.638529
1 0.878019 0.673625
1 0.898283 0.697658
1 0.916701 0.726375
1 0.934752 0.762631
0 0.0821851 0.0170443
0 0.0844739 0.0169985
0 0.088365 0.0170748
0 0.0941787 0.0170291
0 0.100832 0.0176699
0.00144961 0.108721 0.0191806
0.0230716 0.11986 0.0223087
0.059678 0.133654 0.0285344
0.121111 0.147829 0.0342412
0.195254 0.161044 0.0258488
0.287602 0.172244 0.0115358
0.380575 0.182498 0
0.469093 0.191714 0
0.546532 0.199741 0
0.613779 0.209247 0
0.675456 0.221912 0
0.733837 0.237522 0
0.789914 0.259068 0
0.843137 0.288777 0.00337224
0.893675 0.33695 0.0651713
0.940597 0.401816 0.14052
0.980697 0.474189 0.211643
1 0.547692 0.284489
1 0.616861 0.354711
1 0.678645 0.420005
1 0.732326 0.480293
1 0.778576 0.536431
1 0.81857 0.589578
1 0.852216 0.63798
1 0.878325 0.673091
1 0.898451 0.697307
1 0.916777 0.72604
1 0.934722 0.762203
0 0.106966 0.0174716
0 0.110277 0.0173495
0 0.116411 0.0169985
0 0.122713 0.0168154
0 0.130236 0.0169375
0 0.139208 0.0176699
0 0.151904 0.0192416
0.0248569 0.168353 0.0229038
0.082887 0.186664 0.0287633
0.171557 0.201816 0.0284886
0.269871 0.215671 0.00973526
0.375586 0.227802 0
0.471534 0.239612 0
0.557885 0.250858 0
0.632013 0.262745 0
0.697063 0.275319 0
0.753582 0.292409 0
0.806378 0.314458 0
0.856611 0.342779 0
0.90277 0.380926 0.050309
0.946639 0.430976 0.135195
0.98352 0.494835 0.209522
1 0.562066 0.283558
1 0.626657 0.354009
1 0.684916 0.419532
1 0.736294 0.479515
1 0.780972 0.535744
1 0.820081 0.588891
1 0.853025 0.637354
1 0.878782 0.672435
1 0.898726 0.69688
1 0.916915 0.725673
1 0.934722 0.761746
0 0.144152 0.0169223
0 0.149386 0.0165103
0 0.155657 0.0157778
0 0.162219 0.0154421
0 0.170413 0.015259
0 0.180301 0.015671
0 0.1944 0.0165255
0 0.212482 0.0179141
0.0304417 0.233341 0.0203403
0.127291 0.252949 0.0231632
0.24303 0.26775 0.014313
0.356939 0.281453 0
0.464958 0.293126 0
0.55906 0.304967 0
0.640925 0.318334 0
0.712093 0.333028 0
0.772274 0.351385 0
0.82385 0.373877 0
0.869902 0.400946 0
0.913817 0.43418 0.0295262
0.954192 0.474098 0.123125
0.987213 0.523125 0.205661
1 0.580972 0.281666
1 0.639261 0.353201
1 0.693065 0.419059
1 0.741588 0.47866
1 0.784253 0.534936
1 0.822126 0.588113
1 0.8542 0.636698
1 0.879454 0.671733
1 0.899107 0.696391
1 0.917174 0.725277
1 0.934783 0.761273
0 0.198199 0.0143893
0 0.203998 0.0140078
0 0.209934 0.0131685
0 0.216693 0.012604
0 0.224353 0.0121614
0 0.234379 0.0121462
0 0.248646 0.0122835
0 0.267124 0.0122072
0 0.288746 0.0116426
0.0577554 0.311528 0.0106813
0.198459 0.329686 0.00970474
0.328725 0.343145 0.00125124
0.44802 0.354757 0
0.553094 0.36556 0
0.642725 0.377569 0
0.718532 0.392706 0
0.781659 0.411582 0
0.836347 0.434974 0
0.883192 0.46244 0
0.92462 0.491371 0.0126192
0.961898 0.525521 0.101518
0.991302 0.563653 0.196979
1 0.606622 0.279255
1 0.655573 0.352209
1 0.703624 0.418494
1 0.748562 0.477989
1 0.788769 0.534142
1 0.824857 0.587274
1 0.855894 0.635767
1 0.880507 0.671031
1 0.899748 0.69601
1 0.917556 0.72488
1 0.934936 0.7608
0 0.266972 0.0113832
0 0.273487 0.0105287
0 0.278737 0.00950637
0 0.285084 0.00866712
0 0.292073 0.00791943
0 0.30103 0.00732433
0 0.314305 0.00648508
0 0.332143 0.00494392
0 0.353063 0.00231937
0 0.376913 0
0.12398 0.39913 0
0.2878 0.413291 0
0.420447 0.423758 0
0.537163 0.432319 0
0.635126 0.441627 0
0.716686 0.454643 0
0.783978 0.472831 0
0.841993 0.495369 0
0.89221 0.521874 0
0.933501 0.549615 0.00343328
0.968399 0.578561 0.0737011
0.994446 0.609033 0.183719
1 0.642451 0.273548
1 0.678004 0.350927
1 0.718196 0.417716
1 0.757687 0.477989
1 0.794949 0.533349
1 0.828428 0.586389
1 0.858045 0.634699
1 0.882002 0.670192
1 0.900694 0.695674
1 0.918181 0.724514
1 0.935195 0.760327
0 0.348455 0.00535592
0 0.353017 0.00404364
0 0.358083 0.00289921
0 0.364385 0.00167849
0 0.370504 0.000671397
0 0.377844 0
0 0.389685 0
0 0.40499 0
0 0.424353 0
0 0.446479 0
0.0162203 0.470024 0
0.219745 0.488136 0
0.383764 0.498009 0
0.510613 0.505058 0
0.619532 0.511711 0
0.707225 0.521096 0
0.779812 0.535439 0
0.84268 0.55491 0
0.894606 0.577813 0
0.938155 0.60383 0
0.972396 0.628885 0.0576638
0.997131 0.653849 0.172869
1 0.680659 0.26688
1 0.708492 0.348196
1 0.73785 0.417716
1 0.76994 0.477684
1 0.802701 0.533227
1 0.83331 0.585519
1 0.860807 0.633387
1 0.884062 0.669261
1 0.902022 0.695415
1 0.919081 0.724224
1 0.935622 0.759915
0 0.435874 0
0 0.440497 0
0 0.44506 0
0 0.450065 0
0 0.455848 0
0 0.462364 0
0 0.471565 0
0 0.484642 0
0 0.501778 0
0 0.522148 0
0 0.544015 0
0.12607 0.564492 0
0.326406 0.577356 0
0.476158 0.582238 0
0.592844 0.586175 0
0.691447 0.590936 0
0.77113 0.598764 0
0.837354 0.613062 0
0.893492 0.630961 0
0.938521 0.651591 0
0.974044 0.67425 0.0385748
0.998413 0.696239 0.164218
1 0.718074 0.263157
1 0.740856 0.345541
1 0.763973 0.416785
1 0.787137 0.477424
1 0.812604 0.533501
1 0.840009 0.585306
1 0.864668 0.632013
1 0.886732 0.668177
1 0.903883 0.695201
1 0.920333 0.724117
1 0.936309 0.759716
0 0.529992 0
0 0.533715 0
0 0.538262 0
0 0.543328 0
0 0.54844 0
0 0.554314 0
0 0.561273 0
0 0.571923 0
0 0.585626 0
0 0.601953 0
0 0.621073 0
0.00729381 0.640558 0
0.252567 0.655619 0
0.428641 0.661631 0
0.563745 0.661707 0.00148013
0.669505 0.66099 0.00271611
0.758114 0.663233 0
0.829877 0.669337 0
0.888716 0.680186 0
0.936736 0.695735 0
0.973373 0.714061 0.018616
0.99823 0.734112 0.150469
1 0.752789 0.262379
1 0.772427 0.346929
1 0.791348 0.417075
1 0.809384 0.478752
1 0.8271 0.533974
1 0.849119 0.585336
1 0.870527 0.631586
1 0.89012 0.667094
1 0.906462 0.695048
1 0.922026 0.724224
1 0.937331 0.760021
0 0.626734 0
0 0.630671 0
0 0.634684 0
0 0.638697 0
0 0.642893 0
0 0.647471 0
0 0.653208 0
0 0.660822 0
0 0.670848 0
0 0.684306 0
0 0.698909 0
0 0.714855 0
0.181277 0.729351 0
0.379934 0.735912 0
0.530251 0.734844 0.000991836
0.646113 0.72932 0.0114748
0.738308 0.724697 0.0115053
0.817304 0.723888 0.00683604
0.881239 0.727672 0.00364691
0.932387 0.736706 0.00494392
0.971435 0.750668 0.0129244
0.998062 0.766735 0.128099
1 0.783886 0.259113
1 0.800626 0.34966
1 0.817365 0.421927
1 0.831876 0.482307
1 0.846372 0.536339
1 0.860639 0.586069
1 0.87834 0.631388
1 0.895094 0.667216
1 0.90985 0.694911
1 0.9243 0.724376
1 0.938827 0.760784
0 0.722286 0
0 0.725444 0
0 0.728496 0
0 0.73167 0
0 0.734539 0
0 0.737285 0
0 0.741405 0
0 0.746792 0
0 0.753048 0
0 0.761501 0
0 0.771328 0
0 0.781964 0
0.137758 0.791485 0
0.34229 0.798215 0.00523384
0.497856 0.797726 0.0173953
0.620905 0.791653 0.0286564
0.717617 0.783352 0.030808
0.798199 0.777005 0.0257572
0.868711 0.773831 0.0186923
0.924331 0.776135 0.0161898
0.966751 0.784039 0.0210575
0.995682 0.796826 0.120607
1 0.811032 0.255741
1 0.825925 0.350072
1 0.840406 0.427131
1 0.853346 0.489494
1 0.864988 0.542046
1 0.876478 0.590112
1 0.888304 0.63299
1 0.901198 0.666453
1 0.914183 0.695323
1 0.927565 0.725429
1 0.940795 0.762081
0 0.805814 0.0183719
0 0.807935 0.0209049
0 0.80943 0.0236973
0 0.811246 0.0259403
0 0.813153 0.027863
0 0.814572 0.0303807
0 0.816632 0.0336461
0 0.819135 0.0382086
0 0.822828 0.0440223
0 0.827115 0.0515145
0 0.832227 0.0608682
0 0.837812 0.0703593
0.130709 0.84358 0.079881
0.327657 0.848035 0.0885634
0.4757 0.848844 0.0961166
0.597681 0.844663 0.0986343
0.697475 0.836561 0.0915541
0.779126 0.826749 0.0752117
0.850202 0.818494 0.0558328
0.91104 0.814923 0.0414282
0.958236 0.816968 0.0502632
0.991592 0.823957 0.14284
1 0.834852 0.263203
1 0.847379 0.353643
1 0.860182 0.430854
1 0.872602 0.497765
1 0.882506 0.551308
1 0.891966 0.597681
1 0.901717 0.637827
1 0.910201 0.670085
1 0.920394 0.698116
1 0.931685 0.728359
1 0.943511 0.764004
0 0.869352 0.117388
0 0.870268 0.120378
0 0.870985 0.12285
0 0.871778 0.125277
0 0.872541 0.127657
0 0.873213 0.129931
0 0.874037 0.132692
0 0.874968 0.136645
0 0.876707 0.14139
0 0.878218 0.14696
0 0.880262 0.15378
0 0.882628 0.161944
0.181765 0.885298 0.169772
0.338018 0.887816 0.177707
0.468894 0.888014 0.184848
0.582849 0.88603 0.19028
0.680354 0.880735 0.191104
0.762249 0.871611 0.186419
0.832258 0.86154 0.173434
0.893797 0.853239 0.166232
0.945556 0.84918 0.175326
0.984298 0.850828 0.213687
1 0.85745 0.288808
1 0.86656 0.364141
1 0.87747 0.436683
1 0.887999 0.502937
1 0.897993 0.561791
1 0.906508 0.609094
1 0.914519 0.647349
1 0.922057 0.679637
1 0.928389 0.704128
1 0.937026 0.73254
1 0.947051 0.767865
0 0.913848 0.220295
0 0.914092 0.222187
0 0.914168 0.223667
0 0.914336 0.225193
0 0.914473 0.22678
0 0.914565 0.228244
0 0.914855 0.23003
0 0.915221 0.232639
0 0.91545 0.235737
0 0.915938 0.239506
0.00140383 0.91664 0.244068
0.125475 0.917357 0.249653
0.258396 0.91783 0.256336
0.371817 0.918639 0.262776
0.477485 0.918715 0.270344
0.578912 0.917266 0.280339
0.669856 0.913985 0.289448
0.749355 0.907988 0.297612
0.817319 0.899428 0.301808
0.87689 0.889326 0.301289
0.928923 0.881437 0.302296
0.972671 0.877424 0.309697
1 0.878737 0.334401
1 0.885039 0.388342
1 0.893004 0.44799
1 0.901808 0.509361
1 0.910475 0.567666
1 0.919112 0.62063
1 0.926253 0.661707
1 0.933303 0.694972
1 0.939452 0.719799
1 0.944778 0.744244
1 0.951995 0.775586
0 0.94435 0.315358
0 0.944427 0.316594
0 0.944396 0.317494
0 0.94432 0.31841
0 0.944183 0.319234
0 0.94406 0.320073
0.00827039 0.943969 0.321096
0.0438239 0.943923 0.322545
0.0956893 0.943893 0.324483
0.154192 0.943877 0.326757
0.217014 0.943511 0.329519
0.280232 0.94342 0.333227
0.348775 0.943648 0.337911
0.424216 0.94342 0.343343
0.503136 0.942702 0.349432
0.585153 0.941207 0.357488
0.667109 0.938491 0.367041
0.741588 0.934447 0.377142
0.806699 0.928862 0.384924
0.864057 0.920684 0.390448
0.913695 0.911635 0.393378
0.957031 0.904158 0.396551
0.992264 0.900969 0.405417
1 0.901976 0.424811
1 0.907225 0.46923
1 0.914 0.521187
1 0.921614 0.575067
1 0.929198 0.626551
1 0.936645 0.673976
1 0.943145 0.71191
1 0.94905 0.741741
1 0.954299 0.766278
1 0.95935 0.791791
0.219547 0.965835 0.399558
0.230503 0.965805 0.400305
0.240406 0.965682 0.400748
0.249683 0.965576 0.40119
0.258869 0.965454 0.401602
0.268544 0.965347 0.402045
0.281056 0.965179 0.402625
0.296284 0.964965 0.403388
0.314321 0.964797 0.404486
0.337453 0.964508 0.405905
0.365225 0.964248 0.407691
0.39881 0.963745 0.409995
0.439231 0.963043 0.413001
0.485267 0.962585 0.416632
0.540749 0.961532 0.421088
0.604028 0.959991 0.426734
0.671611 0.957092 0.434607
0.738705 0.953765 0.443412
0.800107 0.949691 0.45214
0.854643 0.944427 0.459998
0.902113 0.937423 0.464652
0.943297 0.929442 0.468299
0.978592 0.923079 0.473289
1 0.920119 0.482246
1 0.921157 0.499886
1 0.925368 0.539315
1 0.931395 0.585077
1 0.937652 0.633188
1 0.944335 0.678538
1 0.951278 0.72192
1 0.957198 0.759045
1 0.962951 0.789685
1 0.968032 0.816663
0.402701 0.981857 0.472633
0.40766 0.981765 0.473106
0.411978 0.981598 0.47332
0.41622 0.981445 0.473503
0.420447 0.981277 0.473686
0.424918 0.981109 0.473884
0.430732 0.98088 0.474189
0.438514 0.980636 0.474601
0.448646 0.980362 0.475196
0.460822 0.980117 0.475914
0.476738 0.979812 0.476921
0.49691 0.979232 0.478309
0.52192 0.978302 0.480232
0.550835 0.97763 0.48275
0.586984 0.976623 0.485924
0.632288 0.974716 0.490059
0.685496 0.971954 0.495537
0.741955 0.968627 0.502647
0.797833 0.964553 0.51136
0.848463 0.961059 0.519524
0.893965 0.956405 0.525826
0.932403 0.950713 0.530648
0.96611 0.943648 0.534768
0.994354 0.938659 0.540261
1 0.936187 0.548913
1 0.937072 0.565225
1 0.940551 0.600839
1 0.945724 0.641688
1 0.951507 0.684337
1 0.957412 0.725231
1 0.963638 0.76582
1 0.96939 0.802045
1 0.974929 0.834043
0.523293 0.993164 0.537621
0.526146 0.993042 0.537911
0.528618 0.992874 0.537942
0.531044 0.992706 0.537972
0.533486 0.992538 0.538003
0.536049 0.99237 0.538018
0.53933 0.992157 0.538094
0.543755 0.991928 0.538308
0.549493 0.991684 0.538628
0.55697 0.991348 0.539117
0.566827 0.990936 0.539818
0.579492 0.990387 0.540795
0.594995 0.989624 0.541756
0.614786 0.988678 0.543114
0.638636 0.987549 0.54519
0.668956 0.98584 0.547951
0.707469 0.983459 0.552132
0.752102 0.97995 0.557763
0.79913 0.976425 0.56466
0.845289 0.972808 0.572641
0.887526 0.969619 0.579843
0.924254 0.966247 0.586221
0.956527 0.961303 0.590768
0.983581 0.955779 0.595071
1 0.951415 0.601144
1 0.949508 0.608698
1 0.94995 0.623407
1 0.953399 0.655299
1 0.958129 0.692058
1 0.963088 0.730999
1 0.96846 0.76791
1 0.97406 0.805158
1 0.979461 0.839551
0.616709 1 0.596155
0.618418 1 0.596368
0.619806 1 0.596323
0.62121 1 0.596277
0.62266 1 0.596246
0.624125 1 0.596185
0.626108 1 0.59617
0.628794 1 0.596201
0.632273 0.999832 0.596307
0.636805 0.999496 0.596506
0.642893 0.999161 0.59678
0.650858 0.998734 0.597208
0.661097 0.998154 0.597864
0.673808 0.997238 0.59881
0.690089 0.996017 0.600015
0.710689 0.994369 0.601892
0.736309 0.992157 0.604623
0.768948 0.989456 0.608972
0.806806 0.985794 0.614511
0.845624 0.98262 0.621027
0.884001 0.979797 0.628412
0.918379 0.977096 0.635019
0.948867 0.974685 0.641184
0.974884 0.970855 0.645197
0.995972 0.966094 0.648936
1 0.962539 0.65478
1 0.960876 0.66157
1 0.961517 0.674983
1 0.964508 0.7037
1 0.968551 0.738125
1 0.973342 0.773632
1 0.978027 0.807431
1 0.98294 0.840421
0.692622 1 0.649149
0.693736 1 0.649287
0.694606 1 0.64921
0.69543 1 0.649134
0.696284 1 0.649058
0.697154 1 0.648981
0.698253 1 0.64892
0.699763 1 0.648905
0.701839 1 0.648936
0.704646 1 0.649042
0.708385 1 0.649195
0.713573 1 0.64947
0.720409 1 0.649897
0.728695 1 0.650538
0.739071 1 0.651362
0.752453 1 0.652323
0.770184 0.998657 0.654414
0.791897 0.996368 0.657206
0.819165 0.993591 0.661448
0.850355 0.990692 0.66685
0.882994 0.987854 0.672709
0.915328 0.985351 0.679179
0.94374 0.983917 0.686183
0.968032 0.981949 0.691234
0.98883 0.978698 0.694987
1 0.974868 0.698375
1 0.972351 0.703838
1 0.971069 0.710414
1 0.971801 0.722118
1 0.974243 0.749767
1 0.977798 0.781201
1 0.981872 0.813077
1 0.986191 0.842466
0.754269 1 0.699351
0.75494 1 0.699413
0.755398 1 0.69929
0.755886 1 0.699153
0.756344 1 0.699031
0.756817 1 0.698909
0.757473 1 0.698787
0.758404 1 0.698665
0.759686 1 0.698589
