Swiniec_LUT_red.cube
TITLE "Generated by Resolve"
LUT_3D_SIZE 5
0.0585641 0.0173037 0.0296788
0.210346 0.0132448 0.0148623
0.640558 0.0112764 0.00151064
1 0.594858 0.393622
0.996719 0.882704 0.72459
0.0448615 0.0615244 0.0387427
0.156619 0.114199 0.0545663
0.723857 0.187366 0.0141604
1 0.617441 0.39292
0.996796 0.882612 0.72285
0.0366217 0.551598 0.00326543
0.0339513 0.594873 0.000595102
0.72163 0.659754 0.030396
0.998886 0.759701 0.38822
0.996338 0.886915 0.721111
0.499489 0.937819 0.484703
0.524742 0.936675 0.486229
0.678187 0.930266 0.502571
0.972045 0.89987 0.557351
0.994781 0.929747 0.799893
0.91957 0.958923 0.844526
0.919326 0.958877 0.843717
0.922805 0.958495 0.843503
0.950683 0.958312 0.850462
0.988632 0.956451 0.869322
0.0574807 0.0237125 0.0992294
0.199771 0.0281529 0.118975
0.657969 0 0.112123
1 0.593545 0.422309
0.996658 0.882826 0.728359
0.0460212 0.0760815 0.118654
0.154253 0.109255 0.137575
0.713497 0.151629 0.133654
1 0.614511 0.42063
0.996719 0.88249 0.726329
0.0382086 0.540627 0.0317693
0.0357214 0.581262 0.026978
0.711742 0.663935 0.0577707
0.998367 0.761791 0.41886
0.996307 0.88661 0.723918
0.497017 0.937789 0.484077
0.522377 0.936584 0.485481
0.676738 0.93019 0.501778
0.97203 0.899687 0.556619
0.99472 0.929824 0.801236
0.919341 0.958938 0.844327
0.919066 0.958877 0.843503
0.92256 0.958495 0.843244
0.95053 0.958297 0.850202
0.988647 0.95642 0.869123
0.0507515 0.0881208 0.462348
0.110475 0.105455 0.481422
0.634241 0.0274815 0.475242
1 0.588647 0.62414
0.996536 0.881987 0.750607
0.0479744 0.107393 0.478233
0.120546 0.126741 0.496056
0.662867 0.0822766 0.496483
1 0.603891 0.624781
0.996643 0.881209 0.74844
0.0439918 0.452979 0.496452
0.0417639 0.502022 0.512398
0.66688 0.67509 0.600458
0.994873 0.758724 0.608927
0.996109 0.885237 0.745144
0.424567 0.939544 0.53782
0.455222 0.938262 0.539544
0.630488 0.930205 0.554009
0.96614 0.904997 0.621073
0.994339 0.930739 0.811383
0.9187 0.958953 0.843931
0.91841 0.958892 0.843061
0.92195 0.958495 0.842771
0.950179 0.958251 0.84976
0.988663 0.956359 0.868833
0.27744 0.552895 0.815244
0.288594 0.56022 0.818173
0.657099 0.618799 0.837217
0.970565 0.586831 0.868894
0.991699 0.894194 0.881209
0.298222 0.567071 0.820859
0.305913 0.569512 0.821958
0.659327 0.622187 0.838636
0.969268 0.586175 0.868788
0.991775 0.893126 0.880873
0.223667 0.582925 0.817655
0.310277 0.597787 0.824353
0.661326 0.646876 0.841993
0.974685 0.642802 0.867903
0.991867 0.893523 0.878202
0.0159762 0.882979 0.851759
0.0157778 0.885542 0.853056
0.418128 0.912184 0.872663
0.941588 0.922621 0.872831
0.99089 0.929946 0.868849
0.904448 0.961578 0.862989
0.904158 0.961501 0.86215
0.907958 0.96112 0.861448
0.940444 0.959503 0.865095
0.987503 0.957183 0.881621
0.848753 0.911254 0.950271
0.851408 0.912474 0.950515
0.854536 0.913207 0.950668
0.955169 0.897093 0.953262
0.99443 0.88159 0.948379
0.853941 0.913634 0.950744
0.854398 0.913832 0.950774
0.85568 0.913787 0.950759
0.95433 0.897414 0.953231
0.994446 0.879973 0.948577
0.853544 0.913466 0.950713
0.85304 0.913237 0.950668
0.855879 0.912734 0.950545
0.952865 0.896269 0.952987
0.994522 0.876234 0.948882
0.824979 0.919158 0.948959
0.826932 0.918853 0.948898
0.849363 0.918654 0.949004
0.948333 0.90692 0.949645
0.992844 0.901808 0.942641
0.832944 0.975021 0.937209
0.832456 0.97496 0.937102
0.839292 0.974105 0.936568
0.898421 0.96817 0.933547
0.983154 0.961273 0.930602
