Swiniec_LUT_-1.cube
TITLE "Generated by Resolve"
LUT_3D_SIZE 9
0.016968 0.0219883 0.0132143
0.038056 0.0265812 0.0168612
0.196674 0.0213626 0
0.406348 0 0
0.667018 0.0317235 0
0.918349 0.30222 0.142931
1 0.656367 0.419883
1 0.849409 0.639567
1 0.934829 0.763897
0.0087129 0.0343481 0.0166934
0.0274052 0.0400702 0.019501
0.15256 0.0578622 0.0132448
0.405447 0.0406653 0
0.685863 0.0865492 0
0.927443 0.340276 0.145647
1 0.665232 0.421134
1 0.850767 0.639612
1 0.93492 0.763592
0 0.0821851 0.0170443
0 0.100832 0.0176699
0.121111 0.147829 0.0342412
0.469093 0.191714 0
0.733837 0.237522 0
0.940597 0.401816 0.14052
1 0.678645 0.420005
1 0.852216 0.63798
1 0.934722 0.762203
0 0.266972 0.0113832
0 0.292073 0.00791943
0 0.353063 0.00231937
0.420447 0.423758 0
0.783978 0.472831 0
0.968399 0.578561 0.0737011
1 0.718196 0.417716
1 0.858045 0.634699
1 0.935195 0.760327
0 0.626734 0
0 0.642893 0
0 0.670848 0
0.181277 0.729351 0
0.738308 0.724697 0.0115053
0.971435 0.750668 0.0129244
1 0.817365 0.421927
1 0.87834 0.631388
1 0.938827 0.760784
0 0.913848 0.220295
0 0.914473 0.22678
0 0.91545 0.235737
0.258396 0.91783 0.256336
0.669856 0.913985 0.289448
0.928923 0.881437 0.302296
1 0.893004 0.44799
1 0.926253 0.661707
1 0.951995 0.775586
0.523293 0.993164 0.537621
0.533486 0.992538 0.538003
0.549493 0.991684 0.538628
0.594995 0.989624 0.541756
0.707469 0.983459 0.552132
0.887526 0.969619 0.579843
1 0.951415 0.601144
1 0.958129 0.692058
1 0.979461 0.839551
0.808286 1 0.744808
0.809384 1 0.744488
0.811276 1 0.744015
0.818479 1 0.743893
0.840589 1 0.745907
0.897536 0.998917 0.754604
0.979721 0.994507 0.775097
1 0.987747 0.79089
1 0.992493 0.854215
0.955245 1 0.885069
0.955123 1 0.884733
0.955001 1 0.884291
0.955673 1 0.883986
0.95848 1 0.884031
0.966812 1 0.885267
0.986618 1 0.890364
1 1 0.898558
1 1 0.907835
0.0180056 0.0252384 0.0302434
0.0297856 0.0271763 0.0323339
0.207645 0.0215457 0.0208896
0.445502 0 0.00399786
0.671702 0.0214237 0.0188907
0.918791 0.296101 0.172381
1 0.656352 0.431785
1 0.849378 0.642588
1 0.93492 0.765438
0.0125429 0.0319219 0.0284733
0.0279393 0.0356603 0.0321202
0.170397 0.0466468 0.0233463
0.422583 0.0234684 0
0.685206 0.0675975 0.0122377
0.926909 0.332906 0.175219
1 0.664622 0.43267
1 0.850568 0.642466
1 0.934951 0.765011
0 0.0820935 0.0284428
0 0.0979019 0.0276036
0.130953 0.14136 0.0452277
0.464942 0.182406 0.00643931
0.726375 0.223163 0
0.938689 0.395148 0.172076
1 0.677775 0.431022
1 0.851896 0.640742
1 0.934707 0.763531
0 0.261433 0.0200961
0 0.283116 0.0154421
0 0.340917 0.0118715
0.411673 0.415961 0.000381476
0.782513 0.474662 0
0.965896 0.57763 0.134829
1 0.71722 0.428
1 0.857679 0.63743
1 0.935149 0.761608
0 0.622568 0
0 0.638498 0
0 0.666529 0
0.16788 0.726284 0
0.736385 0.724971 0.0142214
0.96994 0.753811 0.059678
1 0.818173 0.434089
1 0.878141 0.634028
1 0.93872 0.761807
0 0.913573 0.219287
0 0.914214 0.225742
0 0.915175 0.234775
0.254368 0.917571 0.255543
0.669139 0.913787 0.288685
0.928908 0.881163 0.301396
1 0.893782 0.458381
1 0.92636 0.664042
1 0.951919 0.776394
0.522393 0.993164 0.537453
0.532555 0.992538 0.537774
0.548608 0.991669 0.538369
0.594202 0.989609 0.541512
0.70692 0.983444 0.551843
0.887358 0.969589 0.579568
1 0.951339 0.600855
1 0.958328 0.694148
1 0.979477 0.840085
0.808057 1 0.744701
0.809171 1 0.744366
0.811032 1 0.743893
0.818219 1 0.74374
0.840345 1 0.745724
0.897353 0.998901 0.754437
0.97966 0.994476 0.774914
1 0.987716 0.790707
1 0.992508 0.85452
0.955154 1 0.884993
0.955032 1 0.884657
0.954894 1 0.884215
0.955566 1 0.883864
0.958389 1 0.883925
0.96672 1 0.885145
0.986557 1 0.890242
1 1 0.898466
1 1 0.907759
0.0141604 0.031632 0.101091
0.0229343 0.0330053 0.104295
0.180621 0.0411994 0.126329
0.460044 0 0.135912
0.690822 0.0115663 0.138247
0.920455 0.287678 0.225193
1 0.655024 0.449241
1 0.849042 0.647562
1 0.934936 0.767559
0.0110781 0.0359197 0.105226
0.0248417 0.0380102 0.108217
0.191302 0.0466621 0.127413
0.474662 0.0126192 0.136645
0.703059 0.0481422 0.139178
0.927459 0.322118 0.229404
1 0.662669 0.450019
1 0.850004 0.647105
1 0.934905 0.767056
0 0.100877 0.117128
0 0.114488 0.122164
0.118532 0.141726 0.137331
0.452461 0.162158 0.121675
0.7234 0.196094 0.134951
0.937072 0.384009 0.229252
1 0.6757 0.44831
1 0.851255 0.645075
1 0.934615 0.76556
0 0.271275 0.117983
0 0.29453 0.110811
0 0.349096 0.111437
0.410422 0.419608 0.12108
0.780941 0.478355 0.112627
0.961532 0.575875 0.219165
1 0.71519 0.445472
1 0.856931 0.641703
1 0.935027 0.763668
0 0.614588 0.0187076
0 0.629145 0.0160372
0 0.656153 0.0156405
0.0985122 0.716823 0.0294957
0.727672 0.728283 0.0482338
0.967208 0.757992 0.195331
1 0.819303 0.453407
1 0.877455 0.638331
1 0.938521 0.763485
0 0.912795 0.223697
0 0.913405 0.230274
0 0.914366 0.239979
0.238682 0.916793 0.261723
0.665309 0.91368 0.30042
0.92697 0.882506 0.325872
1 0.895033 0.476219
1 0.926528 0.667552
1 0.951782 0.777661
0.520714 0.993164 0.537041
0.530861 0.992538 0.537346
0.547021 0.991638 0.537911
0.592828 0.989578 0.541039
0.705989 0.983413 0.551354
0.887068 0.969512 0.579126
1 0.951247 0.600397
1 0.958633 0.697719
1 0.979538 0.840848
0.807691 1 0.744503
0.808759 1 0.744167
0.810636 1 0.743664
0.817823 1 0.743496
0.839979 1 0.745449
0.897078 0.998901 0.754162
0.979568 0.994446 0.77467
1 0.987686 0.790463
1 0.992523 0.854948
0.955032 1 0.884886
0.954864 1 0.884535
0.954742 1 0.884092
0.955413 1 0.883741
0.958251 1 0.883772
0.966598 1 0.884993
0.98645 1 0.890105
1 1 0.898344
1 1 0.907652
0.00746166 0.0428168 0.256641
0.0157931 0.0446632 0.258854
0.12958 0.0549783 0.267979
0.420432 0.00527962 0.301198
0.686976 0.00106813 0.347204
0.934646 0.287175 0.402274
1 0.651102 0.499794
1 0.847456 0.661234
1 0.934722 0.772976
0.00456245 0.0472419 0.267002
0.0157168 0.049958 0.267842
0.142718 0.0602884 0.278599
0.433249 0.0130312 0.309438
0.705257 0.0243839 0.357656
0.940597 0.318242 0.40763
1 0.657832 0.50042
1 0.848219 0.660655
1 0.9346 0.772412
0 0.107179 0.291142
0 0.115877 0.309865
0.124224 0.128969 0.326284
0.479255 0.117144 0.351385
0.739788 0.119982 0.373587
0.948287 0.371145 0.411887
1 0.669474 0.498695
1 0.849226 0.658579
1 0.934264 0.770886
0 0.289754 0.343542
0 0.307118 0.346059
0 0.34966 0.363455
0.380179 0.424338 0.392905
0.758053 0.458549 0.37966
0.952178 0.56202 0.416449
1 0.708095 0.494575
1 0.854749 0.654414
1 0.934646 0.769146
0 0.585122 0.274998
0 0.606851 0.272709
0 0.644083 0.274022
0 0.70956 0.307729
0.709102 0.733989 0.379675
0.959197 0.770687 0.411292
1 0.821485 0.504967
1 0.875135 0.650248
1 0.938064 0.76875
0 0.911009 0.281682
0 0.911238 0.288029
0 0.911864 0.297704
0.100999 0.911955 0.321172
0.634836 0.911528 0.365896
0.91783 0.888182 0.416907
1 0.899565 0.527138
1 0.92726 0.67834
1 0.951507 0.781323
0.510643 0.993378 0.54136
0.520775 0.992752 0.541665
0.537423 0.991745 0.542031
0.584405 0.98967 0.545525
0.699413 0.983413 0.556268
0.884779 0.969482 0.586038
1 0.952117 0.612604
1 0.959564 0.708537
1 0.979675 0.843015
0.806836 1 0.744167
0.807935 1 0.743786
0.809796 1 0.743282
0.816999 1 0.743099
0.839216 1 0.744991
0.896544 0.998901 0.753735
0.9794 0.9944 0.774289
1 0.98761 0.790097
1 0.992584 0.856611
0.954803 1 0.884733
0.95465 1 0.884398
0.954528 1 0.88394
0.955169 1 0.883574
0.958038 1 0.883604
0.96643 1 0.88481
0.986328 1 0.889937
1 1 0.898192
1 1 0.907515
0.000381476 0.119234 0.492973
0.00384527 0.124376 0.500603
0.070573 0.139864 0.510903
0.40885 0.149813 0.506233
0.656809 0.0527657 0.519921
0.920012 0.310857 0.610697
1 0.650156 0.65156
1 0.842161 0.70341
1 0.934157 0.789075
0 0.125307 0.502022
0.00489815 0.129931 0.508553
0.0807965 0.144762 0.515999
0.416358 0.15227 0.510277
0.660639 0.0607156 0.523384
0.92752 0.334844 0.617761
1 0.656184 0.653117
1 0.84268 0.703044
1 0.933928 0.788479
0 0.142733 0.508003
0.000732433 0.149493 0.517128
0.0810101 0.165072 0.524529
0.430945 0.178561 0.520928
0.677668 0.118029 0.532601
0.938613 0.372732 0.625315
1 0.665187 0.652705
1 0.843198 0.701076
1 0.93341 0.786923
0 0.296361 0.533867
0 0.31397 0.545159
0 0.344732 0.564385
0.409155 0.390066 0.588846
0.756298 0.394263 0.603815
0.966552 0.506874 0.643061
1 0.698817 0.649989
1 0.84863 0.696651
1 0.933745 0.784939
0 0.522866 0.529473
0 0.539025 0.534966
0 0.573632 0.547936
0 0.682155 0.589212
0.679286 0.73727 0.633875
0.933928 0.761242 0.625345
1 0.816129 0.643793
1 0.869139 0.689494
1 0.93724 0.783978
0 0.894438 0.504662
0 0.899397 0.50869
0 0.906722 0.51632
0 0.916869 0.54078
0.557595 0.909194 0.586984
0.901473 0.899901 0.62707
1 0.910735 0.651148
1 0.929061 0.707897
1 0.950774 0.792889
0.445014 0.995972 0.592233
0.457694 0.995315 0.592676
0.477028 0.994232 0.593271
0.531762 0.991455 0.596094
0.658335 0.983963 0.604089
0.867643 0.969604 0.631922
0.998535 0.956283 0.664485
1 0.962478 0.7393
1 0.980407 0.850675
0.802777 1 0.747234
0.803845 1 0.746853
0.805676 1 0.746319
0.812894 1 0.746212
0.835325 1 0.747555
0.893568 0.999207 0.756436
0.978378 0.994339 0.778576
1 0.988083 0.79707
1 0.993133 0.862455
0.954376 1 0.88452
0.954223 1 0.884138
0.954086 1 0.88368
0.954711 1 0.883314
0.957626 1 0.883345
0.96614 1 0.884535
0.986114 1 0.889677
1 1 0.897978
1 1 0.907362
0 0.340475 0.695857
0 0.344442 0.698466
0.00177005 0.361669 0.711849
0.357946 0.400778 0.730999
0.695323 0.400259 0.722103
0.866667 0.378714 0.749081
1 0.643519 0.816403
1 0.843412 0.82031
1 0.933196 0.831876
0 0.349645 0.701869
0 0.352224 0.70367
0.00277714 0.368719 0.716487
0.365805 0.405859 0.733989
0.697322 0.404089 0.724453
0.867231 0.38143 0.750607
1 0.648203 0.81767
1 0.843992 0.820783
1 0.932891 0.831556
0 0.353475 0.704372
0 0.356161 0.706554
0.00737011 0.372503 0.719097
0.37293 0.407614 0.734585
0.697826 0.404501 0.724743
0.867063 0.383062 0.750591
1 0.65507 0.817945
1 0.84448 0.820172
1 0.932296 0.830335
0 0.371969 0.704051
0 0.380423 0.710063
0 0.399054 0.723003
0.373312 0.434638 0.739345
0.710216 0.443687 0.735897
0.885557 0.446479 0.761257
1 0.682063 0.818494
1 0.848203 0.818158
1 0.932296 0.828367
0 0.510231 0.711345
0 0.524956 0.718166
0 0.552209 0.730404
0 0.633082 0.761608
0.689036 0.692836 0.794278
0.932769 0.704555 0.806592
1 0.776776 0.819211
1 0.864652 0.813748
1 0.935576 0.826261
0 0.790738 0.725231
0 0.799451 0.730541
0 0.813718 0.739055
0 0.849134 0.763897
0.461601 0.901183 0.797696
0.87982 0.904982 0.811566
1 0.913069 0.802609
1 0.928695 0.806348
1 0.948638 0.827649
0.221347 0.99823 0.773877
0.24567 0.998154 0.774227
0.285115 0.998123 0.775113
0.387503 0.997559 0.779248
0.577737 0.993011 0.787442
0.823804 0.97641 0.792187
0.987366 0.968063 0.805066
1 0.970764 0.819181
1 0.981537 0.868452
0.776287 1 0.791241
0.777523 1 0.7906
0.779507 1 0.789776
0.787335 1 0.788907
0.810788 1 0.787961
0.871275 1 0.790478
0.969955 0.995132 0.809232
1 0.990463 0.830579
1 0.994797 0.878752
0.95259 1 0.885466
0.952422 1 0.885069
0.95227 1 0.884596
0.952911 1 0.884215
0.956024 1 0.88423
0.964721 1 0.885466
0.985 1 0.890684
1 1 0.899519
1 1 0.909422
0.262791 0.62089 0.842512
0.269215 0.624872 0.844144
0.275212 0.628092 0.845487
0.424216 0.652903 0.857084
0.666987 0.682445 0.862165
0.881956 0.657542 0.861173
0.987243 0.649042 0.889479
1 0.830091 0.908995
1 0.945907 0.915282
0.278813 0.630594 0.846494
0.282338 0.632685 0.847349
0.286931 0.63444 0.848112
0.430915 0.657572 0.8589
0.669093 0.685328 0.863462
0.882185 0.659907 0.862043
0.986908 0.649592 0.889784
1 0.830198 0.909163
1 0.945586 0.915328
0.285954 0.634852 0.848234
0.287602 0.635843 0.84863
0.294362 0.637186 0.849271
0.435203 0.659236 0.859541
0.669459 0.685771 0.863661
0.881361 0.660121 0.861982
0.985916 0.648402 0.889372
1 0.830335 0.908888
1 0.9449 0.9149
0.287083 0.635538 0.848508
0.28751 0.635798 0.848615
0.310582 0.639261 0.850462
0.447395 0.660105 0.859968
0.671626 0.684443 0.862867
0.880385 0.658244 0.861143
0.985061 0.648356 0.888457
1 0.834134 0.908507
1 0.944411 0.913985
0.205982 0.652033 0.847166
0.241733 0.65716 0.849348
0.300542 0.665446 0.852827
0.437751 0.68632 0.861997
0.672679 0.710109 0.867918
0.889601 0.697673 0.869505
0.993423 0.704005 0.890394
1 0.852049 0.908629
1 0.945281 0.912383
0 0.762142 0.866056
0 0.767407 0.868193
0 0.776623 0.871824
0 0.803738 0.881575
0.484184 0.856138 0.894362
0.869398 0.882536 0.903349
1 0.886442 0.906737
1 0.910658 0.909407
1 0.951919 0.908782
0 0.953262 0.905821
0 0.954391 0.906371
0 0.955749 0.907256
0.0967727 0.959716 0.910063
0.436362 0.970306 0.916136
0.779309 0.977111 0.913771
0.975052 0.973312 0.909545
1 0.976059 0.907317
1 0.979751 0.905669
0.707576 1 0.911482
0.709224 1 0.911025
0.711818 1 0.910445
0.723125 1 0.909453
0.758099 1 0.907469
0.835813 1 0.90251
0.94786 0.999496 0.896345
1 0.996872 0.905257
1 0.998657 0.914458
0.940185 1 0.903075
0.940032 1 0.902724
0.939879 1 0.902266
0.940551 1 0.901839
0.943679 1 0.901534
0.953933 1 0.901549
0.976394 1 0.904524
1 1 0.911055
1 1 0.919631
0.6448 0.8607 0.935454
0.648722 0.862715 0.9364
0.65185 0.864332 0.937133
0.655268 0.865736 0.937758
0.737789 0.872877 0.941115
0.881315 0.865995 0.943923
0.984497 0.830076 0.943648
1 0.81529 0.956268
1 0.941939 0.955322
0.654459 0.86569 0.937758
0.656565 0.866773 0.938262
0.657969 0.867491 0.938613
0.660105 0.868147 0.938918
0.740307 0.874556 0.941909
0.881773 0.867185 0.944457
0.984298 0.830991 0.943954
1 0.815183 0.956329
1 0.941283 0.955337
0.658686 0.867857 0.938781
0.659632 0.86836 0.939025
0.66006 0.868574 0.939116
0.661982 0.868849 0.939239
0.740597 0.874769 0.942
0.880903 0.867155 0.944411
0.983612 0.830884 0.94374
1 0.81416 0.955993
1 0.940261 0.955154
0.659464 0.868269 0.938979
0.659678 0.868391 0.939025
0.659419 0.868238 0.938964
0.663874 0.868482 0.93901
0.741009 0.873915 0.941634
0.879561 0.866133 0.943923
0.982651 0.829908 0.943099
1 0.812375 0.955322
1 0.939574 0.954787
0.657603 0.867308 0.938506
0.657237 0.867109 0.93843
0.656428 0.866697 0.938247
0.671122 0.867658 0.93843
0.74583 0.872282 0.941039
0.879301 0.863951 0.942962
0.981689 0.827924 0.942077
1 0.814481 0.954253
1 0.940764 0.954269
0.624872 0.876829 0.940108
0.630518 0.877394 0.940124
0.639368 0.878233 0.940124
0.667826 0.880858 0.940368
0.743008 0.886519 0.942504
0.880858 0.882506 0.946914
0.985107 0.859129 0.946014
1 0.855497 0.953414
1 0.949645 0.953521
0.38555 0.936828 0.966339
0.392569 0.937301 0.966125
0.407446 0.938399 0.965881
0.449912 0.941726 0.965896
0.558923 0.950668 0.964981
0.764614 0.962341 0.960632
0.971145 0.964309 0.951659
1 0.964797 0.954253
1 0.977081 0.951507
0.588403 1 0.971679
0.590997 1 0.971496
0.5953 1 0.971237
0.610788 1 0.970596
0.654734 1 0.968978
0.763272 1 0.964111
0.928161 1 0.952773
1 0.999496 0.950927
1 1 0.950912
0.913222 1 0.949828
0.912978 1 0.94966
0.912718 1 0.949462
0.913329 1 0.949126
0.917113 1 0.948363
0.930053 1 0.947158
0.958007 1 0.945098
0.999542 1 0.945663
1 1 0.949538
0.880446 0.963638 0.98352
0.882002 0.964279 0.983658
0.883238 0.964782 0.983795
0.88423 0.965179 0.983886
0.886458 0.965438 0.983948
0.931136 0.962646 0.983749
0.987228 0.949142 0.984329
1 0.921462 0.983917
1 0.934051 0.978393
0.884276 0.965209 0.983902
0.88513 0.965545 0.983993
0.885634 0.965759 0.984039
0.886015 0.965911 0.98407
0.887556 0.965942 0.984039
0.931334 0.963043 0.98381
0.986969 0.949477 0.984375
1 0.921736 0.983978
1 0.933577 0.978439
0.885878 0.96585 0.984054
0.886198 0.965988 0.984085
0.886351 0.966033 0.984085
0.886397 0.966049 0.9841
0.887633 0.965972 0.984054
0.9308 0.963012 0.98378
0.986404 0.949447 0.984329
1 0.921447 0.983993
1 0.932509 0.978485
0.886137 0.965957 0.98407
0.886183 0.965972 0.984085
0.886061 0.965927 0.98407
0.885878 0.96585 0.984054
0.887343 0.965652 0.983978
0.929976 0.962631 0.983688
0.985626 0.949096 0.984207
1 0.92076 0.983948
1 0.930968 0.978485
0.885466 0.965682 0.984024
0.885298 0.965621 0.984009
0.884932 0.965484 0.983978
0.884504 0.965301 0.983917
0.887785 0.964981 0.98378
0.929686 0.961852 0.983566
0.984848 0.948379 0.984039
1 0.9196 0.983841
1 0.928954 0.978561
0.883787 0.965011 0.983856
0.883421 0.964843 0.98381
0.882856 0.96463 0.983764
0.882246 0.96437 0.983703
0.891737 0.96379 0.983474
0.931899 0.960525 0.983322
0.984878 0.947021 0.98378
1 0.917891 0.983536
1 0.93048 0.977981
0.856825 0.971405 0.983047
0.857374 0.971252 0.983017
0.858808 0.971084 0.982956
0.864317 0.970932 0.982879
0.881559 0.970657 0.982773
0.923064 0.969009 0.982147
0.980957 0.958511 0.981552
1 0.939483 0.981888
1 0.953216 0.974151
0.710018 1 0.986786
0.710597 1 0.98674
0.711925 1 0.986664
0.718807 1 0.986389
0.740001 1 0.985183
0.798016 1 0.981826
0.912154 1 0.974243
1 0.99704 0.968475
1 0.998596 0.967987
0.868849 1 0.975464
0.868589 1 0.975418
0.868345 1 0.975372
0.869566 1 0.975219
0.875212 1 0.974716
0.892302 1 0.973495
0.934676 1 0.970718
0.991119 1 0.968093
1 1 0.966506
