Swiniec_LUT_red.cube
TITLE "Generated by Resolve"
LUT_3D_SIZE 9
0.0585641 0.0173037 0.0296788
0.0764172 0.0201267 0.0327001
0.210346 0.0132448 0.0148623
0.390524 0 0
0.640558 0.0112764 0.00151064
0.905394 0.247684 0.143511
1 0.594858 0.393622
1 0.793347 0.602838
0.996719 0.882704 0.72459
0.0537575 0.0259709 0.0340887
0.0695506 0.0298314 0.0366064
0.177493 0.0413062 0.0323796
0.400549 0.0232395 0.00747692
0.66714 0.0554665 0.00794995
0.915145 0.283528 0.146685
1 0.60383 0.394522
1 0.794766 0.602823
0.996735 0.882811 0.724269
0.0448615 0.0615244 0.0387427
0.0460059 0.0760662 0.0402686
0.156619 0.114199 0.0545663
0.472847 0.148852 0.0224002
0.723857 0.187366 0.0141604
0.928573 0.342245 0.142962
1 0.617441 0.39292
1 0.796262 0.601068
0.996796 0.882612 0.72285
0.0495308 0.2159 0.03888
0.0493477 0.238132 0.0362097
0.0483864 0.29308 0.0312963
0.429786 0.362158 0.0277562
0.774105 0.409018 0.0181735
0.952865 0.514687 0.0851148
1 0.65771 0.389059
1 0.802335 0.597421
0.99678 0.883116 0.720897
0.0366217 0.551598 0.00326543
0.0356603 0.567407 0.00231937
0.0339513 0.594873 0.000595102
0.194415 0.657588 0.00161746
0.72163 0.659754 0.030396
0.947997 0.687495 0.0314488
0.998886 0.759701 0.38822
1 0.823499 0.592844
0.996338 0.886915 0.721111
0.0188296 0.842191 0.177447
0.0188144 0.842878 0.183169
0.0187839 0.843931 0.191073
0.254429 0.85388 0.216861
0.646006 0.856291 0.253666
0.901396 0.82501 0.270329
0.992844 0.838437 0.409155
0.997192 0.873686 0.620554
0.995605 0.900786 0.7355
0.499489 0.937819 0.484703
0.5093 0.937331 0.485283
0.524742 0.936675 0.486229
0.568704 0.935195 0.490196
0.678187 0.930266 0.502571
0.855497 0.91783 0.533471
0.972045 0.89987 0.557351
0.994217 0.90724 0.649317
0.994781 0.929747 0.799893
0.774823 0.958511 0.697276
0.775921 0.958282 0.696986
0.777813 0.957946 0.696544
0.784939 0.957061 0.696574
0.806836 0.954665 0.699092
0.863325 0.948974 0.709178
0.944823 0.94519 0.731517
0.986481 0.93846 0.748745
0.992676 0.943511 0.814221
0.91957 0.958923 0.844526
0.919448 0.958907 0.844175
0.919326 0.958877 0.843717
0.919997 0.95877 0.843397
0.922805 0.958495 0.843503
0.931044 0.95845 0.844907
0.950683 0.958312 0.850462
0.976349 0.958007 0.859373
0.988632 0.956451 0.869322
0.0599222 0.019501 0.0425879
0.069749 0.0206607 0.0442817
0.220127 0.0132906 0.031342
0.425895 0 0.00671397
0.642908 0.00367742 0.0201877
0.905791 0.242084 0.168658
1 0.594858 0.405203
1 0.793317 0.60592
0.996689 0.882811 0.726177
0.0565042 0.0242161 0.0423285
0.0694591 0.0266728 0.0453498
0.191714 0.032517 0.0380407
0.413001 0.0100557 0.0124819
0.664439 0.0402228 0.0240787
0.914626 0.276692 0.17203
1 0.603235 0.405768
1 0.794553 0.605722
0.996689 0.882841 0.725734
0.044892 0.0614939 0.0470893
0.0458839 0.0737926 0.0474098
0.164965 0.108797 0.0626383
0.468879 0.141024 0.0333257
0.716625 0.174884 0.0274815
0.926863 0.336019 0.170092
1 0.616571 0.403677
1 0.795941 0.603891
0.996765 0.882597 0.724224
0.0496376 0.211109 0.0451972
0.0495003 0.230243 0.0416724
0.0487526 0.28217 0.0382239
0.421897 0.354879 0.0321965
0.772686 0.410834 0.0188754
0.951034 0.514351 0.135958
1 0.656733 0.399115
1 0.801953 0.600198
0.99675 0.883055 0.72221
0.0368658 0.547524 0.00358587
0.035935 0.563104 0.00257877
0.0342107 0.590616 0.000869764
0.182437 0.654261 0.00155642
0.719814 0.66009 0.0323186
0.947127 0.691463 0.0669261
0.998749 0.760586 0.400031
1 0.823285 0.595529
0.996323 0.886809 0.722179
0.0188449 0.841917 0.176577
0.0188296 0.842603 0.182269
0.0187991 0.843641 0.190249
0.250706 0.853529 0.216068
0.645304 0.856062 0.252979
0.901381 0.82472 0.269505
0.992508 0.839261 0.419303
0.997162 0.873808 0.622919
0.99559 0.900694 0.736339
0.498619 0.937804 0.48452
0.508415 0.937316 0.485054
0.523888 0.936645 0.485954
0.567956 0.935164 0.489921
0.677653 0.930236 0.502281
0.855329 0.9178 0.533196
0.97203 0.899794 0.557076
0.994141 0.907454 0.651453
0.994766 0.929763 0.800427
0.774609 0.958495 0.697154
0.775708 0.958297 0.696849
0.777554 0.957961 0.696406
0.78468 0.957076 0.696406
0.806592 0.954665 0.698924
0.863127 0.948943 0.708995
0.944762 0.945159 0.731334
0.986465 0.93843 0.748577
0.992676 0.943526 0.814542
0.919478 0.958923 0.844434
0.919356 0.958907 0.844099
0.919234 0.958877 0.843626
0.91989 0.95877 0.84329
0.922713 0.958495 0.843381
0.930953 0.95845 0.84477
0.950622 0.958312 0.850355
0.976333 0.957992 0.859266
0.988632 0.956436 0.869245
0.0574807 0.0237125 0.0992294
0.0647593 0.0245823 0.101946
0.199771 0.0281529 0.118975
0.439734 0 0.110658
0.657969 0 0.112123
0.907301 0.234363 0.214725
1 0.593545 0.422309
1 0.792981 0.610971
0.996658 0.882826 0.728359
0.0555581 0.0267796 0.103227
0.0669566 0.0281376 0.105821
0.209949 0.0321202 0.1205
0.457801 0.00138857 0.115648
0.678614 0.0245975 0.121813
0.915099 0.266682 0.219425
1 0.601297 0.422782
1 0.793973 0.610452
0.996658 0.882795 0.72784
0.0460212 0.0760815 0.118654
0.0467536 0.0869306 0.123552
0.154253 0.109255 0.137575
0.456901 0.124163 0.123003
0.713497 0.151629 0.133654
0.925444 0.325567 0.220279
1 0.614511 0.42063
1 0.79527 0.608331
0.996719 0.88249 0.726329
0.0500954 0.220249 0.122896
0.0499886 0.240955 0.116747
0.0493019 0.290288 0.116411
0.421866 0.359548 0.126741
0.773007 0.416297 0.119173
0.947356 0.513161 0.209415
1 0.654704 0.416266
1 0.801175 0.604578
0.996704 0.882933 0.724346
0.0382086 0.540627 0.0317693
0.0373388 0.554803 0.0289464
0.0357214 0.581262 0.026978
0.121859 0.644465 0.0361944
0.711742 0.663935 0.0577707
0.945602 0.697093 0.181262
0.998367 0.761791 0.41886
1 0.822583 0.599939
0.996307 0.88661 0.723918
0.0189364 0.841123 0.180575
0.0189212 0.841794 0.186374
0.0189059 0.842832 0.19498
0.236271 0.852415 0.221408
0.641672 0.855985 0.263752
0.899519 0.82623 0.292134
0.99205 0.840635 0.436744
0.997116 0.873976 0.626474
0.995575 0.900557 0.737652
0.497017 0.937789 0.484077
0.506783 0.937285 0.484596
0.522377 0.936584 0.485481
0.566629 0.935119 0.489448
0.676738 0.93019 0.501778
0.855055 0.917723 0.532738
0.97203 0.899687 0.556619
0.994079 0.907774 0.65507
0.99472 0.929824 0.801236
0.774243 0.958526 0.696956
0.775311 0.958312 0.696635
0.777173 0.957961 0.696162
0.784298 0.957076 0.696147
0.806241 0.954681 0.698619
0.862867 0.948943 0.708721
0.944671 0.945113 0.731075
0.98645 0.938399 0.748318
0.99266 0.943557 0.814969
0.919341 0.958938 0.844327
0.919188 0.958907 0.843961
0.919066 0.958877 0.843503
0.919738 0.958755 0.843153
0.92256 0.958495 0.843244
0.930846 0.958419 0.844602
0.95053 0.958297 0.850202
0.976287 0.957992 0.859129
0.988647 0.95642 0.869123
0.0522927 0.0305791 0.234043
0.0592355 0.0318761 0.236194
0.156344 0.0385443 0.244556
0.404959 0 0.258946
0.650309 0 0.294942
0.921126 0.23389 0.378241
1 0.589624 0.472145
1 0.791318 0.624933
0.996643 0.882597 0.733974
0.0503853 0.0337682 0.24387
0.0597086 0.0357519 0.244877
0.168307 0.0424201 0.254612
0.419211 0.00167849 0.268833
0.674876 0.00505074 0.311772
0.927901 0.263081 0.384375
1 0.596445 0.472541
1 0.792111 0.624323
0.996674 0.882475 0.733394
0.0454414 0.0801099 0.270619
0.0458228 0.0869917 0.288182
0.157717 0.0977951 0.304128
0.477867 0.0847181 0.323491
0.722835 0.0840772 0.341543
0.936461 0.313436 0.389548
1 0.60824 0.470405
1 0.793164 0.622141
0.996719 0.882124 0.731838
0.0497749 0.236362 0.322774
0.0496986 0.251987 0.325017
0.0492409 0.290669 0.340719
0.394034 0.36437 0.371283
0.752117 0.398001 0.359014
0.939147 0.499947 0.392874
1 0.647547 0.46482
1 0.798917 0.617594
0.996674 0.882521 0.730022
0.041413 0.513497 0.250187
0.0402838 0.534646 0.246906
0.0382391 0.57113 0.245914
0.0343481 0.635981 0.272602
0.69572 0.671839 0.349737
0.938109 0.711116 0.379965
0.997086 0.764157 0.469535
1 0.820157 0.612146
0.996201 0.886122 0.729381
0.0193942 0.839597 0.233082
0.0193942 0.839841 0.23888
0.0193942 0.840528 0.247715
0.111345 0.844358 0.273075
0.61265 0.853681 0.324742
0.890532 0.832441 0.378256
0.9906 0.845472 0.48687
0.996963 0.874754 0.6374
0.995499 0.900267 0.741451
0.487358 0.93785 0.488197
0.497124 0.937362 0.488716
0.513146 0.936553 0.489418
0.558511 0.935088 0.493782
0.670359 0.930129 0.506584
0.852811 0.917678 0.539681
0.971069 0.900618 0.568856
0.993896 0.908766 0.666072
0.994659 0.929976 0.803479
0.773404 0.958587 0.696574
0.774487 0.958358 0.696223
0.776349 0.958007 0.69575
0.783475 0.957107 0.69572
0.805493 0.954711 0.698131
0.862333 0.948943 0.708278
0.944518 0.945083 0.730694
0.986435 0.938323 0.747936
0.99263 0.943618 0.816693
0.919127 0.958938 0.844175
0.918975 0.958923 0.843809
0.918853 0.958862 0.843336
0.919493 0.95877 0.842969
0.922362 0.958495 0.843061
0.930678 0.958419 0.844419
0.950393 0.958282 0.850019
0.976257 0.957977 0.858976
0.988647 0.956405 0.869001
0.0507515 0.0881208 0.462348
0.0537881 0.0923171 0.47013
0.110475 0.105455 0.481422
0.414542 0.112551 0.475959
0.634241 0.0274815 0.475242
0.907164 0.255711 0.584573
1 0.588647 0.62414
1 0.785809 0.668223
0.996536 0.881987 0.750607
0.0506294 0.093019 0.471534
0.0548867 0.0968338 0.478218
0.119463 0.10956 0.486702
0.421607 0.114611 0.480049
0.6392 0.0339513 0.479973
0.915114 0.278401 0.592294
1 0.594766 0.625528
1 0.786358 0.667826
0.996567 0.881758 0.750027
0.0479744 0.107393 0.478233
0.052369 0.113024 0.487541
0.120546 0.126741 0.496056
0.436728 0.137484 0.492119
0.662867 0.0822766 0.496483
0.92665 0.314565 0.600626
1 0.603891 0.624781
1 0.786908 0.665782
0.996643 0.881209 0.74844
0.0487831 0.241245 0.506477
0.0486763 0.25713 0.51754
0.0483711 0.28513 0.536294
0.420844 0.331365 0.564263
0.750271 0.335622 0.579538
0.95407 0.445167 0.618662
1 0.638132 0.620783
1 0.792554 0.660945
0.996643 0.881575 0.74638
0.0439918 0.452979 0.496452
0.0433204 0.468528 0.501167
0.0417639 0.502022 0.512398
0.0359808 0.608591 0.547478
0.66688 0.67509 0.600458
0.913985 0.701518 0.592523
0.994873 0.758724 0.608927
1 0.813916 0.65243
0.996109 0.885237 0.745144
0.0212863 0.823056 0.447745
0.0208896 0.828138 0.451316
0.0202945 0.83566 0.458244
0.0194858 0.846098 0.481682
0.538918 0.850706 0.541054
0.874083 0.844923 0.586007
0.987045 0.857298 0.610742
0.996628 0.876646 0.66746
0.99527 0.899489 0.753445
0.424567 0.939544 0.53782
0.436698 0.939086 0.538552
0.455222 0.938262 0.539544
0.50782 0.936233 0.543496
0.630488 0.930205 0.554009
0.835996 0.917678 0.585748
0.96614 0.904997 0.621073
0.992981 0.911818 0.697398
0.994339 0.930739 0.811383
0.769375 0.959045 0.699657
0.770443 0.958831 0.699275
0.772274 0.958465 0.698802
0.779416 0.957488 0.698848
0.801633 0.955016 0.70071
0.859388 0.949218 0.710994
0.943511 0.945006 0.735119
0.985992 0.938811 0.755123
0.992401 0.944183 0.822751
0.9187 0.958953 0.843931
0.918547 0.958938 0.843534
0.91841 0.958892 0.843061
0.919051 0.958785 0.842695
0.92195 0.958495 0.842771
0.930388 0.958404 0.844129
0.950179 0.958251 0.84976
0.976196 0.957977 0.858763
0.988663 0.956359 0.868833
0.0476081 0.280293 0.668345
0.0475471 0.283925 0.670954
0.0540322 0.299947 0.684535
0.372335 0.340581 0.707637
0.691188 0.340932 0.699321
0.85626 0.319966 0.726604
1 0.581613 0.79324
1 0.787015 0.78851
0.995911 0.880949 0.795026
0.0474098 0.288685 0.674327
0.0473945 0.291051 0.676127
0.0547189 0.306477 0.689158
0.379583 0.345449 0.710689
0.693111 0.344594 0.701717
0.85684 0.322576 0.728191
1 0.586358 0.7944
1 0.787625 0.788983
0.995941 0.880629 0.79472
0.047364 0.292195 0.676829
0.0475319 0.294667 0.679011
0.0584726 0.310094 0.69189
0.386206 0.347143 0.711315
0.693599 0.344991 0.702007
0.856703 0.324132 0.728206
1 0.593301 0.794461
1 0.788128 0.788312
0.996048 0.880003 0.793484
0.0471504 0.309331 0.676234
0.0469978 0.317159 0.682185
0.0497139 0.334585 0.695094
0.386252 0.3729 0.715877
0.705379 0.382757 0.713344
0.874983 0.385489 0.739452
1 0.620752 0.79411
1 0.792004 0.786023
0.996078 0.880003 0.79144
0.0436866 0.439994 0.679683
0.043122 0.454124 0.68603
0.0419776 0.480415 0.697322
0.0381018 0.55938 0.725216
0.678141 0.629709 0.766583
0.91519 0.643244 0.780438
1 0.717891 0.790814
1 0.809171 0.780499
0.995605 0.883452 0.789044
0.028748 0.717083 0.677867
0.0281376 0.725887 0.682658
0.0271153 0.740337 0.690318
0.0244907 0.776318 0.713115
0.447593 0.840833 0.755062
0.852399 0.849958 0.77438
0.974334 0.859617 0.765759
0.995483 0.876219 0.768841
0.994507 0.8972 0.789609
0.214069 0.937255 0.718044
0.236652 0.937758 0.71899
0.273411 0.938613 0.720806
0.369848 0.940108 0.727214
0.551873 0.938537 0.739269
0.792477 0.924361 0.74876
0.954269 0.917311 0.764462
0.99089 0.920531 0.779278
0.993454 0.931914 0.829831
0.743145 0.962615 0.744396
0.744366 0.962386 0.743786
0.746349 0.962036 0.742992
0.75407 0.961044 0.74226
0.777295 0.958144 0.741802
0.837232 0.951675 0.745663
0.935103 0.945739 0.766674
0.983963 0.941299 0.78967
0.99173 0.945922 0.839643
0.916899 0.959243 0.844877
0.916747 0.959213 0.844465
0.916594 0.959182 0.843976
0.91725 0.95906 0.843595
0.920348 0.958755 0.843671
0.928985 0.95845 0.845075
0.949081 0.958312 0.850797
0.975921 0.957992 0.860365
0.988327 0.956573 0.870985
0.27744 0.552895 0.815244
0.283192 0.556939 0.816846
0.288594 0.56022 0.818173
0.426764 0.586801 0.830961
0.657099 0.618799 0.837217
0.867002 0.595026 0.83859
0.970565 0.586831 0.868894
1 0.772992 0.881666
0.991699 0.894194 0.881209
0.291814 0.562753 0.81915
0.294972 0.564889 0.820005
0.299138 0.56669 0.820768
0.432868 0.591546 0.8327
0.659007 0.621729 0.838453
0.86714 0.597406 0.839414
0.970199 0.587381 0.869184
1 0.773114 0.881834
0.991699 0.893858 0.881285
0.298222 0.567071 0.820859
0.299702 0.568093 0.821256
0.305913 0.569512 0.821958
0.436835 0.593256 0.833341
0.659327 0.622187 0.838636
0.866331 0.597635 0.839338
0.969268 0.586175 0.868788
1 0.773236 0.881544
0.991775 0.893126 0.880873
0.299245 0.567773 0.821134
0.299626 0.568048 0.821241
0.320897 0.571801 0.823301
0.44831 0.594263 0.833875
0.661479 0.620859 0.837888
0.865461 0.595712 0.838529
0.968429 0.58613 0.867826
1 0.777188 0.880934
0.991897 0.892607 0.879942
0.223667 0.582925 0.817655
0.25626 0.588632 0.820264
0.310277 0.597787 0.824353
0.437934 0.620493 0.834623
0.661326 0.646876 0.841993
0.872938 0.635798 0.845762
0.974685 0.642802 0.867903
1 0.795834 0.880064
0.991867 0.893523 0.878202
0.0301671 0.687648 0.825116
0.0298161 0.692943 0.826978
0.0292058 0.702251 0.830106
0.0273442 0.729686 0.838331
0.472007 0.794293 0.859022
0.843427 0.826246 0.87129
0.973541 0.831556 0.875837
0.995315 0.85713 0.877348
0.992355 0.900526 0.873991
0.0159762 0.882979 0.851759
0.0158846 0.884138 0.852232
0.0157778 0.885542 0.853056
0.10341 0.8934 0.859388
0.418128 0.912184 0.872663
0.748684 0.924392 0.874754
0.941588 0.922621 0.872831
0.984237 0.925963 0.870756
0.99089 0.929946 0.868849
0.67538 0.969039 0.868101
0.676982 0.968933 0.867658
0.67953 0.96875 0.867094
0.690593 0.968292 0.86627
0.724956 0.966018 0.864866
0.801633 0.959823 0.861189
0.912856 0.950042 0.85684
0.977462 0.947936 0.867063
0.989792 0.94995 0.876707
0.904448 0.961578 0.862989
0.904295 0.961563 0.862623
0.904158 0.961501 0.86215
0.90483 0.961395 0.861723
0.907958 0.96112 0.861448
0.918151 0.960342 0.861646
0.940444 0.959503 0.865095
0.971939 0.958358 0.872389
0.987503 0.957183 0.881621
0.625788 0.801007 0.903868
0.62945 0.803143 0.904784
0.632364 0.804837 0.905486
0.635599 0.806348 0.906096
0.715221 0.81471 0.910109
0.856062 0.809018 0.914977
0.959792 0.772534 0.917678
1 0.757458 0.932052
0.992569 0.889937 0.923537
0.634806 0.806287 0.906081
0.636774 0.807431 0.906554
0.638086 0.808209 0.906905
0.640116 0.808911 0.90721
0.717571 0.81648 0.910872
0.856428 0.810254 0.915465
0.959548 0.77348 0.917937
1 0.757366 0.932097
0.99263 0.88925 0.923598
0.638743 0.808591 0.907073
0.639643 0.80911 0.907301
0.64004 0.809354 0.907393
0.641886 0.809659 0.907515
0.71783 0.816693 0.910964
0.855589 0.810224 0.915419
0.958877 0.773358 0.917708
1 0.756283 0.931807
0.992676 0.888167 0.923461
0.63949 0.809033 0.907256
0.639689 0.809155 0.907301
0.639445 0.809003 0.90724
0.643732 0.809308 0.907332
0.718303 0.815839 0.910628
0.854337 0.809125 0.914946
0.957977 0.772351 0.917082
1 0.754437 0.931197
0.992721 0.887449 0.923125
0.637751 0.808011 0.906813
0.6374 0.807797 0.906737
0.636652 0.80737 0.906554
0.650828 0.80853 0.906859
0.723095 0.814176 0.910155
0.854215 0.806867 0.914076
0.957153 0.770291 0.916106
1 0.756634 0.929961
0.992599 0.888701 0.922499
0.605478 0.817472 0.907454
0.610895 0.818128 0.9075
0.619379 0.81912 0.907561
0.646754 0.822202 0.908003
0.719432 0.828962 0.91075
0.854597 0.826215 0.917082
0.95877 0.802792 0.918517
0.997467 0.799313 0.926833
0.992157 0.89807 0.921141
0.372396 0.876173 0.927077
0.379019 0.876799 0.926955
0.393027 0.878202 0.926879
0.433082 0.882399 0.927382
0.536675 0.893492 0.927489
0.735286 0.908553 0.924865
0.938293 0.913008 0.917632
0.985656 0.914 0.920821
0.989563 0.927047 0.917144
0.559792 0.965484 0.929702
0.562325 0.965362 0.929564
0.566491 0.965209 0.929381
0.581506 0.964996 0.928985
0.624125 0.964858 0.928008
0.730205 0.961975 0.924743
0.89308 0.953017 0.915618
0.972778 0.950607 0.914794
0.987472 0.952407 0.914809
0.877241 0.968338 0.911269
0.877012 0.968307 0.91107
0.876768 0.968277 0.910857
0.877363 0.968185 0.910521
0.881132 0.967834 0.909804
0.894011 0.966506 0.908797
0.921874 0.963668 0.907164
0.963302 0.960098 0.908507
0.985031 0.95964 0.912856
0.848753 0.911254 0.950271
0.850233 0.91194 0.950393
0.851408 0.912474 0.950515
0.852369 0.912917 0.950607
0.854536 0.913207 0.950668
0.898787 0.910765 0.951141
0.955169 0.897093 0.953262
0.98909 0.868284 0.954955
0.99443 0.88159 0.948379
0.852415 0.912947 0.950622
0.853223 0.913314 0.950683
0.853712 0.913527 0.950729
0.854078 0.913695 0.950759
0.855604 0.913756 0.950744
0.898955 0.911177 0.951186
0.954894 0.897444 0.953292
0.988983 0.868559 0.955001
0.99443 0.881102 0.948455
0.853941 0.913634 0.950744
0.854261 0.913787 0.950774
0.854398 0.913832 0.950774
0.854444 0.913863 0.95079
0.85568 0.913787 0.950759
0.898436 0.911147 0.951141
0.95433 0.897414 0.953231
0.988785 0.868269 0.955032
0.994446 0.879973 0.948577
0.8542 0.913756 0.950759
0.854246 0.913771 0.950774
0.854124 0.913725 0.950759
0.853941 0.913634 0.950744
0.855406 0.913451 0.950683
0.897642 0.910735 0.95108
0.953597 0.897032 0.953124
0.988571 0.867521 0.955032
0.994461 0.878355 0.948684
0.853544 0.913466 0.950713
0.853391 0.91339 0.950698
0.85304 0.913237 0.950668
0.852644 0.913054 0.950622
0.855879 0.912734 0.950545
0.897414 0.909911 0.950988
0.952865 0.896269 0.952987
0.988357 0.866316 0.954986
0.994522 0.876234 0.948882
0.851942 0.912718 0.950576
0.851591 0.912551 0.95053
0.851057 0.912306 0.950484
0.850477 0.912032 0.950423
0.859861 0.911543 0.950332
0.899687 0.908537 0.950851
0.952987 0.894835 0.952804
0.98819 0.864515 0.954772
0.994293 0.877836 0.94818
0.824979 0.919158 0.948959
0.825513 0.919005 0.948943
0.826932 0.918853 0.948898
0.832364 0.918761 0.948898
0.849363 0.918654 0.949004
0.890394 0.917388 0.948928
0.948333 0.90692 0.949645
0.987518 0.887251 0.951659
0.992844 0.901808 0.942641
0.678248 0.960037 0.947997
0.678828 0.959884 0.947967
0.68014 0.959716 0.947921
0.686885 0.959411 0.947768
0.707622 0.958938 0.946838
0.764538 0.957427 0.944228
0.877287 0.952163 0.938094
0.972427 0.947982 0.93344
0.988891 0.949798 0.932998
0.832944 0.975021 0.937209
0.832685 0.97499 0.937148
0.832456 0.97496 0.937102
0.833661 0.974777 0.93698
0.839292 0.974105 0.936568
0.856245 0.97261 0.935622
0.898421 0.96817 0.933547
0.954742 0.962493 0.931853
0.983154 0.961273 0.930602
