Swiniec_LUT_0.cube
TITLE "Generated by Resolve"
LUT_3D_SIZE 5
0.0223545 0.0271916 0.0187381
0.19559 0.0263676 0.00289921
0.649531 0.0357061 0
0.992782 0.636622 0.40798
0.994873 0.90483 0.739498
0 0.0850538 0.0222171
0.122255 0.148058 0.0384222
0.71342 0.233661 0
0.992432 0.658076 0.408026
0.994934 0.904723 0.737865
0 0.609171 0
0 0.651667 0
0.71603 0.702861 0.0137942
0.990936 0.791745 0.409384
0.994751 0.908675 0.736477
0.507225 0.961639 0.52108
0.532525 0.960189 0.522026
0.685161 0.952102 0.534951
0.971984 0.920897 0.582132
0.995789 0.947814 0.812482
0.924361 0.975189 0.856474
0.924117 0.975143 0.855726
0.927489 0.974762 0.855467
0.954665 0.974289 0.861555
0.991501 0.972198 0.878416
0.0195926 0.0364233 0.103441
0.17998 0.0454108 0.127565
0.672526 0.0162661 0.138476
0.992966 0.635309 0.436362
0.994812 0.904936 0.743038
0 0.102983 0.118669
0.119768 0.142153 0.137911
0.703441 0.193759 0.134722
0.992523 0.655238 0.43537
0.994858 0.904616 0.741115
0 0.597467 0.0218051
0 0.637507 0.0186923
0.70573 0.706325 0.0491951
0.990433 0.793591 0.439796
0.99469 0.908385 0.739086
0.504738 0.961639 0.520516
0.530144 0.960143 0.52134
0.683726 0.952056 0.534203
0.971954 0.920729 0.581415
0.995743 0.94789 0.813748
0.924147 0.975204 0.856291
0.923873 0.975143 0.855528
0.92726 0.974762 0.855222
0.954513 0.974273 0.861311
0.991516 0.972168 0.878233
0.00582895 0.12047 0.48159
0.0733806 0.140261 0.498787
0.639429 0.0557717 0.507073
0.995041 0.630533 0.631907
0.994659 0.904158 0.763836
0.00161746 0.143069 0.496025
0.0833295 0.164492 0.511849
0.659388 0.118532 0.519112
0.994949 0.645029 0.632959
0.99472 0.903441 0.761761
0 0.50898 0.515358
0 0.55787 0.533013
0.658793 0.71487 0.614878
0.986557 0.790478 0.623835
0.99443 0.907134 0.758907
0.431586 0.964401 0.573922
0.462516 0.962692 0.574899
0.637675 0.952621 0.585229
0.966445 0.925566 0.643351
0.995422 0.94873 0.82324
0.923522 0.975219 0.85594
0.923232 0.975174 0.855131
0.926665 0.974777 0.854795
0.954177 0.974243 0.860899
0.991531 0.972122 0.877958
0.256947 0.603067 0.817395
0.268894 0.609995 0.820249
0.647028 0.661967 0.835798
0.956542 0.629419 0.861967
0.990753 0.915465 0.885832
0.279255 0.616495 0.822873
0.287358 0.618738 0.823865
0.649409 0.665171 0.837217
0.955261 0.628824 0.86186
0.990753 0.914488 0.885466
0.201999 0.633127 0.821851
0.293217 0.64596 0.827192
0.65243 0.688609 0.841245
0.96231 0.682383 0.862654
0.990875 0.914855 0.883024
0 0.923461 0.877562
0 0.925856 0.87895
0.423224 0.939559 0.88716
0.943603 0.941924 0.880232
0.992081 0.948074 0.876417
0.909789 0.977783 0.873884
0.909499 0.977722 0.873106
0.913176 0.977325 0.872389
0.944778 0.975494 0.875257
0.990463 0.972885 0.889815
0.852201 0.932677 0.951904
0.854887 0.933776 0.952163
0.858 0.934401 0.9523
0.955428 0.918593 0.952621
0.992798 0.90399 0.946899
0.857435 0.934798 0.952407
0.857893 0.934981 0.952438
0.859144 0.93492 0.952407
0.954635 0.918883 0.952621
0.992721 0.90251 0.94699
0.857038 0.934646 0.952377
0.856535 0.934447 0.952331
0.859281 0.933959 0.952148
0.95314 0.917861 0.952346
0.992584 0.899092 0.947082
0.829358 0.940185 0.951446
0.831266 0.939879 0.951354
0.853254 0.939437 0.951156
0.94934 0.927626 0.94992
0.992401 0.922484 0.942733
0.840787 0.990921 0.943908
0.840299 0.990875 0.943816
0.846937 0.990021 0.943191
0.904402 0.983917 0.939284
0.986542 0.976684 0.935149
