DIT_DOCS/ARRI_HDR_Lookfiles_3DLUTs_190319/3D_LUTs_for_cinema_grading/ARRI_P3-D65-PQ-108_65.cube
LUT_3D_SIZE 65
1e-06 1e-06 1e-06
5e-06 3e-06 3e-06
2.3e-05 5e-06 5e-06
8.3e-05 7e-06 8e-06
0.00024 7e-06 1e-05
0.000581 4e-06 9e-06
0.001217 1e-06 6e-06
0.002243 1e-06 9e-06
0.003769 1e-06 1.2e-05
0.005881 1e-06 1.6e-05
0.008651 1e-06 2.1e-05
0.012131 1e-06 2.7e-05
0.016359 1e-06 3.4e-05
0.021365 1e-06 4.4e-05
0.02717 1e-06 5.5e-05
0.033798 1e-06 7e-05
0.04127 1e-06 8.7e-05
0.049611 1e-06 0.000107
0.058426 1e-06 0.000132
0.067132 1e-06 0.000162
0.075678 1e-06 0.000197
0.08404 1e-06 0.000238
0.092412 1e-06 0.000287
0.101199 1e-06 0.000349
0.110376 1e-06 0.000427
0.119899 1e-06 0.000525
0.129722 1e-06 0.000648
0.139798 1e-06 0.000801
0.15008 1e-06 0.000992
0.160521 1e-06 0.001229
0.171075 1e-06 0.001521
0.181733 1e-06 0.001879
0.192486 1e-06 0.002318
0.203301 1e-06 0.002851
0.214148 1e-06 0.003495
0.224999 1e-06 0.004268
0.235826 1e-06 0.005188
0.246603 1e-06 0.006274
0.257308 1e-06 0.007547
0.267919 1e-06 0.009026
0.278415 1e-06 0.01073
0.288777 1e-06 0.012677
0.298988 1e-06 0.014884
0.309042 1e-06 0.017366
0.318939 1e-06 0.02014
0.32866 1e-06 0.023215
0.338148 1e-06 0.026579
0.347374 1e-06 0.030223
0.356335 1e-06 0.03414
0.365026 1e-06 0.038318
0.373445 1e-06 0.042743
0.38159 1e-06 0.047397
0.38946 1e-06 0.052233
0.397055 1e-06 0.057024
0.404374 1e-06 0.061715
0.411418 1e-06 0.066293
0.418187 1e-06 0.070749
0.424682 1e-06 0.075074
0.430904 1e-06 0.079261
0.43686 1e-06 0.083306
0.442558 1e-06 0.08721
0.448006 1e-06 0.090972
0.453213 1e-06 0.094595
0.458188 1e-06 0.09808
0.462937 1e-06 0.101428
1.6e-05 2.3e-05 1.6e-05
4e-05 4.2e-05 2.2e-05
0.000114 6.6e-05 2.5e-05
0.000295 9.1e-05 2.6e-05
0.000671 0.000114 2.1e-05
0.001352 0.000132 1.3e-05
0.002461 0.00014 4e-06
0.004096 0.000127 7e-06
0.006347 0.000102 1.2e-05
0.009276 6.7e-05 1.7e-05
0.012927 2.8e-05 2.5e-05
0.017323 1e-06 3.5e-05
0.022446 1e-06 4.6e-05
0.028293 1e-06 5.8e-05
0.034896 1e-06 7.2e-05
0.042261 1e-06 8.9e-05
0.0504 1e-06 0.000109
0.058868 1e-06 0.000134
0.067288 1e-06 0.000162
0.075644 1e-06 0.000197
0.083852 1e-06 0.000237
0.092076 1e-06 0.000285
0.10072 1e-06 0.000346
0.109765 1e-06 0.000421
0.119168 1e-06 0.000517
0.128888 1e-06 0.000636
0.138878 1e-06 0.000786
0.149093 1e-06 0.000972
0.159489 1e-06 0.001204
0.170018 1e-06 0.001489
0.180638 1e-06 0.001839
0.191311 1e-06 0.002266
0.202046 1e-06 0.002784
0.212823 1e-06 0.00341
0.223614 1e-06 0.004162
0.234392 1e-06 0.005057
0.245132 1e-06 0.006115
0.255809 1e-06 0.007356
0.266401 1e-06 0.0088
0.27689 1e-06 0.010466
0.287274 1e-06 0.012377
0.297541 1e-06 0.014553
0.307672 1e-06 0.017009
0.317647 1e-06 0.019759
0.32745 1e-06 0.022812
0.337065 1e-06 0.026176
0.346469 1e-06 0.029849
0.355603 1e-06 0.033806
0.364456 1e-06 0.038032
0.373026 1e-06 0.042513
0.381311 1e-06 0.047231
0.389311 1e-06 0.052139
0.397026 1e-06 0.057005
0.404455 1e-06 0.061767
0.411601 1e-06 0.066413
0.418463 1e-06 0.070932
0.425043 1e-06 0.075316
0.431344 1e-06 0.079558
0.437376 1e-06 0.083658
0.443146 1e-06 0.087615
0.448665 1e-06 0.091429
0.453939 1e-06 0.095103
0.458978 1e-06 0.098636
0.463788 1e-06 0.10203
0.468378 1e-06 0.105289
5.7e-05 0.000158 6.5e-05
0.000123 0.000239 6.5e-05
0.000294 0.000333 5.7e-05
0.000662 0.00043 4.1e-05
0.001339 0.000525 2.1e-05
0.002448 0.000612 1e-06
0.004093 0.000661 1e-06
0.006385 0.000678 2e-06
0.009377 0.000667 6e-06
0.013103 0.000629 1.2e-05
0.017578 0.000563 1.9e-05
0.022801 0.000473 2.9e-05
0.028763 0.000363 4.2e-05
0.035453 0.000241 5.7e-05
0.042862 0.000118 7.7e-05
0.05098 1.8e-05 0.000102
0.059316 1e-06 0.000133
0.06747 1e-06 0.000163
0.075525 1e-06 0.000196
0.083522 1e-06 0.000235
0.091578 1e-06 0.000282
0.100054 1e-06 0.000341
0.10894 1e-06 0.000414
0.118197 1e-06 0.000506
0.127786 1e-06 0.000622
0.137664 1e-06 0.000766
0.147786 1e-06 0.000946
0.158108 1e-06 0.00117
0.168587 1e-06 0.001447
0.179179 1e-06 0.001787
0.189841 1e-06 0.002202
0.200533 1e-06 0.002705
0.211235 1e-06 0.003311
0.221959 1e-06 0.004037
0.23268 1e-06 0.004904
0.243375 1e-06 0.005929
0.254022 1e-06 0.007134
0.264624 1e-06 0.008542
0.275157 1e-06 0.010173
0.285596 1e-06 0.01205
0.295921 1e-06 0.014189
0.306112 1e-06 0.016609
0.316149 1e-06 0.019323
0.326017 1e-06 0.022343
0.335699 1e-06 0.025675
0.345182 1e-06 0.029323
0.354454 1e-06 0.033286
0.363478 1e-06 0.037545
0.372208 1e-06 0.042068
0.380642 1e-06 0.046836
0.388781 1e-06 0.051809
0.396625 1e-06 0.056751
0.404174 1e-06 0.061586
0.41143 1e-06 0.066301
0.418393 1e-06 0.070886
0.425067 1e-06 0.075332
0.431458 1e-06 0.079635
0.437576 1e-06 0.083795
0.44343 1e-06 0.08781
0.449029 1e-06 0.091682
0.454379 1e-06 0.09541
0.459491 1e-06 0.098997
0.464371 1e-06 0.102443
0.469027 1e-06 0.105751
0.473467 1e-06 0.108923
0.000116 0.000604 0.000148
0.000239 0.000825 0.000124
0.000531 0.001068 8.4e-05
0.001118 0.001317 3.8e-05
0.002142 0.00156 1e-06
0.003711 0.001752 1e-06
0.005931 0.001887 1e-06
0.0089 0.00198 1e-06
0.012644 0.00203 1e-06
0.017167 0.002035 3e-06
0.022452 0.001996 9e-06
0.028477 0.001913 1.8e-05
0.03521 0.001788 2.9e-05
0.042625 0.001621 4.4e-05
0.050699 0.001413 6.2e-05
0.058953 0.001166 8.6e-05
0.067055 0.000888 0.000115
0.075023 0.000588 0.000152
0.082885 0.000291 0.000197
0.090796 5.2e-05 0.000253
0.099187 1e-06 0.000326
0.107936 1e-06 0.000405
0.117024 1e-06 0.000493
0.126459 1e-06 0.000604
0.136198 1e-06 0.000743
0.146201 1e-06 0.000916
0.156425 1e-06 0.001131
0.166827 1e-06 0.001397
0.177365 1e-06 0.001724
0.187995 1e-06 0.002124
0.198679 1e-06 0.002611
0.209377 1e-06 0.003197
0.220052 1e-06 0.003899
0.230727 1e-06 0.004735
0.241416 1e-06 0.005728
0.252091 1e-06 0.006901
0.262725 1e-06 0.008273
0.273292 1e-06 0.009866
0.283769 1e-06 0.011701
0.294134 1e-06 0.013797
0.304367 1e-06 0.016172
0.31445 1e-06 0.01884
0.324367 1e-06 0.021813
0.334103 1e-06 0.025099
0.343642 1e-06 0.028704
0.352973 1e-06 0.032626
0.362084 1e-06 0.036861
0.370963 1e-06 0.041398
0.379558 1e-06 0.0462
0.387846 1e-06 0.051225
0.395829 1e-06 0.056245
0.403507 1e-06 0.061155
0.410882 1e-06 0.065943
0.417956 1e-06 0.070596
0.424735 1e-06 0.075109
0.431228 1e-06 0.079479
0.437443 1e-06 0.083704
0.443391 1e-06 0.087784
0.449079 1e-06 0.091717
0.454517 1e-06 0.095506
0.45971 1e-06 0.099152
0.464669 1e-06 0.102655
0.4694 1e-06 0.106017
0.473911 1e-06 0.109241
0.478209 1e-06 0.112329
0.000164 0.001648 0.000248
0.000351 0.002103 0.000177
0.00077 0.002589 9e-05
0.001581 0.003084 1.5e-05
0.002945 0.003542 1e-06
0.004965 0.003877 1e-06
0.007765 0.004156 1e-06
0.011408 0.004375 1e-06
0.015897 0.004533 1e-06
0.021203 0.004631 1e-06
0.027284 0.00467 1e-06
0.03409 0.004651 3e-06
0.041572 0.004574 1.2e-05
0.049687 0.00444 2.4e-05
0.058026 0.004244 4e-05
0.066145 0.003986 6.1e-05
0.074068 0.003659 8.7e-05
0.081824 0.003261 0.00012
0.089546 0.002786 0.000162
0.097672 0.002232 0.000217
0.106272 0.001609 0.00029
0.115311 0.00096 0.000386
0.124695 0.000375 0.000509
0.134387 5e-06 0.000667
0.144348 1e-06 0.000866
0.154483 1e-06 0.001086
0.164784 1e-06 0.00134
0.175242 1e-06 0.001653
0.185817 1e-06 0.002036
0.19647 1e-06 0.002503
0.207188 1e-06 0.003068
0.21794 1e-06 0.00375
0.228682 1e-06 0.004563
0.239386 1e-06 0.005527
0.250071 1e-06 0.006664
0.260718 1e-06 0.007997
0.2713 1e-06 0.009547
0.281796 1e-06 0.011335
0.292183 1e-06 0.01338
0.302443 1e-06 0.015701
0.312557 1e-06 0.018312
0.322509 1e-06 0.021228
0.332283 1e-06 0.024456
0.341865 1e-06 0.028002
0.351244 1e-06 0.031868
0.360406 1e-06 0.036049
0.369341 1e-06 0.040538
0.37804 1e-06 0.045322
0.386482 1e-06 0.050376
0.394614 1e-06 0.055475
0.402431 1e-06 0.060463
0.409936 1e-06 0.065325
0.417132 1e-06 0.070051
0.424028 1e-06 0.074637
0.430634 1e-06 0.079078
0.436959 1e-06 0.083374
0.443011 1e-06 0.087522
0.4488 1e-06 0.091523
0.454333 1e-06 0.095378
0.459619 1e-06 0.099087
0.464665 1e-06 0.102652
0.46948 1e-06 0.106074
0.47407 1e-06 0.109355
0.478444 1e-06 0.112498
0.482608 1e-06 0.115506
0.00017 0.003607 0.000337
0.000414 0.004388 2e-04
0.000954 0.005203 6.6e-05
0.001978 0.006026 1e-06
0.003635 0.006706 1e-06
0.00608 0.007264 1e-06
0.009428 0.007742 1e-06
0.013716 0.008138 1e-06
0.018921 0.008452 1e-06
0.024989 0.008688 1e-06
0.031846 0.008851 1e-06
0.039418 0.008943 1e-06
0.047634 0.008967 1e-06
0.056212 0.008923 2e-06
0.064528 0.00881 1.4e-05
0.072572 0.008622 3e-05
0.080377 0.008353 5.2e-05
0.088051 0.007992 8e-05
0.096031 0.007521 0.000118
0.104407 0.006924 0.00017
0.113203 0.006186 0.000241
0.122432 0.005299 0.000336
0.131995 0.0043 0.000461
0.141838 0.003223 0.000624
0.151925 0.002119 0.000832
0.162215 0.001074 0.001096
0.172678 0.000253 0.001428
0.183301 1e-06 0.001838
0.194043 1e-06 0.002342
0.204848 1e-06 0.002936
0.215658 1e-06 0.003595
0.226472 1e-06 0.004384
0.237253 1e-06 0.005321
0.247964 1e-06 0.006425
0.258604 1e-06 0.007715
0.269185 1e-06 0.009218
0.279682 1e-06 0.010953
0.290076 1e-06 0.012942
0.300347 1e-06 0.015201
0.310477 1e-06 0.017747
0.320449 1e-06 0.020595
0.330249 1e-06 0.023753
0.339861 1e-06 0.027228
0.349273 1e-06 0.031022
0.358474 1e-06 0.035133
0.367453 1e-06 0.039554
0.376199 1e-06 0.044275
0.384704 1e-06 0.049278
0.39296 1e-06 0.05443
0.400927 1e-06 0.059497
0.408572 1e-06 0.064436
0.415903 1e-06 0.06924
0.42293 1e-06 0.073903
0.429661 1e-06 0.078421
0.436106 1e-06 0.082792
0.442274 1e-06 0.087015
0.448174 1e-06 0.091089
0.453813 1e-06 0.095015
0.459201 1e-06 0.098793
0.464344 1e-06 0.102424
0.469251 1e-06 0.105911
0.473935 1e-06 0.109259
0.478415 1e-06 0.112478
0.482698 1e-06 0.115571
0.486789 1e-06 0.118541
0.000124 0.006749 0.000395
4e-04 0.007934 0.000182
0.001035 0.009152 1.7e-05
0.002238 0.010344 1e-06
0.004146 0.011265 1e-06
0.006971 0.012093 1e-06
0.010814 0.012819 1e-06
0.015695 0.013438 1e-06
0.021574 0.013953 1e-06
0.028367 0.014369 1e-06
0.035974 0.014696 1e-06
0.044293 0.014939 1e-06
0.053175 0.015104 1e-06
0.061883 0.015194 1e-06
0.070233 0.01521 1e-06
0.078262 0.015148 1e-06
0.086043 0.015001 1.5e-05
0.094015 0.014752 3.7e-05
0.102309 0.014383 6.9e-05
0.110944 0.013873 0.000115
0.119945 0.013199 0.000181
0.129338 0.012335 0.000272
0.139067 0.011284 0.000396
0.149072 0.010107 0.00056
0.159332 0.008842 0.000773
0.169805 0.007495 0.001046
0.180447 0.006081 0.001392
0.191217 0.004628 0.001825
0.202073 0.00318 0.002362
0.212975 0.001816 0.003018
0.223885 0.000666 0.003812
0.234766 3e-06 0.004762
0.245584 1e-06 0.005886
0.256306 1e-06 0.007203
0.266908 1e-06 0.008729
0.277417 1e-06 0.01049
0.287818 1e-06 0.012485
0.298086 1e-06 0.014677
0.308217 1e-06 0.01715
0.318196 1e-06 0.01992
0.328008 1e-06 0.022997
0.337637 1e-06 0.026389
0.347072 1e-06 0.030098
0.356301 1e-06 0.034124
0.365312 1e-06 0.038462
0.374095 1e-06 0.0431
0.382641 1e-06 0.048025
0.390942 1e-06 0.053161
0.398989 1e-06 0.058257
0.406775 1e-06 0.063269
0.414255 1e-06 0.068154
0.421424 1e-06 0.072899
0.428293 1e-06 0.077499
0.43487 1e-06 0.08195
0.441165 1e-06 0.086252
0.447186 1e-06 0.090404
0.452942 1e-06 0.094406
0.45844 1e-06 0.098258
0.463702 1e-06 0.10197
0.468742 1e-06 0.105548
0.473565 1e-06 0.108993
0.478178 1e-06 0.112307
0.482588 1e-06 0.115492
0.486801 1e-06 0.118549
0.490822 1e-06 0.121481
4.3e-05 0.011256 0.000412
0.000309 0.012894 0.00013
0.001 0.014561 1e-06
0.002317 0.016063 1e-06
0.004447 0.017309 1e-06
0.0076 0.018445 1e-06
0.011877 0.019455 1e-06
0.017292 0.020336 1e-06
0.023787 0.021089 1e-06
0.031257 0.021723 1e-06
0.039575 0.022248 1e-06
0.048615 0.022675 1e-06
0.057896 0.023013 1e-06
0.066747 0.023269 1e-06
0.075186 0.023447 1e-06
0.083258 0.023546 1e-06
0.091351 0.023556 1e-06
0.099706 0.023462 1e-06
0.10833 0.02325 2.1e-05
0.117243 0.022904 5.8e-05
0.126502 0.022461 0.000114
0.136138 0.021898 0.000195
0.146138 0.021188 0.000312
0.156394 0.020345 0.000471
0.166862 0.019361 0.000683
0.177503 0.018228 0.000962
0.188277 0.016942 0.001321
0.199145 0.015501 0.001776
0.210069 0.013909 0.002344
0.221011 0.012175 0.003045
0.231937 0.010317 0.003898
0.242812 0.008362 0.004921
0.253605 0.006354 0.006135
0.264284 0.00436 0.007556
0.274823 0.002487 0.009203
0.285224 0.000904 0.011094
0.295507 1e-06 0.013256
0.305656 1e-06 0.015703
0.315653 1e-06 0.018449
0.325485 1e-06 0.021506
0.335137 1e-06 0.024878
0.344597 1e-06 0.028569
0.353854 1e-06 0.032577
0.362897 1e-06 0.036896
0.371715 1e-06 0.041516
0.3803 1e-06 0.046422
0.388642 1e-06 0.05158
0.396736 1e-06 0.056745
0.404581 1e-06 0.061824
0.412175 1e-06 0.066789
0.419499 1e-06 0.071619
0.426516 1e-06 0.076304
0.433237 1e-06 0.080841
0.439669 1e-06 0.085227
0.445824 1e-06 0.089462
0.451726 1e-06 0.093558
0.457385 1e-06 0.097515
0.462804 1e-06 0.101296
0.467994 1e-06 0.104933
0.472961 1e-06 0.108428
0.477711 1e-06 0.111784
0.482251 1e-06 0.115002
0.486587 1e-06 0.118085
0.490726 1e-06 0.121036
0.494674 1e-06 0.123857
1e-06 0.017229 0.000383
0.000165 0.019339 5.8e-05
0.000855 0.021469 1e-06
0.002234 0.023259 1e-06
0.004539 0.024848 1e-06
0.007969 0.02631 1e-06
0.012624 0.027629 1e-06
0.018509 0.0288 1e-06
0.025557 0.029822 1e-06
0.033644 0.030704 1e-06
0.042624 0.031457 1e-06
0.052315 0.032096 1e-06
0.061845 0.032633 1e-06
0.070877 0.033079 1e-06
0.079447 0.033442 1e-06
0.087786 0.033722 1e-06
0.096343 0.033934 1e-06
0.105158 0.034128 1e-06
0.114231 0.034287 1e-06
0.12357 0.034387 6e-06
0.133191 0.034399 4.4e-05
0.143116 0.034286 0.00011
0.153357 0.034011 0.000212
0.16382 0.03358 0.000361
0.174453 0.032985 0.000569
0.185218 0.032216 0.000849
0.196082 0.031261 0.001218
0.207007 0.030114 0.001693
0.217959 0.028769 0.002293
0.228904 0.027222 0.003039
0.239811 0.025473 0.00395
0.250647 0.023527 0.005048
0.261383 0.021391 0.006352
0.271992 0.019081 0.007881
0.282447 0.016617 0.009651
0.29273 0.014025 0.011676
0.302873 0.011303 0.013981
0.312868 0.008499 0.016582
0.322703 0.005705 0.019492
0.332362 0.003081 0.022718
0.341834 0.000927 0.026263
0.351107 1e-06 0.030128
0.36017 1e-06 0.034307
0.369014 1e-06 0.038791
0.377627 1e-06 0.043567
0.386004 1e-06 0.048617
0.39414 1e-06 0.053838
0.402035 1e-06 0.058991
0.409688 1e-06 0.06405
0.417098 1e-06 0.069005
0.424263 1e-06 0.073847
0.43115 1e-06 0.078539
0.437761 1e-06 0.083077
0.444106 1e-06 0.087459
0.450191 1e-06 0.091688
0.456024 1e-06 0.095763
0.461612 1e-06 0.099687
0.466963 1e-06 0.103462
0.472084 1e-06 0.10709
0.476981 1e-06 0.110573
0.481662 1e-06 0.113913
0.486133 1e-06 0.117113
0.4904 1e-06 0.120177
0.494469 1e-06 0.123105
0.498348 1e-06 0.125902
1e-06 0.024695 0.000311
2.2e-05 0.02727 1e-06
0.000622 0.029851 1e-06
0.002005 0.031899 1e-06
0.004439 0.033831 1e-06
0.008102 0.035625 1e-06
0.013085 0.037263 1e-06
0.019385 0.038737 1e-06
0.026924 0.040047 1e-06
0.035567 0.041199 1e-06
0.045152 0.042204 1e-06
0.055343 0.043078 1e-06
0.065122 0.043836 1e-06
0.074393 0.044546 1e-06
0.083244 0.045247 1e-06
0.092194 0.045933 1e-06
0.101359 0.046597 1e-06
0.110721 0.047232 1e-06
0.120274 0.047821 1e-06
0.130023 0.048345 1e-06
0.139983 0.048776 1e-06
0.150174 0.049081 3.1e-05
0.16062 0.049221 0.00011
0.171254 0.04919 0.000241
0.182014 0.048986 0.000437
0.192867 0.048597 0.000714
0.203783 0.04801 0.001088
0.214731 0.047215 0.00158
0.225679 0.046205 0.00221
0.236596 0.044973 0.002999
0.247454 0.043515 0.00397
0.258223 0.04183 0.005142
0.268878 0.039918 0.006538
0.279392 0.037784 0.008173
0.28974 0.035436 0.010065
0.299901 0.032888 0.012225
0.309888 0.030122 0.014671
0.319717 0.027119 0.017423
0.329376 0.023895 0.020489
0.338852 0.020474 0.023875
0.348133 0.016893 0.027581
0.357209 0.013213 0.031604
0.366069 0.009522 0.035937
0.374704 0.005966 0.040566
0.383109 0.002785 0.045477
0.391282 0.000461 0.050653
0.399221 1e-06 0.05588
0.406926 1e-06 0.061018
0.414411 1e-06 0.066063
0.421681 1e-06 0.071009
0.428734 1e-06 0.075849
0.435552 1e-06 0.080562
0.442096 1e-06 0.085117
0.448373 1e-06 0.089511
0.454389 1e-06 0.093745
0.460153 1e-06 0.097823
0.465672 1e-06 0.101745
0.470953 1e-06 0.105514
0.476004 1e-06 0.109132
0.480831 1e-06 0.112602
0.485442 1e-06 0.115927
0.489842 1e-06 0.11911
0.49404 1e-06 0.122152
0.49804 1e-06 0.125058
0.501848 1e-06 0.12783
1e-06 0.033628 0.000205
1e-06 0.036639 1e-06
0.000325 0.039526 1e-06
0.001654 0.041912 1e-06
0.00417 0.044174 1e-06
0.00803 0.04629 1e-06
0.013303 0.048242 1e-06
0.019974 0.050022 1e-06
0.027954 0.051611 1e-06
0.037106 0.053017 1e-06
0.047312 0.054317 1e-06
0.058017 0.055535 1e-06
0.068191 0.056685 1e-06
0.077793 0.057781 1e-06
0.087172 0.058828 1e-06
0.096749 0.059825 1e-06
0.106488 0.060774 1e-06
0.116363 0.061671 1e-06
0.126366 0.062509 1e-06
0.136498 0.063274 1e-06
0.146772 0.06395 1e-06
0.157209 0.064512 1e-06
0.167835 0.064933 2.5e-05
0.178609 0.065203 0.000124
0.189464 0.065322 0.000298
0.200376 0.065281 0.000563
0.211316 0.065069 0.000937
0.222257 0.064676 0.001441
0.233174 0.064092 0.002097
0.244037 0.063309 0.002928
0.254822 0.062316 0.003955
0.265502 0.061104 0.005201
0.276054 0.059665 0.006686
0.286452 0.057988 0.008428
0.296676 0.056066 0.01044
0.306704 0.053891 0.012732
0.316528 0.051444 0.015316
0.326181 0.048674 0.018211
0.335654 0.045632 0.021424
0.344936 0.042335 0.024958
0.354018 0.038796 0.02881
0.362888 0.03503 0.032975
0.371539 0.03106 0.037441
0.379968 0.026911 0.042198
0.388177 0.022633 0.047232
0.396181 0.018344 0.0525
0.403979 0.014113 0.05774
0.411568 0.010032 0.062894
0.418946 0.006238 0.067953
0.42611 0.002951 0.072907
0.43306 0.000578 0.077749
0.439792 1e-06 0.082473
0.446266 1e-06 0.087044
0.452472 1e-06 0.091449
0.458417 1e-06 0.095689
0.46411 1e-06 0.099768
0.469557 1e-06 0.103687
0.474767 1e-06 0.107449
0.479747 1e-06 0.111057
0.484503 1e-06 0.114514
0.489043 1e-06 0.117821
0.493373 1e-06 0.12098
0.497499 1e-06 0.123993
0.501428 1e-06 0.126865
0.505166 1e-06 0.129597
1e-06 0.04397 8.4e-05
1e-06 0.047374 1e-06
6.1e-05 0.050507 1e-06
0.001212 0.053147 1e-06
0.003754 0.055589 1e-06
0.007779 0.05783 1e-06
0.013344 0.059895 1e-06
0.020458 0.061832 1e-06
0.029015 0.063638 1e-06
0.038853 0.065318 1e-06
0.049778 0.066883 1e-06
0.060885 0.068343 1e-06
0.07134 0.069713 1e-06
0.081248 0.071004 1e-06
0.091244 0.072221 1e-06
0.101399 0.073369 1e-06
0.111664 0.074453 1e-06
0.122011 0.075475 1e-06
0.132427 0.07643 1e-06
0.142911 0.077311 1e-06
0.153474 0.078108 1e-06
0.164136 0.078803 1e-06
0.174921 0.079377 1e-06
0.185809 0.079817 2.9e-05
0.196735 0.080126 0.000164
0.20768 0.080299 0.000405
0.21862 0.080327 0.000768
0.229533 0.080204 0.001277
0.240396 0.07992 0.001954
0.251185 0.079469 0.002821
0.261878 0.078844 0.003902
0.27245 0.078039 0.005219
0.282881 0.07705 0.00679
0.293148 0.075871 0.008633
0.303232 0.074501 0.01076
0.313113 0.072938 0.013179
0.322773 0.07118 0.015895
0.33224 0.069192 0.018923
0.341519 0.066948 0.022272
0.350601 0.064432 0.02594
0.359477 0.061629 0.029922
0.368152 0.058556 0.034215
0.376638 0.055241 0.038814
0.384929 0.051665 0.04371
0.393021 0.047835 0.048888
0.400911 0.043879 0.05423
0.408596 0.039831 0.059496
0.416073 0.035715 0.064667
0.42334 0.03156 0.069736
0.430395 0.027402 0.074694
0.437238 0.023286 0.079535
0.443866 0.019264 0.084254
0.450265 0.015434 0.088834
0.456397 0.011945 0.093242
0.462268 0.008859 0.097479
0.467887 0.006226 0.101548
0.473261 0.004084 0.105451
0.478398 0.00245 0.109192
0.483304 0.001308 0.112773
0.487987 0.000606 0.116196
0.492453 0.000247 0.119466
0.49671 0.000115 0.122584
0.500764 0.000121 0.125554
0.504621 0.000286 0.128379
0.508287 0.000761 0.131061
1e-06 0.055472 1e-06
1e-06 0.058921 1e-06
1e-06 0.061872 1e-06
0.000743 0.064488 1e-06
0.003327 0.066991 1e-06
0.007675 0.06937 1e-06
0.013743 0.071616 1e-06
0.021437 0.073723 1e-06
0.030609 0.075693 1e-06
0.041073 0.077528 1e-06
0.052584 0.079237 1e-06
0.0639 0.08083 1e-06
0.074517 0.082319 1e-06
0.084878 0.083719 1e-06
0.095428 0.085047 1e-06
0.106094 0.086312 1e-06
0.116826 0.087518 1e-06
0.12759 0.088667 1e-06
0.138371 0.089756 1e-06
0.149167 0.090781 1e-06
0.159986 0.091734 1e-06
0.170847 0.092599 1e-06
0.181775 0.09336 1e-06
0.192752 0.094006 1e-06
0.203728 0.094534 3.9e-05
0.214685 0.094937 0.000223
0.225608 0.095207 0.00055
0.236476 0.095338 0.001039
0.247271 0.095325 0.001715
0.257972 0.095162 0.002599
0.268559 0.094845 0.003715
0.279012 0.094372 0.005085
0.28931 0.093741 0.006725
0.299435 0.092951 0.008653
0.309368 0.092004 0.010878
0.319091 0.090902 0.013406
0.328586 0.08965 0.016239
0.337864 0.088241 0.019381
0.346968 0.086699 0.022849
0.355897 0.085041 0.02664
0.364644 0.083262 0.030754
0.373205 0.081358 0.035184
0.381574 0.079327 0.039921
0.389747 0.077167 0.044951
0.397722 0.074878 0.050261
0.405494 0.07246 0.055648
0.413062 0.069917 0.060941
0.420423 0.067256 0.066131
0.427576 0.064485 0.071209
0.434519 0.061619 0.07617
0.441252 0.058675 0.081007
0.447773 0.05568 0.085716
0.45408 0.052673 0.090291
0.460135 0.049803 0.094699
0.46593 0.047222 0.09893
0.471472 0.045018 0.102986
0.47677 0.043236 0.106871
0.481831 0.041927 0.110589
0.486662 0.041137 0.114142
0.491271 0.040916 0.117533
0.495663 0.041315 0.120767
0.499846 0.042384 0.123845
0.503827 0.044175 0.126772
0.50761 0.046738 0.129549
0.511203 0.050121 0.132181
1e-06 0.066948 1e-06
1e-06 0.070331 1e-06
1e-06 0.07326 1e-06
0.000476 0.075949 1e-06
0.003224 0.078518 1e-06
0.008 0.08096 1e-06
0.014613 0.083267 1e-06
0.022884 0.085463 1e-06
0.032621 0.087566 1e-06
0.043623 0.08957 1e-06
0.055504 0.091475 1e-06
0.066885 0.093284 1e-06
0.077648 0.095001 1e-06
0.088518 0.096628 1e-06
0.099546 0.098169 1e-06
0.110657 0.099632 1e-06
0.121798 0.101021 1e-06
0.132933 0.102342 1e-06
0.144042 0.103594 1e-06
0.15512 0.104776 1e-06
0.166174 0.105882 1e-06
0.17722 0.106902 1e-06
0.188282 0.107822 1e-06
0.199337 0.108635 1e-06
0.210352 0.109337 1e-06
0.221315 0.109922 4.1e-05
0.232211 0.110385 0.000277
0.243027 0.110721 0.000703
0.253746 0.110925 0.001339
0.264352 0.110995 0.002207
0.274826 0.110928 0.003327
0.285151 0.110724 0.004721
0.29531 0.110384 0.006404
0.305285 0.109908 0.00839
0.315067 0.109315 0.010687
0.32466 0.108659 0.013301
0.334047 0.107952 0.016232
0.343222 0.107197 0.019478
0.352218 0.106372 0.023055
0.361035 0.105473 0.026962
0.369666 0.104502 0.031196
0.378109 0.103461 0.035747
0.386358 0.102352 0.040605
0.394411 0.10118 0.045755
0.402265 0.09995 0.051174
0.409917 0.098671 0.05661
0.417365 0.097351 0.061941
0.424608 0.096001 0.067158
0.431645 0.094637 0.072255
0.438473 0.093275 0.077226
0.445093 0.091935 0.082066
0.451504 0.09064 0.086773
0.457706 0.089417 0.091341
0.46368 0.088333 0.095753
0.469395 0.087491 0.099982
