CUBE/3150 Film process - Bleach bypass.cube
# (null)
# 3 columns rgb, 35937 rows
# created by dwsgrading 2017-03-24 09:18:22 +0000
LUT_3D_SIZE 33
0.052216 0.051957 0.051438
0.060853 0.052247 0.051728
0.068498 0.054368 0.052598
0.077974 0.054551 0.052857
0.088075 0.053712 0.052659
0.100252 0.055924 0.052720
0.127855 0.061967 0.053574
0.163516 0.070481 0.058824
0.196124 0.080903 0.060273
0.236973 0.093217 0.068132
0.274189 0.104204 0.075639
0.302235 0.109194 0.082490
0.335607 0.115419 0.090349
0.372595 0.119112 0.095491
0.403265 0.117159 0.101091
0.432929 0.110536 0.104891
0.467353 0.101167 0.108125
0.502541 0.093050 0.109300
0.534707 0.088426 0.109377
0.564569 0.085756 0.113451
0.598825 0.086580 0.115862
0.635081 0.089235 0.118853
0.676204 0.090379 0.122545
0.712337 0.092164 0.127092
0.741238 0.093416 0.131044
0.769284 0.094820 0.135241
0.798215 0.096681 0.140063
0.827863 0.099199 0.145739
0.859098 0.102663 0.152575
0.890898 0.106554 0.160525
0.920470 0.111055 0.169589
0.944015 0.116503 0.180316
0.963439 0.122576 0.192142
0.053239 0.059480 0.052247
0.061952 0.060029 0.052613
0.069657 0.062196 0.053483
0.079179 0.062394 0.053712
0.089509 0.061769 0.053574
0.101930 0.064195 0.053605
0.131228 0.071122 0.054932
0.168246 0.080781 0.060410
0.201053 0.092103 0.062196
0.242039 0.105501 0.070436
0.276417 0.115587 0.076173
0.304402 0.120989 0.083589
0.337026 0.127321 0.090944
0.373663 0.130526 0.095842
0.404303 0.128038 0.101244
0.434791 0.121080 0.105516
0.470115 0.111070 0.109071
0.505623 0.102739 0.110430
0.532357 0.098512 0.113130
0.568124 0.096117 0.114641
0.602121 0.097322 0.117128
0.638209 0.100160 0.120089
0.683268 0.100389 0.129915
0.715648 0.103273 0.129824
0.743450 0.105303 0.132296
0.771542 0.107362 0.136263
0.800153 0.110063 0.140978
0.829786 0.113603 0.146548
0.860548 0.118059 0.153185
0.891951 0.123339 0.160739
0.919982 0.129290 0.169268
0.941512 0.136263 0.179095
0.958892 0.140978 0.189303
0.054520 0.069322 0.053315
0.063325 0.069749 0.053635
0.071992 0.070802 0.054139
0.080568 0.072297 0.054765
0.091356 0.071901 0.054749
0.104692 0.074800 0.054902
0.135500 0.082689 0.056703
0.173983 0.093721 0.062516
0.207919 0.106844 0.065126
0.246067 0.119814 0.072099
0.278401 0.129503 0.076967
0.306676 0.134783 0.084764
0.339559 0.140597 0.092195
0.376349 0.143343 0.097124
0.406699 0.140261 0.102205
0.436393 0.132845 0.105760
0.472190 0.122423 0.109743
0.503243 0.114397 0.113924
0.535363 0.109712 0.114382
0.571832 0.107759 0.115709
0.605402 0.109224 0.118151
0.650095 0.112154 0.125795
0.689769 0.111910 0.130053
0.718288 0.115892 0.130968
0.745357 0.118288 0.133181
0.772946 0.121004 0.136934
0.801205 0.124498 0.141283
0.830182 0.129305 0.146441
0.860365 0.135027 0.152682
0.891264 0.141451 0.159884
0.918608 0.148592 0.168444
0.938582 0.153857 0.177493
0.957382 0.161593 0.188556
0.055711 0.079576 0.054368
0.064622 0.079973 0.054673
0.073610 0.080751 0.055100
0.082094 0.082856 0.055909
0.093492 0.082918 0.056123
0.108507 0.086748 0.057298
0.138003 0.094194 0.060639
0.180087 0.109041 0.065705
0.212848 0.123796 0.067643
0.249470 0.136095 0.074113
0.282109 0.145220 0.079484
0.310384 0.149935 0.087114
0.343435 0.155627 0.094392
0.379919 0.158251 0.098970
0.410376 0.155001 0.103914
0.439460 0.147204 0.107286
0.469001 0.137316 0.112581
0.504875 0.128481 0.114244
0.538460 0.123735 0.115099
0.579324 0.119234 0.122683
0.612650 0.121630 0.125719
0.651667 0.125673 0.127993
0.691432 0.126329 0.130480
0.719066 0.131212 0.131014
0.745495 0.133730 0.132891
0.772992 0.136828 0.136584
0.801373 0.141085 0.141131
0.830930 0.146517 0.146593
0.861814 0.152911 0.153109
0.892927 0.160372 0.160586
0.917327 0.165652 0.168048
0.938567 0.174319 0.178088
0.959197 0.184360 0.190661
0.056489 0.090913 0.055299
0.065492 0.091463 0.055772
0.074815 0.092546 0.056672
0.084703 0.094316 0.057511
0.097185 0.095918 0.058167
0.115663 0.102113 0.061036
0.144472 0.111223 0.065690
0.184192 0.127459 0.071580
0.221927 0.145037 0.073976
0.257588 0.155962 0.080690
0.289631 0.163470 0.086351
0.319203 0.169039 0.093828
0.351736 0.173816 0.100938
0.385946 0.175006 0.106569
0.417243 0.173129 0.109972
0.443290 0.163699 0.115236
0.477714 0.153414 0.117968
0.513664 0.145083 0.119356
0.550576 0.138994 0.123430
0.586221 0.138293 0.124849
0.623362 0.141634 0.126909
0.657420 0.144884 0.130114
0.694850 0.145022 0.132677
0.723369 0.150088 0.134493
0.749981 0.152316 0.136599
0.777340 0.155413 0.140276
0.805631 0.160113 0.144686
0.835355 0.166049 0.150103
0.865400 0.170260 0.156313
0.895842 0.178012 0.163561
0.922072 0.188067 0.172290
0.942428 0.199329 0.182589
0.961776 0.210239 0.193362
0.058930 0.106889 0.058289
0.068193 0.108019 0.059007
0.078035 0.109728 0.060182
0.088838 0.111696 0.061097
0.101320 0.114778 0.062303
0.122332 0.122911 0.065110
0.151781 0.134142 0.068864
0.184054 0.146426 0.073075
0.219211 0.160250 0.078630
0.255161 0.171252 0.085405
0.288182 0.179858 0.091188
0.318898 0.185718 0.097688
0.351522 0.191028 0.104601
0.385626 0.194018 0.110094
0.417487 0.193942 0.113207
0.447852 0.187289 0.115938
0.482353 0.178256 0.117693
0.517754 0.170672 0.118486
0.549752 0.165667 0.119799
0.585321 0.163317 0.120775
0.621790 0.165118 0.122683
0.654994 0.166567 0.125185
0.691569 0.167269 0.128283
0.719173 0.172992 0.129473
0.745373 0.175006 0.131319
0.772824 0.177691 0.135088
0.801358 0.182162 0.139590
0.830396 0.185641 0.144945
0.861067 0.193042 0.151247
0.892287 0.202228 0.158633
0.919051 0.213291 0.167330
0.939864 0.225910 0.177768
0.958480 0.237858 0.188464
0.061067 0.133043 0.065354
0.070542 0.134447 0.066194
0.080827 0.136904 0.067689
0.093446 0.142092 0.070558
0.109422 0.148394 0.073167
0.129229 0.150149 0.073381
0.153506 0.154253 0.074479
0.188235 0.169757 0.079683
0.222339 0.181979 0.084276
0.257939 0.192142 0.090806
0.290913 0.200488 0.096773
0.322759 0.206592 0.103288
0.355520 0.211917 0.109957
0.389715 0.215671 0.115129
0.422171 0.216938 0.117891
0.452598 0.211917 0.120180
0.485618 0.205188 0.122698
0.520775 0.199741 0.122911
0.554192 0.195605 0.122820
0.589578 0.192554 0.123522
0.625757 0.194278 0.124132
0.659693 0.195010 0.127123
0.692851 0.191455 0.131441
0.723659 0.200229 0.131228
0.749645 0.201373 0.133150
0.776593 0.199725 0.136706
0.804730 0.203952 0.141115
0.834501 0.210117 0.146593
0.865202 0.218250 0.152987
0.895842 0.228000 0.160204
0.921202 0.239780 0.168933
0.941146 0.252781 0.179004
0.958419 0.263752 0.188449
0.065995 0.172534 0.080262
0.075654 0.173709 0.081071
0.085771 0.175051 0.081849
0.098726 0.179080 0.083574
0.116503 0.184955 0.085603
0.136706 0.182177 0.083940
0.160601 0.183627 0.084123
0.193362 0.195026 0.088579
0.227466 0.203830 0.091737
0.262150 0.215122 0.098024
0.293095 0.224369 0.103731
0.323934 0.229236 0.110628
0.356054 0.232959 0.118044
0.392096 0.240726 0.122255
0.424887 0.243336 0.124544
0.456931 0.240101 0.126268
0.490196 0.236835 0.126757
0.525002 0.234379 0.126497
0.557885 0.232258 0.125978
0.593118 0.229923 0.126421
0.629068 0.231571 0.126940
0.662837 0.230915 0.129763
0.696132 0.224720 0.133974
0.725780 0.229282 0.133928
0.751415 0.228656 0.135637
0.778881 0.229740 0.139223
0.807507 0.233295 0.143709
0.837201 0.238926 0.148989
0.867826 0.246738 0.155291
0.897887 0.256275 0.162570
0.921675 0.266972 0.170977
0.940337 0.279240 0.180026
0.959350 0.291768 0.190280
0.068254 0.214313 0.093187
0.077668 0.215198 0.093706
0.087648 0.215702 0.094102
0.100740 0.218952 0.095415
0.120012 0.223285 0.096956
0.140322 0.216434 0.094118
0.165698 0.214908 0.093156
0.195529 0.218158 0.095628
0.227161 0.222873 0.099382
0.262516 0.234607 0.105028
0.296834 0.247120 0.110246
0.330159 0.255009 0.117693
0.364355 0.262257 0.124605
0.400305 0.269505 0.127855
0.433051 0.272450 0.129625
0.463890 0.270634 0.130663
0.499687 0.268956 0.130907
0.541436 0.266270 0.131899
0.570581 0.268177 0.130968
0.605127 0.267933 0.131334
0.640467 0.270558 0.131899
0.673548 0.270176 0.134493
0.707958 0.262486 0.137316
0.736233 0.267735 0.139300
0.762020 0.266468 0.141192
0.789685 0.267338 0.144808
0.818128 0.270390 0.149233
0.847837 0.275517 0.154696
0.878279 0.282567 0.161181
0.905135 0.290471 0.168673
0.926345 0.301045 0.176120
0.945052 0.313207 0.186221
0.966155 0.324147 0.196506
0.067933 0.247776 0.102464
0.077256 0.248463 0.102907
0.086625 0.247623 0.103059
0.098466 0.248676 0.103624
0.117571 0.253880 0.104921
0.141085 0.251209 0.103349
0.169146 0.249973 0.102831
0.199390 0.252705 0.105318
0.232731 0.253971 0.106737
0.267353 0.260471 0.111406
0.301579 0.269047 0.118776
0.335256 0.277134 0.126207
0.369406 0.284489 0.131762
0.408209 0.290547 0.137835
0.442267 0.292576 0.140215
0.473060 0.291417 0.140017
0.507698 0.290410 0.139834
0.545037 0.291020 0.137743
0.574044 0.293553 0.136645
0.609110 0.294652 0.136324
0.646418 0.299474 0.134585
0.677882 0.300740 0.137896
0.710323 0.294697 0.141939
0.740948 0.301900 0.143038
0.769757 0.304265 0.143191
0.797467 0.305715 0.146899
0.825849 0.308461 0.151522
0.855528 0.312779 0.157153
0.885573 0.318685 0.163745
0.911757 0.326955 0.171633
0.929732 0.335195 0.177188
0.947860 0.345968 0.187015
0.970184 0.355581 0.197009
0.068330 0.281895 0.111543
0.076219 0.277928 0.111391
0.086107 0.278721 0.112093
0.098482 0.281315 0.112886
0.116136 0.284596 0.113191
0.140093 0.285771 0.113787
0.169177 0.285100 0.113802
0.199435 0.282032 0.111986
0.235065 0.283574 0.111925
0.271794 0.289738 0.114397
0.306569 0.298482 0.119356
0.340719 0.304326 0.127687
0.376608 0.311437 0.135958
0.415412 0.321309 0.141344
0.450217 0.323568 0.145388
0.482368 0.322652 0.146136
0.516182 0.323049 0.144045
0.552758 0.325521 0.141176
0.581186 0.329259 0.139895
0.616114 0.331777 0.139269
0.652964 0.337392 0.137438
0.684474 0.339284 0.140658
0.718547 0.336233 0.143496
0.746273 0.340719 0.145785
0.771832 0.339467 0.147448
0.802594 0.344503 0.149554
0.830884 0.346822 0.154192
0.860380 0.350469 0.159930
0.889769 0.354330 0.165972
0.914687 0.361303 0.173663
0.931930 0.369833 0.179843
0.949676 0.379660 0.189593
0.972442 0.388357 0.199451
0.070542 0.315801 0.123812
0.079835 0.315862 0.124331
0.088777 0.314443 0.124132
0.100389 0.315709 0.123598
0.118151 0.320562 0.123445
0.140795 0.319280 0.122026
0.169238 0.315312 0.119600
0.200565 0.314519 0.117968
0.239155 0.318364 0.115969
0.278874 0.323552 0.113573
0.315602 0.329702 0.114824
0.347723 0.333165 0.122789
0.384741 0.341466 0.133883
0.425071 0.352224 0.142901
0.458991 0.355901 0.147921
0.491234 0.356619 0.149081
0.525338 0.357580 0.147265
0.560922 0.359655 0.144945
0.589136 0.363790 0.143420
0.623423 0.366293 0.143008
0.657984 0.370596 0.142473
0.691463 0.376333 0.143496
0.725902 0.373831 0.144930
0.753582 0.378164 0.146822
0.778653 0.376669 0.148272
0.806073 0.377844 0.151873
0.834028 0.379934 0.156359
0.863020 0.383062 0.161791
0.892058 0.387442 0.168307
0.916136 0.394064 0.176120
0.932631 0.402167 0.182055
0.950378 0.411627 0.192004
0.974624 0.421164 0.202777
0.077852 0.351751 0.126558
0.086717 0.350301 0.126421
0.095491 0.348119 0.125887
0.108476 0.351385 0.125780
0.126986 0.356146 0.124987
0.146792 0.352819 0.121981
0.174487 0.348440 0.119326
0.208804 0.349035 0.117708
0.250797 0.351736 0.113664
0.291600 0.358206 0.109087
0.329976 0.364340 0.107225
0.365820 0.369818 0.113359
0.398657 0.374777 0.125109
0.434424 0.381826 0.138109
0.470665 0.388846 0.146670
0.506798 0.393515 0.150607
0.541619 0.396719 0.149142
0.576959 0.400610 0.147143
0.607416 0.405295 0.146105
0.637690 0.405646 0.145357
0.670283 0.406012 0.147356
0.702235 0.406790 0.150820
0.731228 0.402472 0.154894
0.758709 0.405921 0.157549
0.783093 0.408682 0.154101
0.812406 0.413916 0.155352
0.838834 0.415869 0.159823
0.867613 0.418585 0.165270
0.895750 0.422477 0.171420
0.918242 0.428717 0.178714
0.935470 0.438315 0.186358
0.953002 0.447333 0.196246
0.976440 0.455268 0.205234
0.081453 0.383505 0.127977
0.090074 0.381415 0.127825
0.100496 0.381598 0.127749
0.113909 0.385534 0.126802
0.131533 0.389075 0.124071
0.148653 0.384726 0.121218
0.174365 0.381765 0.118807
0.213352 0.385183 0.115633
0.257588 0.388312 0.110048
0.297520 0.393668 0.102968
0.337041 0.400687 0.098222
0.374594 0.405982 0.101991
0.408133 0.411002 0.113130
0.444251 0.416327 0.130663
0.481758 0.422004 0.144503
0.519661 0.428519 0.151553
0.555383 0.433234 0.151598
0.588464 0.438575 0.150668
0.619623 0.442649 0.150713
0.651499 0.444373 0.149432
0.684352 0.445808 0.151003
0.716899 0.449500 0.152209
0.746258 0.444327 0.156039
0.774899 0.447715 0.159075
0.800046 0.445441 0.161151
0.827008 0.446143 0.165209
0.854780 0.447883 0.170199
0.883314 0.450706 0.175814
0.907820 0.456672 0.180377
0.924880 0.463996 0.185000
0.939818 0.471748 0.190799
0.958587 0.480491 0.200122
0.979828 0.489845 0.208804
0.082216 0.412390 0.125338
0.091722 0.410452 0.125154
0.102296 0.410925 0.124956
0.115816 0.416114 0.122942
0.132982 0.421576 0.119203
0.150759 0.418845 0.116732
0.176486 0.417487 0.114199
0.216022 0.421241 0.110979
0.261372 0.424781 0.105745
0.300069 0.430243 0.098512
0.338140 0.436942 0.093202
0.378454 0.442649 0.093645
0.416144 0.447929 0.102098
0.452903 0.453086 0.117983
0.490227 0.459022 0.135790
0.528450 0.465904 0.147753
0.563760 0.470649 0.151400
0.596735 0.476143 0.152575
0.627939 0.480690 0.153262
0.660090 0.482261 0.152529
0.693080 0.483330 0.153979
0.725277 0.486549 0.155352
0.753933 0.481987 0.159533
0.782284 0.485222 0.162432
0.807248 0.482551 0.164630
0.833967 0.483024 0.168704
0.861494 0.484413 0.173663
0.888853 0.486854 0.178988
0.911864 0.492699 0.183352
0.927382 0.499855 0.188037
0.942306 0.507362 0.193912
0.961593 0.515404 0.203250
0.982773 0.524300 0.211795
0.085435 0.451713 0.119142
0.095552 0.451774 0.118990
0.106264 0.451957 0.118578
0.119631 0.457130 0.115480
0.137087 0.462196 0.111177
0.157351 0.459953 0.109224
0.184451 0.459754 0.107759
0.222492 0.462104 0.105013
0.267643 0.465354 0.100145
0.310475 0.471153 0.094026
0.348882 0.476844 0.090394
0.387427 0.482673 0.090181
0.425498 0.489021 0.095537
0.462470 0.494667 0.107652
0.499184 0.498741 0.124483
0.535897 0.503288 0.139528
0.571878 0.509285 0.148150
0.605020 0.514473 0.151934
0.637156 0.518959 0.153994
0.669200 0.521965 0.154009
0.701198 0.525841 0.155642
0.731685 0.526131 0.158267
0.761990 0.520027 0.162676
0.789990 0.522988 0.165576
0.814923 0.520287 0.168002
0.841352 0.520333 0.172091
0.868528 0.521233 0.177096
0.894667 0.523598 0.182284
0.914687 0.530205 0.184604
0.931319 0.536110 0.192248
0.944671 0.542428 0.198123
0.964279 0.547601 0.211093
0.987457 0.554421 0.220539
0.087053 0.497978 0.107225
0.097032 0.496605 0.107088
0.107759 0.496361 0.106218
0.120958 0.502327 0.103777
0.138552 0.506981 0.101061
0.161288 0.503838 0.099886
0.190799 0.503594 0.099046
0.229816 0.505196 0.096757
0.271931 0.507103 0.092882
0.313542 0.511894 0.089311
0.353414 0.517220 0.087785
0.391577 0.522484 0.088380
0.430991 0.528832 0.092393
0.473014 0.536599 0.101701
0.514900 0.541512 0.115862
0.551675 0.545052 0.130159
0.587274 0.550164 0.140246
0.620417 0.554498 0.148608
0.650385 0.559060 0.152377
0.680873 0.560906 0.153613
0.711498 0.563317 0.156649
0.742153 0.563073 0.159655
0.772412 0.556588 0.164355
0.800656 0.558846 0.167269
0.825040 0.555459 0.170489
0.849928 0.553796 0.179675
0.876951 0.554711 0.185077
0.900206 0.557885 0.188998
0.918074 0.565805 0.189395
0.933867 0.569726 0.201724
0.949920 0.576730 0.211353
0.972427 0.583001 0.220264
0.995163 0.589670 0.228885
0.086839 0.540246 0.100267
0.097078 0.540383 0.100069
0.108003 0.541100 0.099550
0.120897 0.547585 0.097765
0.138155 0.551827 0.095995
0.162203 0.547799 0.095216
0.194263 0.545419 0.094408
0.235004 0.546502 0.092424
0.276081 0.548302 0.090578
0.316197 0.551461 0.089433
0.356023 0.556313 0.089723
0.397055 0.562936 0.091722
0.437659 0.569223 0.095125
0.480034 0.575219 0.101122
0.522347 0.580056 0.112032
0.558968 0.583429 0.124544
0.594980 0.587381 0.135470
0.629465 0.592004 0.145403
0.663279 0.597818 0.152010
0.692531 0.599802 0.156954
0.722255 0.601892 0.161288
0.750561 0.598169 0.164508
0.779110 0.594491 0.169162
0.806836 0.596658 0.173297
0.830610 0.593225 0.176440
0.856382 0.592828 0.181231
0.882185 0.592905 0.186481
0.904784 0.594934 0.192248
0.923064 0.599588 0.197879
0.938857 0.604944 0.206729
0.956207 0.611185 0.215991
0.978256 0.617060 0.224826
0.996658 0.623102 0.233799
0.085817 0.586831 0.093935
0.096056 0.587182 0.093797
0.107057 0.587777 0.093736
0.119966 0.594095 0.092775
0.137423 0.597162 0.091691
0.159915 0.592432 0.091096
0.193835 0.589197 0.090227
0.236454 0.589395 0.088701
0.277943 0.590585 0.088075
0.317952 0.592935 0.088197
0.358541 0.597345 0.089677
0.400427 0.603738 0.092073
0.441566 0.609308 0.094911
0.485252 0.614893 0.099062
0.527871 0.619333 0.106920
0.567346 0.621653 0.117800
0.605920 0.623758 0.130617
0.641566 0.627955 0.141924
0.674418 0.632471 0.150744
0.705379 0.634394 0.157946
0.734462 0.634943 0.162402
0.760983 0.630121 0.165759
0.790326 0.626825 0.172213
0.818021 0.628656 0.177020
0.840848 0.625818 0.180560
0.866224 0.622248 0.185367
0.891096 0.621546 0.190967
0.910796 0.624018 0.196292
0.925490 0.629358 0.199603
0.940490 0.634409 0.208453
0.957671 0.640696 0.217517
0.977386 0.648447 0.225834
0.996536 0.654185 0.234821
0.084489 0.633326 0.091142
0.094499 0.632349 0.091264
0.105379 0.632456 0.091417
0.118578 0.638743 0.090837
0.135653 0.641138 0.089876
0.155718 0.635309 0.089418
0.189014 0.631708 0.088670
0.232288 0.632471 0.088060
0.275776 0.634195 0.087495
0.317403 0.636545 0.087892
0.360922 0.641794 0.089891
0.403525 0.646967 0.092378
0.445991 0.651499 0.094545
0.489479 0.655787 0.097841
0.532219 0.658289 0.102831
0.574258 0.660578 0.110536
0.614160 0.663005 0.123720
0.649531 0.665888 0.137041
0.681819 0.669657 0.147234
0.713039 0.670024 0.155505
0.742245 0.668162 0.160693
0.769604 0.664958 0.165057
0.799405 0.661540 0.172152
0.826841 0.661891 0.177172
0.849439 0.657176 0.180804
0.874403 0.655909 0.186160
0.897276 0.656703 0.191150
0.914061 0.660319 0.193790
0.928969 0.663645 0.201892
0.942916 0.669139 0.210925
0.959258 0.676249 0.219471
0.980774 0.681392 0.228504
0.997208 0.686992 0.237491
0.084337 0.677668 0.089662
0.094575 0.677562 0.089784
0.105623 0.677455 0.090074
0.119203 0.682887 0.089708
0.136141 0.684398 0.089097
0.154833 0.678309 0.088548
0.185626 0.673961 0.087846
0.230137 0.672862 0.087098
0.275502 0.673304 0.086702
0.322606 0.677363 0.087572
0.364858 0.680781 0.089342
0.404685 0.683162 0.090959
0.448218 0.687083 0.092836
0.490013 0.689662 0.095506
0.532967 0.691936 0.099504
0.576684 0.695399 0.105455
0.618265 0.698314 0.116732
0.654734 0.701152 0.131014
0.687724 0.703578 0.141741
0.719448 0.702434 0.151019
0.748806 0.700984 0.157916
0.777798 0.699687 0.164233
0.808835 0.698009 0.171908
0.835813 0.695567 0.177050
0.858518 0.690776 0.181170
0.882750 0.689799 0.186633
0.902907 0.690776 0.191424
0.918715 0.693797 0.195407
0.932647 0.697154 0.204166
0.945785 0.702480 0.213214
0.962753 0.708904 0.221820
0.983841 0.713878 0.230900
0.997848 0.719463 0.239918
0.083742 0.717769 0.087648
0.094163 0.718029 0.087739
0.105333 0.717403 0.087770
0.120256 0.723110 0.087984
0.137560 0.724514 0.088060
0.154940 0.716503 0.086549
0.181323 0.711864 0.085969
0.224430 0.710323 0.085557
0.274601 0.712337 0.085756
0.321401 0.714733 0.086564
0.365087 0.716243 0.087663
0.409049 0.718853 0.088472
0.450019 0.721599 0.090150
0.489860 0.723140 0.092515
0.533410 0.725368 0.095247
0.577691 0.728557 0.099443
0.617899 0.730541 0.108171
0.654322 0.729519 0.122820
0.690303 0.729213 0.137575
0.725811 0.730236 0.148760
0.757549 0.733135 0.155306
0.787701 0.736233 0.161975
0.816770 0.731762 0.170993
0.841733 0.725063 0.174182
0.865568 0.720577 0.177462
0.889433 0.719326 0.183490
0.908766 0.719829 0.190494
0.923156 0.722652 0.197543
0.934676 0.726818 0.204669
0.947890 0.731075 0.214267
0.966949 0.735424 0.223331
0.987823 0.740444 0.232334
0.998566 0.745632 0.241382
0.085161 0.760815 0.090166
0.096300 0.761990 0.090333
0.108812 0.762234 0.090135
0.124910 0.766583 0.090715
0.142367 0.767254 0.091356
0.158709 0.758434 0.089372
0.182467 0.753384 0.088762
0.220920 0.752422 0.089113
0.274205 0.753994 0.089052
0.324041 0.755123 0.089540
0.371572 0.757671 0.090669
0.414679 0.760098 0.092195
0.454688 0.761868 0.094087
0.494682 0.762890 0.095888
0.540200 0.765972 0.097749
0.584543 0.768612 0.100786
0.623423 0.768353 0.108843
0.660166 0.766888 0.122621
0.696864 0.766491 0.136629
0.732662 0.766598 0.148455
0.764645 0.767346 0.156252
0.795666 0.768902 0.163638
0.829282 0.769528 0.173129
0.857877 0.767865 0.179370
0.882170 0.764218 0.183719
0.902831 0.763760 0.191226
0.918593 0.763363 0.200107
0.930236 0.763531 0.209476
0.942184 0.767452 0.219623
0.957290 0.771191 0.229725
0.976593 0.775357 0.239368
0.996292 0.780224 0.248920
1.000000 0.785580 0.258152
0.087449 0.797314 0.092714
0.099077 0.797879 0.092210
0.111421 0.797208 0.092363
0.128817 0.802060 0.093492
0.146853 0.802716 0.094835
0.161440 0.792966 0.092638
0.182574 0.787900 0.092103
0.219547 0.788098 0.092866
0.267048 0.788022 0.092927
0.317556 0.787884 0.093660
0.368673 0.790326 0.094865
0.413489 0.792447 0.096422
0.455253 0.793301 0.097520
0.495598 0.794018 0.098650
0.540825 0.797559 0.100832
0.584710 0.798718 0.104311
0.623743 0.798108 0.110903
0.660960 0.797147 0.121798
0.697704 0.796262 0.134386
0.733639 0.796002 0.145876
0.765942 0.796216 0.154498
0.797360 0.795895 0.162234
0.832883 0.795697 0.171893
0.863951 0.795941 0.179248
0.888533 0.793759 0.184131
0.906920 0.791989 0.192370
0.920775 0.790600 0.201495
0.932891 0.792508 0.211337
0.944137 0.795483 0.221714
0.959548 0.798978 0.231739
0.978744 0.803006 0.241596
0.996704 0.807950 0.251102
1.000000 0.813107 0.260151
0.090684 0.833402 0.096162
0.102022 0.831754 0.095140
0.114488 0.829831 0.095232
0.134096 0.835904 0.097139
0.152453 0.836271 0.099001
0.165805 0.825025 0.096193
0.188296 0.822385 0.096666
0.219196 0.820859 0.097581
0.259434 0.819242 0.097658
0.311604 0.820844 0.098985
0.364828 0.821576 0.100542
0.413275 0.822080 0.100664
0.455207 0.822339 0.101839
0.495460 0.822278 0.103197
0.540719 0.825940 0.105791
0.584756 0.827008 0.109255
0.623865 0.826032 0.114611
0.661036 0.824659 0.123644
0.697688 0.823545 0.134371
0.733623 0.822812 0.144732
0.766278 0.822248 0.153826
0.798306 0.821347 0.162051
0.835706 0.822889 0.170108
0.869276 0.822873 0.176883
0.891173 0.816068 0.183734
0.908507 0.813581 0.192264
0.922728 0.814282 0.201785
0.934264 0.816190 0.211688
0.945449 0.819303 0.222309
0.960967 0.822629 0.232380
0.979904 0.826673 0.242252
0.996902 0.831464 0.251728
1.000000 0.836378 0.260456
0.094438 0.869184 0.099886
0.106600 0.867628 0.099504
0.120073 0.865507 0.099901
0.141741 0.871977 0.103456
0.161212 0.870741 0.104829
0.177523 0.861723 0.102251
0.197192 0.857542 0.103059
0.222995 0.854520 0.104082
0.258228 0.852644 0.104479
0.308217 0.854551 0.106233
0.362768 0.854292 0.108186
0.413336 0.853971 0.108263
0.456809 0.853651 0.108934
0.497337 0.853651 0.110658
0.542184 0.857099 0.114031
0.585443 0.857359 0.117540
0.624109 0.856001 0.122530
0.661250 0.854490 0.129961
0.697673 0.853208 0.138399
0.733471 0.852506 0.146883
0.766125 0.851652 0.155093
0.798413 0.850538 0.162921
0.835904 0.851698 0.170947
0.870008 0.850034 0.177890
0.894011 0.843030 0.184344
0.912627 0.843061 0.193286
0.925765 0.844221 0.203296
0.936675 0.846220 0.213703
0.947570 0.849439 0.224521
0.963760 0.852750 0.234730
0.982651 0.856901 0.244648
0.997452 0.861753 0.254292
1.000000 0.866239 0.262135
0.099229 0.904219 0.105470
0.112856 0.903181 0.105837
0.127840 0.900282 0.106294
0.152041 0.906264 0.111345
0.175097 0.905715 0.113603
0.189532 0.895186 0.109728
0.207919 0.890883 0.111116
0.231052 0.887922 0.112657
0.262272 0.885969 0.113298
0.305974 0.887617 0.114885
0.361608 0.886625 0.117708
0.414405 0.885878 0.118318
0.458656 0.884901 0.119005
0.499947 0.884611 0.120928
0.544747 0.886305 0.127199
0.586633 0.886381 0.130205
0.624506 0.885374 0.133730
0.661311 0.883726 0.139620
0.697246 0.882429 0.146380
0.732708 0.881636 0.153033
0.765026 0.880720 0.159091
0.797711 0.879408 0.164813
0.833906 0.879606 0.173159
0.867430 0.877012 0.181003
0.895705 0.872312 0.186191
0.915572 0.872969 0.194842
0.928420 0.874495 0.205005
