CUBE/3150 Film process - Bleach bypass.cube
# (null)
# 3 columns rgb, 35937 rows
# created by dwsgrading 2017-03-24 09:18:22 +0000
LUT_3D_SIZE 5
0.052216 0.051957 0.051438
0.196124 0.080903 0.060273
0.467353 0.101167 0.108125
0.741238 0.093416 0.131044
0.963439 0.122576 0.192142
0.068254 0.214313 0.093187
0.227161 0.222873 0.099382
0.499687 0.268956 0.130907
0.762020 0.266468 0.141192
0.966155 0.324147 0.196506
0.087053 0.497978 0.107225
0.271931 0.507103 0.092882
0.587274 0.550164 0.140246
0.825040 0.555459 0.170489
0.995163 0.589670 0.228885
0.090684 0.833402 0.096162
0.259434 0.819242 0.097658
0.623865 0.826032 0.114611
0.891173 0.816068 0.183734
1.000000 0.836378 0.260456
0.183810 0.994293 0.204349
0.408438 0.995102 0.227634
0.686458 0.996490 0.250340
0.902602 0.996399 0.254170
1.000000 0.997742 0.273823
0.052903 0.058747 0.165301
0.198474 0.077470 0.173236
0.477150 0.091264 0.226886
0.745144 0.086397 0.257771
0.961547 0.115496 0.353033
0.063294 0.208026 0.210147
0.223255 0.222141 0.215106
0.514244 0.259449 0.249317
0.774304 0.254093 0.278538
0.969421 0.327047 0.389319
0.086641 0.495506 0.275700
0.246754 0.509285 0.270588
0.596719 0.556222 0.286244
0.830625 0.571374 0.319066
0.990036 0.598428 0.416693
0.088106 0.833478 0.306569
0.235142 0.839231 0.309468
0.624063 0.841276 0.328267
0.897704 0.832044 0.359167
1.000000 0.845487 0.462272
0.195819 0.994308 0.430686
0.406577 0.995987 0.431922
0.684077 0.997543 0.454292
0.892805 0.996445 0.444663
1.000000 0.999344 0.473289
0.046113 0.064439 0.399542
0.163241 0.069535 0.405753
0.487846 0.069810 0.450965
0.755154 0.078141 0.487297
0.970810 0.111727 0.579828
0.054948 0.188342 0.450614
0.176959 0.195712 0.458045
0.534310 0.195346 0.495415
0.788663 0.223743 0.513085
0.974929 0.326085 0.609598
0.094865 0.517708 0.545220
0.232547 0.524895 0.544594
0.595926 0.574090 0.565164
0.844358 0.586069 0.570809
0.996628 0.616373 0.659220
0.096529 0.843763 0.600259
0.236408 0.849638 0.608774
0.633860 0.864759 0.606561
0.893126 0.865721 0.617975
1.000000 0.864851 0.689860
0.216205 0.994980 0.685542
0.432288 0.996719 0.684932
0.685420 0.999863 0.673915
0.892561 1.000000 0.667964
1.000000 1.000000 0.695918
0.044099 0.057481 0.684657
0.137026 0.061189 0.687190
0.509941 0.073198 0.718700
0.762387 0.081041 0.728405
0.969711 0.106981 0.792203
0.057496 0.157000 0.731762
0.154131 0.160937 0.741176
0.539666 0.176150 0.756939
0.795285 0.190539 0.761730
0.986633 0.322515 0.826352
0.083162 0.493782 0.810529
0.187350 0.497948 0.809552
0.586999 0.541848 0.819974
0.855024 0.562753 0.829206
0.998047 0.616419 0.869154
0.115282 0.842435 0.877226
0.228138 0.842329 0.869398
0.626215 0.865614 0.867231
0.900603 0.884215 0.879377
1.000000 0.879591 0.897612
0.225055 0.995087 0.914168
0.438407 0.996887 0.909163
0.684504 1.000000 0.889708
0.896956 1.000000 0.886046
1.000000 1.000000 0.902403
0.053132 0.064561 0.926085
0.192233 0.069673 0.930297
0.504845 0.084092 0.940475
0.787976 0.096361 0.949508
0.987213 0.110430 0.971939
0.068666 0.225696 0.942458
0.226337 0.241566 0.940536
0.537194 0.273671 0.945296
0.801282 0.289311 0.951064
0.994965 0.328176 0.982971
0.111681 0.490974 0.961791
0.286595 0.503182 0.957992
0.577585 0.554498 0.967224
0.838575 0.580392 0.976257
0.999283 0.611429 0.995483
0.162020 0.808103 0.986633
0.351690 0.812879 0.981369
0.632700 0.838926 0.990997
0.874907 0.862135 1.000000
1.000000 0.871946 1.000000
0.235401 0.994842 0.998306
0.453880 0.996796 0.999161
0.688685 0.999557 1.000000
0.900847 1.000000 1.000000
1.000000 1.000000 1.000000
