CUBE/3150 Film process - Bleach bypass.cube
# (null)
# 3 columns rgb, 35937 rows
# created by dwsgrading 2017-03-24 09:18:22 +0000
LUT_3D_SIZE 9
0.052216 0.051957 0.051438
0.088075 0.053712 0.052659
0.196124 0.080903 0.060273
0.335607 0.115419 0.090349
0.467353 0.101167 0.108125
0.598825 0.086580 0.115862
0.741238 0.093416 0.131044
0.859098 0.102663 0.152575
0.963439 0.122576 0.192142
0.056489 0.090913 0.055299
0.097185 0.095918 0.058167
0.221927 0.145037 0.073976
0.351736 0.173816 0.100938
0.477714 0.153414 0.117968
0.623362 0.141634 0.126909
0.749981 0.152316 0.136599
0.865400 0.170260 0.156313
0.961776 0.210239 0.193362
0.068254 0.214313 0.093187
0.120012 0.223285 0.096956
0.227161 0.222873 0.099382
0.364355 0.262257 0.124605
0.499687 0.268956 0.130907
0.640467 0.270558 0.131899
0.762020 0.266468 0.141192
0.878279 0.282567 0.161181
0.966155 0.324147 0.196506
0.077852 0.351751 0.126558
0.126986 0.356146 0.124987
0.250797 0.351736 0.113664
0.398657 0.374777 0.125109
0.541619 0.396719 0.149142
0.670283 0.406012 0.147356
0.783093 0.408682 0.154101
0.895750 0.422477 0.171420
0.976440 0.455268 0.205234
0.087053 0.497978 0.107225
0.138552 0.506981 0.101061
0.271931 0.507103 0.092882
0.430991 0.528832 0.092393
0.587274 0.550164 0.140246
0.711498 0.563317 0.156649
0.825040 0.555459 0.170489
0.918074 0.565805 0.189395
0.995163 0.589670 0.228885
0.084337 0.677668 0.089662
0.136141 0.684398 0.089097
0.275502 0.673304 0.086702
0.448218 0.687083 0.092836
0.618265 0.698314 0.116732
0.748806 0.700984 0.157916
0.858518 0.690776 0.181170
0.932647 0.697154 0.204166
0.997848 0.719463 0.239918
0.090684 0.833402 0.096162
0.152453 0.836271 0.099001
0.259434 0.819242 0.097658
0.455207 0.822339 0.101839
0.623865 0.826032 0.114611
0.766278 0.822248 0.153826
0.891173 0.816068 0.183734
0.945449 0.819303 0.222309
1.000000 0.836378 0.260456
0.120317 0.955520 0.130571
0.211872 0.950011 0.144228
0.297322 0.937835 0.145937
0.475868 0.932784 0.153140
0.637140 0.932601 0.167971
0.770779 0.928679 0.184360
0.896590 0.923400 0.204196
0.961578 0.933730 0.237491
1.000000 0.941924 0.269795
0.183810 0.994293 0.204349
0.297688 0.995590 0.220600
0.408438 0.995102 0.227634
0.549844 0.995544 0.239048
0.686458 0.996490 0.250340
0.798718 0.996429 0.249683
0.902602 0.996399 0.254170
0.965576 0.996872 0.262272
1.000000 0.997742 0.273823
0.051591 0.052949 0.084138
0.089158 0.053956 0.085893
0.210636 0.085206 0.104540
0.341451 0.116381 0.140124
0.472786 0.099870 0.161364
0.615213 0.086931 0.174258
0.745037 0.093904 0.189288
0.862303 0.102663 0.218235
0.962829 0.119631 0.270161
0.057328 0.092210 0.091051
0.099443 0.098146 0.095735
0.227863 0.145663 0.119951
0.353491 0.174563 0.149935
0.487953 0.150622 0.170962
0.628962 0.143542 0.176791
0.752285 0.153475 0.193042
0.864591 0.172168 0.221866
0.956497 0.212100 0.273259
0.069123 0.220295 0.143771
0.120546 0.221134 0.144244
0.231601 0.227863 0.149783
0.369268 0.265232 0.174777
0.511940 0.271168 0.183337
0.648524 0.270420 0.185458
0.765942 0.266239 0.200595
0.877317 0.285222 0.229755
0.966217 0.329000 0.285847
0.077592 0.356634 0.179446
0.127245 0.360815 0.178103
0.253147 0.358892 0.165469
0.402914 0.380621 0.179431
0.546059 0.401404 0.204852
0.675059 0.414862 0.200473
0.788846 0.416846 0.213352
0.893858 0.427710 0.241703
0.974929 0.458091 0.295735
0.087144 0.512230 0.175372
0.137087 0.518563 0.171344
0.274540 0.517128 0.156741
0.434226 0.537804 0.153017
0.592966 0.556298 0.199908
0.716564 0.567300 0.219013
0.827329 0.565209 0.235569
0.916808 0.570413 0.268666
0.986206 0.597604 0.311879
0.084489 0.691249 0.170840
0.133898 0.696834 0.168231
0.279728 0.686290 0.165652
0.451682 0.695842 0.170794
0.616464 0.704372 0.190402
0.753033 0.706920 0.226108
0.863905 0.700694 0.244892
0.933532 0.704616 0.286595
0.997986 0.720485 0.337575
0.092088 0.846662 0.164187
0.152407 0.852064 0.163119
0.249393 0.834974 0.169757
0.449760 0.834379 0.177676
0.618540 0.835889 0.199084
0.769162 0.830823 0.234089
0.893889 0.824857 0.259709
0.944778 0.825513 0.309346
1.000000 0.838697 0.359548
0.126040 0.957824 0.213748
0.209934 0.957061 0.217609
0.298665 0.946609 0.225345
0.477485 0.939467 0.237140
0.636606 0.937606 0.261143
0.773114 0.934432 0.282872
0.895720 0.929992 0.297597
0.958801 0.934844 0.330282
1.000000 0.939544 0.365042
0.187289 0.994583 0.311543
0.299184 0.996460 0.316884
0.409201 0.995895 0.325277
0.551431 0.996277 0.337972
0.685252 0.996948 0.350393
0.792111 0.996811 0.346502
0.893858 0.997024 0.349477
0.960571 0.997467 0.359487
1.000000 0.998520 0.369635
0.052903 0.058747 0.165301
0.095003 0.060334 0.170245
0.198474 0.077470 0.173236
0.345449 0.111986 0.203693
0.477150 0.091264 0.226886
0.617700 0.079088 0.241443
0.745144 0.086397 0.257771
0.859174 0.097032 0.288563
0.961547 0.115496 0.353033
0.058732 0.101106 0.183856
0.104692 0.107607 0.190143
0.216526 0.132921 0.195254
0.354864 0.165286 0.217075
0.493172 0.139666 0.236667
0.633112 0.136263 0.250751
0.754208 0.145327 0.266407
0.864927 0.168185 0.296727
0.960723 0.209751 0.368963
0.063294 0.208026 0.210147
0.109087 0.211963 0.212985
0.223255 0.222141 0.215106
0.369711 0.256596 0.235889
0.514244 0.259449 0.249317
0.651545 0.255207 0.262425
0.774304 0.254093 0.278538
0.888747 0.276753 0.316213
0.969421 0.327047 0.389319
0.080949 0.343511 0.252461
0.125154 0.349813 0.252903
0.229129 0.347768 0.250111
0.400137 0.377401 0.257649
0.551202 0.400610 0.278264
0.680964 0.414313 0.280003
0.796139 0.416831 0.292332
0.904005 0.427817 0.331411
0.979843 0.461967 0.402090
0.086641 0.495506 0.275700
0.130587 0.508293 0.278431
0.246754 0.509285 0.270588
0.433051 0.534966 0.261448
0.596719 0.556222 0.286244
0.722164 0.567956 0.302358
0.830625 0.571374 0.319066
0.918746 0.575479 0.354269
0.990036 0.598428 0.416693
0.084001 0.680110 0.298573
0.127321 0.691829 0.300145
0.257008 0.684550 0.294453
0.446479 0.696712 0.294087
0.618021 0.706996 0.295323
0.761715 0.710964 0.320821
0.875563 0.705303 0.338994
0.937179 0.706645 0.386542
0.998367 0.722744 0.441291
0.088106 0.833478 0.306569
0.144747 0.846510 0.307927
0.235142 0.839231 0.309468
0.448112 0.840314 0.313329
0.624063 0.841276 0.328267
0.775784 0.839216 0.344289
0.897704 0.832044 0.359167
0.944762 0.832975 0.409216
1.000000 0.845487 0.462272
0.116518 0.950072 0.340215
0.210163 0.954574 0.351049
0.287892 0.950225 0.353780
0.480034 0.945052 0.364508
0.644343 0.942092 0.384192
0.777447 0.937133 0.389258
0.900832 0.934554 0.403510
0.958587 0.938155 0.432486
1.000000 0.937484 0.466560
0.195819 0.994308 0.430686
0.301289 0.996124 0.433845
0.406577 0.995987 0.431922
0.553185 0.996765 0.444968
0.684077 0.997543 0.454292
0.790814 0.997330 0.448188
0.892805 0.996445 0.444663
0.958831 0.998489 0.458335
1.000000 0.999344 0.473289
0.046113 0.059174 0.293782
0.086336 0.060899 0.301259
0.189731 0.065721 0.299901
0.345647 0.084001 0.316106
0.480049 0.078279 0.325032
0.626459 0.070390 0.346960
0.741955 0.074311 0.352544
0.856443 0.083757 0.381979
0.962325 0.107256 0.453040
0.050782 0.104158 0.314824
0.091203 0.106126 0.319371
0.214572 0.113542 0.321447
0.361120 0.133516 0.326818
0.498192 0.120012 0.340154
0.640711 0.115496 0.360510
0.754818 0.125566 0.367025
0.866346 0.152224 0.395102
0.958221 0.201938 0.465858
0.054994 0.203830 0.330495
0.094682 0.211200 0.336400
0.201877 0.221820 0.334920
0.375067 0.245548 0.343709
0.518151 0.240604 0.353063
0.657633 0.238560 0.367224
0.775647 0.246357 0.375448
0.889448 0.273442 0.412757
0.968261 0.325963 0.486900
0.082246 0.350042 0.362676
0.127535 0.355703 0.364630
0.204181 0.357290 0.363607
0.390219 0.376822 0.370993
0.552911 0.401450 0.382452
0.691875 0.414740 0.391546
0.805783 0.414588 0.398230
0.911147 0.428351 0.442710
0.983505 0.464179 0.515816
0.102434 0.506523 0.399771
0.147097 0.514870 0.403922
0.241154 0.521523 0.396567
0.424353 0.540963 0.404303
0.599496 0.569406 0.412894
0.729809 0.579156 0.420874
0.835416 0.574990 0.425406
0.923659 0.579965 0.467582
0.993866 0.601144 0.534218
0.089708 0.686778 0.439445
0.134936 0.693355 0.440024
0.243824 0.695445 0.433982
0.449653 0.706737 0.434546
0.624521 0.717067 0.443381
0.761685 0.720470 0.448432
0.875807 0.713176 0.454017
0.938293 0.713344 0.501442
0.999039 0.728176 0.558740
0.090593 0.838453 0.450599
0.148592 0.846906 0.453559
0.231296 0.847807 0.451469
0.450629 0.851102 0.448951
0.626993 0.850340 0.458793
0.771176 0.845899 0.461799
0.893889 0.842298 0.476143
0.944472 0.838422 0.527260
1.000000 0.848600 0.575036
0.126040 0.951553 0.489372
0.216175 0.953246 0.495384
0.301854 0.952407 0.492760
0.484901 0.950439 0.497704
0.649790 0.947524 0.508873
0.778439 0.942916 0.511254
0.897963 0.936797 0.514366
0.955657 0.937270 0.547417
1.000000 0.934066 0.576913
0.200137 0.994446 0.559136
0.305379 0.995895 0.558846
0.417700 0.996353 0.559579
0.555901 0.997406 0.562921
0.683314 0.998337 0.562783
0.786358 0.998077 0.553643
0.888518 0.994904 0.550317
0.956573 0.997971 0.564752
1.000000 0.999878 0.584787
0.046113 0.064439 0.399542
0.084092 0.065309 0.404135
0.163241 0.069535 0.405753
0.349950 0.071489 0.435996
0.487846 0.069810 0.450965
0.632761 0.073884 0.476463
0.755154 0.078141 0.487297
0.870970 0.087861 0.512413
0.970810 0.111727 0.579828
0.051072 0.107256 0.416861
0.091783 0.109514 0.424781
0.180865 0.115679 0.429358
0.368856 0.114748 0.455146
0.506096 0.112322 0.468132
0.648905 0.117418 0.493263
0.769009 0.128542 0.501640
0.880156 0.155947 0.524132
0.965484 0.206332 0.592569
0.054948 0.188342 0.450614
0.094163 0.191699 0.454444
0.176959 0.195712 0.458045
0.380056 0.205524 0.476921
0.534310 0.195346 0.495415
0.667735 0.213306 0.506355
0.788663 0.223743 0.513085
0.897780 0.261707 0.545998
0.974929 0.326085 0.609598
0.067643 0.352728 0.490867
0.107897 0.358221 0.496651
0.184390 0.355352 0.496727
0.398886 0.378592 0.511025
0.562997 0.398428 0.526436
0.698589 0.414313 0.539071
0.813291 0.414908 0.545052
0.915938 0.435767 0.576669
0.984680 0.470253 0.630045
0.094865 0.517708 0.545220
0.141207 0.521050 0.546426
0.232547 0.524895 0.544594
0.423911 0.553460 0.555779
0.595926 0.574090 0.565164
0.730114 0.586679 0.569940
0.844358 0.586069 0.570809
0.928542 0.592752 0.607767
0.996628 0.616373 0.659220
0.093339 0.691600 0.586740
0.139590 0.696056 0.588281
0.241642 0.699245 0.589197
0.448112 0.712184 0.583062
0.624445 0.727337 0.591562
0.760967 0.736843 0.597116
0.877333 0.731807 0.603510
0.939605 0.731090 0.633387
0.999786 0.745113 0.679408
0.096529 0.843763 0.600259
0.159152 0.851728 0.606424
0.236408 0.849638 0.608774
0.448585 0.856992 0.599130
0.633860 0.864759 0.606561
0.767987 0.867079 0.609522
0.893126 0.865721 0.617975
0.946883 0.857481 0.651560
1.000000 0.864851 0.689860
0.142275 0.952132 0.633463
0.230045 0.952773 0.636698
0.314870 0.951217 0.637156
0.494240 0.953399 0.637461
0.662486 0.954177 0.643839
0.786191 0.951431 0.649897
0.897261 0.943755 0.652293
0.955352 0.940398 0.666468
1.000000 0.935592 0.685252
0.216205 0.994980 0.685542
0.319524 0.996231 0.685374
0.432288 0.996719 0.684932
0.564401 0.998672 0.681941
0.685420 0.999863 0.673915
0.787854 1.000000 0.668833
0.892561 1.000000 0.667964
0.958053 1.000000 0.685496
1.000000 1.000000 0.695918
0.047852 0.061357 0.541039
0.087266 0.062150 0.551629
0.158145 0.065751 0.549813
0.352407 0.076295 0.572412
0.516014 0.072663 0.594751
0.640940 0.074327 0.600473
0.760632 0.079271 0.610407
0.877974 0.088731 0.635447
0.973312 0.110796 0.693492
0.055940 0.102129 0.571115
0.096590 0.104936 0.581048
0.176974 0.110323 0.582132
0.378363 0.118151 0.601953
0.535424 0.115450 0.615961
0.666484 0.120302 0.624628
0.779263 0.133379 0.636927
0.887266 0.159716 0.653590
0.973877 0.209842 0.710475
0.057816 0.161807 0.597803
0.099062 0.163561 0.606180
0.181308 0.164462 0.605615
0.387060 0.172244 0.621241
0.553872 0.172427 0.637507
0.686275 0.177920 0.644892
0.801678 0.196689 0.654215
0.906752 0.245899 0.672847
0.982620 0.322942 0.725200
0.066148 0.327031 0.638392
0.108522 0.333333 0.644083
0.188022 0.327932 0.642313
0.403616 0.352605 0.651713
0.574701 0.375448 0.664103
0.710643 0.385748 0.676036
0.826322 0.390295 0.678111
0.921660 0.423743 0.698558
0.993561 0.470771 0.747387
0.083650 0.526299 0.691432
0.129061 0.529412 0.689525
0.213001 0.530892 0.684627
0.423514 0.546914 0.688258
0.604074 0.569070 0.699260
0.737697 0.580911 0.706493
0.854429 0.583444 0.711925
0.932418 0.596689 0.733547
0.997940 0.622827 0.775051
0.096880 0.699672 0.727840
0.144900 0.702098 0.725750
0.228351 0.707301 0.729152
0.446464 0.717479 0.722881
0.627054 0.735164 0.727092
0.769360 0.744137 0.734325
0.885710 0.741360 0.737133
0.944427 0.745892 0.761227
1.000000 0.760647 0.795727
0.109560 0.851835 0.744640
0.169879 0.856214 0.744244
0.234211 0.853697 0.745129
0.444556 0.861860 0.738598
0.634028 0.873518 0.739590
0.774441 0.886885 0.750835
0.897536 0.888670 0.760693
0.951919 0.876951 0.778744
1.000000 0.879377 0.801968
0.163333 0.954223 0.764019
0.242390 0.954055 0.762417
0.328557 0.952804 0.763027
0.504356 0.955596 0.767926
0.670451 0.959960 0.772854
0.793042 0.958099 0.776852
0.897276 0.946120 0.776303
0.954360 0.942596 0.784497
1.000000 0.943099 0.800198
0.226352 0.996109 0.803281
0.330312 0.997162 0.802319
0.442405 0.997711 0.799649
0.570001 0.999634 0.796139
0.685237 1.000000 0.783749
0.793011 1.000000 0.780697
0.895445 1.000000 0.785870
0.961151 1.000000 0.799405
1.000000 1.000000 0.806699
0.044099 0.057481 0.684657
0.087190 0.057755 0.696193
0.137026 0.061189 0.687190
0.340368 0.073930 0.707027
0.509941 0.073198 0.718700
0.643366 0.076402 0.718914
0.762387 0.081041 0.728405
0.881407 0.089982 0.748745
0.969711 0.106981 0.792203
0.054017 0.099168 0.712871
0.098619 0.103975 0.725002
0.148623 0.106508 0.715190
0.362036 0.120043 0.727703
0.528771 0.118761 0.736019
0.658640 0.123735 0.735805
0.774746 0.131884 0.741741
0.888258 0.159274 0.758114
0.976333 0.208392 0.810117
0.057496 0.157000 0.731762
0.100237 0.159960 0.740200
0.154131 0.160937 0.741176
0.361303 0.173877 0.749813
0.539666 0.176150 0.756939
0.679774 0.182910 0.764950
0.795285 0.190539 0.761730
0.907454 0.241291 0.777234
0.986633 0.322515 0.826352
0.066636 0.251713 0.759793
0.109865 0.257481 0.765332
0.162982 0.254520 0.767590
0.378714 0.279042 0.778119
0.565225 0.310384 0.786252
0.706218 0.331502 0.794919
0.824582 0.339895 0.791821
0.923049 0.392889 0.803784
0.995270 0.461570 0.845457
0.083162 0.493782 0.810529
0.131212 0.497749 0.811246
0.187350 0.497948 0.809552
0.396139 0.516258 0.811246
0.586999 0.541848 0.819974
0.726833 0.555413 0.824460
0.855024 0.562753 0.829206
0.934569 0.585290 0.840421
0.998047 0.616419 0.869154
0.097124 0.677058 0.842588
0.153628 0.686198 0.846998
0.214572 0.688457 0.847807
0.416526 0.695689 0.841672
0.616175 0.716243 0.845899
0.759793 0.729686 0.855863
0.885740 0.736736 0.860609
0.945724 0.743847 0.868284
1.000000 0.760098 0.893721
0.115282 0.842435 0.877226
0.169345 0.844114 0.872038
0.228138 0.842329 0.869398
0.410925 0.852384 0.867857
0.626215 0.865614 0.867231
0.773983 0.877623 0.875425
0.900603 0.884215 0.879377
0.954681 0.876814 0.884810
1.000000 0.879591 0.897612
0.161486 0.949676 0.885344
0.239338 0.950179 0.881193
0.323308 0.949172 0.879271
0.482460 0.952804 0.886915
0.667613 0.957687 0.890806
0.791470 0.952926 0.888609
0.895994 0.942306 0.879347
0.954223 0.941405 0.886122
1.000000 0.943313 0.895338
0.225055 0.995087 0.914168
0.329763 0.996445 0.911879
0.438407 0.996887 0.909163
0.563790 0.998978 0.902770
0.684504 1.000000 0.889708
0.794644 1.000000 0.887633
0.896956 1.000000 0.886046
0.962448 1.000000 0.897078
1.000000 1.000000 0.902403
0.047990 0.057160 0.818006
0.097017 0.060288 0.831556
0.152132 0.062058 0.819226
0.316808 0.075792 0.833524
0.502373 0.076020 0.838468
0.642542 0.079927 0.839124
0.779858 0.085863 0.845273
0.883360 0.090440 0.851667
0.981201 0.110842 0.902617
0.059724 0.110140 0.849836
0.109026 0.115099 0.858366
0.168170 0.116808 0.843626
0.329152 0.132021 0.848478
0.513268 0.135271 0.852506
0.659525 0.145953 0.861433
0.786206 0.150011 0.857939
0.892515 0.160510 0.862501
0.979782 0.206287 0.908721
0.060945 0.177111 0.863081
0.115740 0.182986 0.873259
0.175692 0.184924 0.870069
0.328740 0.199908 0.873564
0.528801 0.210224 0.877623
0.675975 0.222477 0.884901
0.803052 0.226551 0.882353
0.914488 0.248554 0.888090
0.990997 0.322515 0.923156
0.072450 0.257313 0.884733
0.129244 0.263325 0.887984
0.197818 0.270817 0.891600
0.352102 0.285985 0.897780
0.549218 0.309224 0.901884
0.699123 0.331594 0.906859
0.823468 0.337484 0.903151
0.929442 0.376318 0.912490
0.996353 0.457816 0.935805
0.093690 0.444968 0.914733
0.156512 0.451072 0.913268
0.223514 0.453025 0.911864
0.375494 0.480720 0.914900
0.573190 0.509255 0.916274
0.716976 0.532235 0.918853
0.844694 0.546090 0.921416
0.937499 0.569207 0.928023
0.998962 0.612863 0.945495
0.113191 0.659052 0.930449
0.187869 0.667887 0.928756
0.262104 0.668925 0.926635
0.409522 0.679088 0.925002
0.605356 0.698863 0.926024
0.742336 0.713939 0.928344
0.874876 0.722606 0.929992
0.948409 0.737179 0.939849
1.000000 0.757641 0.953582
0.136156 0.823026 0.939376
0.205768 0.823835 0.936019
0.281880 0.821164 0.933425
0.420584 0.830091 0.932326
0.622400 0.844526 0.932509
0.763302 0.857908 0.934325
0.885679 0.866041 0.936629
0.957000 0.873030 0.943847
1.000000 0.875929 0.950332
0.168383 0.948013 0.956207
0.250813 0.948119 0.954421
0.339620 0.946563 0.952667
0.478157 0.951736 0.956436
0.666941 0.954925 0.958114
0.791119 0.949493 0.951339
0.894789 0.940246 0.939788
0.955428 0.942870 0.942199
1.000000 0.945205 0.949355
0.230533 0.995270 0.983917
0.341711 0.996536 0.984421
0.445380 0.996918 0.980713
0.563775 0.998566 0.969955
0.686290 1.000000 0.954040
0.797818 1.000000 0.949401
0.899367 1.000000 0.945205
0.964034 1.000000 0.951247
1.000000 1.000000 0.955779
0.053132 0.064561 0.926085
0.113405 0.068055 0.932555
0.192233 0.069673 0.930297
0.327245 0.078431 0.936034
0.504845 0.084092 0.940475
0.654215 0.092653 0.947112
0.787976 0.096361 0.949508
0.900038 0.098573 0.952697
0.987213 0.110430 0.971939
0.062257 0.133700 0.938033
0.130694 0.141466 0.939559
0.207584 0.141482 0.933730
0.345220 0.157336 0.935805
0.519158 0.167102 0.938674
0.661311 0.181720 0.944213
0.792721 0.184680 0.945373
0.913710 0.194217 0.951720
0.992081 0.214435 0.972381
0.068666 0.225696 0.942458
0.142229 0.233127 0.941573
0.226337 0.241566 0.940536
0.355962 0.253544 0.940917
0.537194 0.273671 0.945296
0.673838 0.286198 0.950362
0.801282 0.289311 0.951064
0.921431 0.298604 0.956802
0.994965 0.328176 0.982971
0.083238 0.333440 0.947585
0.164477 0.347082 0.946975
0.255024 0.355062 0.947494
0.383749 0.373175 0.951064
0.554192 0.393851 0.955184
0.702312 0.413077 0.961959
0.819181 0.417060 0.961608
0.930739 0.428763 0.969543
0.996902 0.458534 0.989532
0.111681 0.490974 0.961791
0.195926 0.498756 0.959472
0.286595 0.503182 0.957992
0.422827 0.532372 0.963790
0.577585 0.554498 0.967224
0.710719 0.570947 0.971954
0.838575 0.580392 0.976257
0.937118 0.590951 0.984314
0.999283 0.611429 0.995483
0.143206 0.669337 0.976516
0.231952 0.674495 0.974899
0.329931 0.679744 0.972717
0.461738 0.691417 0.974365
0.611811 0.708904 0.979919
0.735363 0.721950 0.984268
0.862119 0.729625 0.987991
0.947585 0.740719 0.997681
1.000000 0.754284 0.998428
0.162020 0.808103 0.986633
0.252628 0.811704 0.984512
0.351690 0.812879 0.981369
0.481224 0.820813 0.982559
0.632700 0.838926 0.990997
0.760540 0.853025 0.995651
0.874907 0.862135 1.000000
0.955108 0.870146 1.000000
1.000000 0.871946 1.000000
0.186969 0.932921 0.996185
0.288411 0.935790 0.996658
0.391455 0.935393 0.996796
0.526452 0.942229 0.998215
0.673701 0.950362 0.999557
0.790982 0.946136 1.000000
0.888838 0.937041 1.000000
0.953719 0.941390 1.000000
1.000000 0.943252 1.000000
0.235401 0.994842 0.998306
0.350072 0.996323 0.999069
0.453880 0.996796 0.999161
0.566873 0.998123 1.000000
0.688685 0.999557 1.000000
0.799664 1.000000 1.000000
0.900847 1.000000 1.000000
0.965057 1.000000 1.000000
1.000000 1.000000 1.000000
