CUBE/3231 Retro.cube
# (null)
# 3 columns rgb, 35937 rows
# created by dwsgrading 2017-03-24 09:18:28 +0000
LUT_3D_SIZE 9
0.000000 0.000000 0.001465
0.080430 0.000000 0.005875
0.179919 0.000000 0.009644
0.283482 0.000000 0.014191
0.389471 0.000000 0.019013
0.497200 0.000000 0.023987
0.606332 0.004044 0.029084
0.716625 0.009232 0.034272
0.827893 0.014496 0.039536
0.014496 0.080888 0.026627
0.109300 0.089006 0.034745
0.211658 0.095644 0.041398
0.316976 0.101930 0.047684
0.424277 0.108064 0.053819
0.533074 0.114107 0.059861
0.643091 0.120104 0.065858
0.754162 0.126070 0.071809
0.866117 0.132006 0.077760
0.042329 0.196551 0.054475
0.138338 0.205890 0.063798
0.241703 0.213519 0.071427
0.347875 0.220661 0.078569
0.455909 0.227527 0.085435
0.565347 0.234226 0.092134
0.675975 0.240803 0.098726
0.787564 0.247303 0.105226
0.900023 0.253742 0.111666
0.071031 0.316503 0.083177
0.167758 0.326528 0.093202
0.271733 0.334798 0.101472
0.378485 0.342504 0.109178
0.487037 0.349889 0.116564
0.596963 0.357076 0.123751
0.708019 0.364096 0.130785
0.820035 0.371008 0.137697
0.932876 0.377844 0.144518
0.100313 0.439124 0.112459
0.197543 0.449653 0.122988
0.301991 0.458396 0.131731
0.409171 0.466529 0.139864
0.518135 0.474327 0.147662
0.628443 0.481880 0.155215
0.739849 0.489281 0.162615
0.852201 0.496529 0.169863
0.965377 0.503670 0.177005
0.130037 0.563714 0.142184
0.227665 0.574639 0.153109
0.332479 0.583749 0.162219
0.440009 0.592233 0.170703
0.549294 0.600366 0.178836
0.659922 0.608240 0.186709
0.771649 0.615930 0.194400
0.884276 0.623468 0.201938
0.997711 0.630884 0.209354
0.160128 0.689906 0.172259
0.258061 0.701152 0.183520
0.363195 0.710567 0.192935
0.471015 0.719356 0.201724
0.580591 0.727764 0.210132
0.691493 0.735912 0.218265
0.803464 0.743847 0.226215
0.916350 0.751644 0.234012
1.000000 0.759304 0.241672
0.190509 0.817395 0.202640
0.288731 0.828931 0.214176
0.394125 0.838621 0.223865
0.502205 0.847654 0.232898
0.612024 0.856306 0.241550
0.723156 0.864683 0.249928
0.835355 0.872862 0.258106
0.948455 0.880873 0.266117
1.000000 0.888747 0.273991
0.221149 0.946029 0.233280
0.319615 0.957809 0.245060
0.425238 0.967712 0.254978
0.533547 0.976989 0.264240
0.643580 0.985855 0.273106
0.754925 0.994446 0.281697
0.867323 1.000000 0.290074
0.980636 1.000000 0.298283
1.000000 1.000000 0.306355
0.000000 0.000000 0.067460
0.084489 0.000000 0.071550
0.184665 0.000000 0.076005
0.288518 0.000000 0.080827
0.394690 0.000000 0.085832
0.502571 0.004318 0.090959
0.611811 0.009522 0.096178
0.722194 0.014817 0.101457
0.833555 0.020157 0.106798
0.019608 0.086000 0.093339
0.114580 0.094285 0.101640
0.217060 0.101061 0.108400
0.322499 0.107454 0.114809
0.429892 0.113680 0.121019
0.538750 0.119799 0.127153
0.648859 0.125856 0.133211
0.759976 0.131884 0.139239
0.871992 0.137881 0.145235
0.047883 0.202106 0.121630
0.143984 0.211521 0.131044
0.247410 0.219226 0.138750
0.353643 0.226429 0.145953
0.461738 0.233356 0.152880
0.571252 0.240116 0.159640
0.681910 0.246754 0.166278
0.793561 0.253300 0.172824
0.906050 0.259770 0.179294
0.076829 0.322301 0.150576
0.173617 0.332387 0.160662
0.277653 0.340703 0.168978
0.384436 0.348455 0.176745
0.493034 0.355901 0.184176
0.603006 0.363119 0.191394
0.714107 0.370184 0.198474
0.826154 0.377142 0.205417
0.939040 0.383993 0.212284
0.106294 0.445106 0.180041
0.203555 0.455680 0.190616
0.308049 0.464454 0.199390
0.415259 0.472633 0.207568
0.524269 0.480461 0.215396
0.634607 0.488060 0.222995
0.746059 0.495476 0.230411
0.858442 0.502754 0.237705
0.971633 0.509941 0.244877
0.136156 0.569833 0.209903
0.233814 0.580789 0.220859
0.338659 0.589929 0.229999
0.446220 0.598459 0.238529
0.555550 0.606607 0.246677
0.666194 0.614511 0.254582
0.777951 0.622232 0.262303
0.890608 0.629801 0.269871
1.000000 0.637247 0.277317
0.166354 0.696132 0.240085
0.264317 0.707408 0.251377
0.369482 0.716854 0.260822
0.477333 0.725673 0.269642
0.586938 0.734096 0.278065
0.697856 0.742275 0.286244
0.809857 0.750240 0.294209
0.922759 0.758053 0.302022
1.000000 0.765728 0.309697
0.196826 0.823728 0.270573
0.295079 0.835279 0.282124
0.400504 0.844984 0.291829
0.508598 0.854047 0.300893
0.618448 0.862730 0.309575
0.729595 0.871122 0.317983
0.841825 0.879332 0.326177
0.954940 0.887358 0.334203
1.000000 0.895247 0.342092
0.227558 0.952438 0.301289
0.326040 0.964233 0.313100
0.431693 0.974166 0.323033
0.540017 0.983459 0.332311
0.650065 0.992340 0.341207
0.761425 1.000000 0.349813
0.873854 1.000000 0.358221
0.987182 1.000000 0.366445
1.000000 1.000000 0.374517
0.000000 0.000000 0.138231
0.088533 0.000000 0.142702
0.189166 0.000000 0.147616
0.293278 0.000000 0.152682
0.399619 0.004120 0.157870
0.507622 0.009369 0.163119
0.616983 0.014694 0.168444
0.727459 0.020066 0.173816
0.838895 0.025483 0.179232
0.024430 0.090822 0.165270
0.119554 0.099260 0.173709
0.222171 0.106157 0.180606
0.327703 0.112657 0.187106
0.435172 0.118959 0.193408
0.544121 0.125154 0.199619
0.654276 0.131289 0.205737
0.765469 0.137377 0.211826
0.877531 0.143435 0.217884
0.053117 0.207340 0.193957
0.149294 0.216831 0.203464
0.252796 0.224613 0.211231
0.359106 0.231891 0.218509
0.467247 0.238865 0.225498
0.576806 0.245686 0.232303
0.687526 0.252369 0.238987
0.799222 0.258946 0.245579
0.911757 0.265476 0.252094
0.082307 0.327779 0.223148
0.179141 0.337911 0.233295
0.283223 0.346288 0.241672
0.390066 0.354086 0.249470
0.498711 0.361578 0.256947
0.608728 0.368826 0.264210
0.719860 0.375937 0.271321
0.831952 0.382925 0.278309
0.944854 0.389822 0.285206
0.111940 0.450752 0.252781
0.209247 0.461372 0.263416
0.313787 0.470176 0.272221
0.421027 0.478401 0.280446
0.530068 0.486259 0.288304
0.640436 0.493889 0.295933
0.751919 0.501350 0.303380
0.864332 0.508659 0.310704
0.977554 0.515862 0.317906
0.141939 0.575601 0.282780
0.239628 0.586618 0.293782
0.344518 0.595773 0.302953
0.452094 0.604334 0.311513
0.561456 0.612528 0.319692
0.672129 0.620447 0.327626
0.783902 0.628199 0.335363
0.896605 0.635782 0.342962
1.000000 0.643259 0.350439
0.172244 0.702022 0.313085
0.270237 0.713329 0.324407
0.375433 0.722805 0.333867
0.483299 0.731640 0.342718
0.592935 0.740108 0.351171
0.703868 0.748302 0.359365
0.815900 0.756298 0.367361
0.928832 0.764126 0.375189
1.000000 0.771832 0.382895
0.202808 0.829709 0.343648
0.301091 0.841291 0.355245
0.406531 0.851026 0.364965
0.514656 0.860105 0.374060
0.624521 0.868803 0.382757
0.735698 0.877226 0.391180
0.847944 0.885451 0.399405
0.961089 0.893492 0.407446
1.000000 0.901411 0.415366
0.233616 0.958495 0.374456
0.332128 0.970321 0.386282
0.437797 0.980270 0.396246
0.546151 0.989578 0.405554
0.656229 0.998505 0.414466
0.767605 1.000000 0.423087
0.880049 1.000000 0.431510
0.993393 1.000000 0.439750
1.000000 1.000000 0.447852
0.000229 0.000000 0.210315
0.092668 0.000000 0.216068
0.193652 0.000000 0.221332
0.297963 0.003632 0.226612
0.404471 0.008957 0.231952
0.512596 0.014343 0.237324
0.622049 0.019760 0.242741
0.732601 0.025223 0.248203
0.844114 0.030716 0.253697
0.029175 0.095567 0.239261
0.124437 0.104158 0.247837
0.227176 0.111162 0.254856
0.332799 0.117754 0.261448
0.440360 0.124147 0.267826
0.549371 0.130419 0.274098
0.659602 0.136599 0.280293
0.770840 0.142748 0.286442
0.882963 0.148852 0.292546
0.058244 0.212467 0.268330
0.154498 0.222049 0.277897
0.258076 0.229892 0.285756
0.364431 0.237217 0.293080
0.472648 0.244266 0.300130
0.582254 0.251118 0.306981
0.693019 0.257847 0.313710
0.804746 0.264485 0.320348
0.917327 0.271061 0.326909
0.087663 0.333135 0.297749
0.184558 0.343328 0.307958
0.288685 0.351751 0.316365
0.395575 0.359594 0.324224
0.504265 0.367117 0.331746
0.614313 0.374426 0.339040
0.725490 0.381567 0.346197
0.837613 0.388602 0.353216
0.950561 0.395529 0.360143
0.117464 0.456275 0.327550
0.214817 0.466941 0.338216
0.319387 0.475792 0.347066
0.426673 0.484047 0.355322
0.535744 0.491951 0.363226
0.646159 0.499611 0.370886
0.757671 0.507088 0.378363
0.870115 0.514427 0.385718
0.983368 0.521660 0.392950
0.147585 0.581262 0.357671
0.245319 0.592294 0.368704
0.350240 0.601511 0.377905
0.457847 0.610086 0.386496
0.567239 0.618311 0.394720
0.677943 0.626261 0.402670
0.789746 0.634028 0.410437
0.902464 0.641657 0.418067
1.000000 0.649149 0.425559
0.178012 0.707774 0.388083
0.276036 0.719127 0.399435
0.381247 0.728618 0.408927
0.489158 0.737484 0.417792
0.598810 0.745983 0.426291
0.709773 0.754192 0.434501
0.821820 0.762219 0.442527
0.934783 0.770077 0.450385
1.000000 0.777798 0.458106
0.208667 0.835569 0.418753
0.306966 0.847181 0.430365
0.412436 0.856931 0.440116
0.520577 0.866041 0.449226
0.630472 0.874754 0.457954
0.741665 0.883207 0.466392
0.853941 0.891447 0.474632
0.967102 0.899519 0.482704
1.000000 0.907439 0.490639
0.239567 0.964446 0.449638
0.338094 0.976287 0.461479
0.443778 0.986267 0.471458
0.552148 0.995590 0.480797
0.662242 1.000000 0.489723
0.773648 1.000000 0.498375
0.886107 1.000000 0.506813
0.999466 1.000000 0.515068
1.000000 1.000000 0.523186
0.003738 0.000000 0.284474
0.096849 0.000000 0.290898
0.198108 0.002808 0.296452
0.302617 0.008286 0.301930
0.409262 0.013764 0.307393
0.517510 0.019242 0.312886
0.627054 0.024765 0.318410
0.737697 0.030304 0.323949
0.849271 0.035874 0.329519
0.033890 0.100282 0.314626
0.129290 0.108995 0.323339
0.232120 0.116106 0.330449
0.337835 0.122789 0.337133
0.445472 0.129259 0.343603
0.554559 0.135592 0.349935
0.664851 0.141848 0.356191
0.776135 0.148058 0.362402
0.888319 0.154208 0.368551
0.063310 0.217533 0.344045
0.159640 0.227192 0.353704
0.263279 0.235096 0.361608
0.369711 0.242496 0.369009
0.477974 0.249592 0.376104
0.587625 0.256504 0.383017
0.698436 0.263279 0.389792
0.810208 0.269947 0.396460
0.922835 0.276555 0.403067
0.092958 0.338415 0.373693
0.189899 0.348669 0.383948
0.294087 0.357137 0.392416
0.401007 0.365042 0.400305
0.509743 0.372595 0.407874
0.619837 0.379934 0.415213
0.731044 0.387121 0.422400
0.843198 0.394186 0.429465
0.956176 0.401144 0.436423
0.122911 0.461723 0.403647
0.220310 0.472435 0.414359
0.324910 0.481315 0.423255
0.432242 0.489601 0.431540
0.541344 0.497551 0.439475
0.651789 0.505241 0.447166
0.763333 0.512749 0.454688
0.875807 0.520119 0.462058
0.989090 0.527382 0.469322
0.153170 0.586847 0.433906
0.250919 0.597910 0.444984
0.355871 0.607141 0.454215
0.463523 0.615763 0.462821
0.572946 0.624002 0.471077
0.683680 0.631998 0.479057
0.795499 0.639796 0.486854
0.908248 0.647440 0.494499
1.000000 0.654963 0.502022
0.183688 0.713466 0.464424
0.281743 0.724834 0.475807
0.386999 0.734371 0.485328
0.494926 0.743252 0.494224
0.604593 0.751766 0.502739
0.715587 0.760006 0.510979
0.827665 0.768048 0.519020
0.940642 0.775937 0.526894
1.000000 0.783688 0.534646
0.214450 0.841337 0.495186
0.312764 0.852979 0.506813
0.418265 0.862760 0.516594
0.526436 0.871885 0.525734
0.636347 0.880629 0.534478
0.747555 0.889097 0.542947
0.859846 0.897353 0.551202
0.973037 0.905455 0.559289
1.000000 0.913405 0.567239
0.245411 0.970291 0.526146
0.343969 0.982162 0.538018
0.449683 0.992157 0.548012
0.558068 1.000000 0.557366
0.668193 1.000000 0.566323
0.779599 1.000000 0.574990
0.892088 1.000000 0.583444
1.000000 1.000000 0.591714
1.000000 1.000000 0.599863
0.007523 0.000000 0.359976
0.101076 0.001480 0.366842
0.202579 0.007279 0.372641
0.307256 0.012924 0.378271
0.414038 0.018524 0.383886
0.522377 0.024125 0.389487
0.632013 0.029725 0.395087
0.742733 0.035355 0.400717
0.854398 0.040986 0.406348
0.038575 0.104982 0.391028
0.134096 0.113802 0.399863
0.237034 0.121019 0.407080
0.342824 0.127794 0.413840
0.450538 0.134325 0.420386
0.559686 0.140734 0.426795
0.670039 0.147051 0.433112
0.781399 0.153307 0.439368
0.893614 0.159518 0.445579
0.068345 0.222568 0.420798
0.164736 0.232288 0.430503
0.268437 0.240269 0.438483
0.374929 0.247715 0.445945
0.483238 0.254856 0.453086
0.592950 0.261814 0.460044
0.703807 0.268635 0.466865
0.815625 0.275364 0.473594
0.928283 0.282002 0.480232
0.098192 0.343664 0.450645
0.195178 0.353964 0.460945
0.299413 0.362478 0.469474
0.406394 0.370413 0.477409
0.515160 0.378027 0.485008
0.625284 0.385397 0.492393
0.736538 0.392615 0.499611
0.848737 0.399710 0.506706
0.961746 0.406714 0.513695
0.128313 0.467124 0.480766
0.225742 0.477867 0.491508
0.330388 0.486793 0.500435
0.437751 0.495125 0.508766
0.546883 0.503090 0.516732
0.657359 0.510811 0.524468
0.768933 0.518364 0.532006
0.881437 0.525765 0.539406
0.994751 0.533043 0.546700
0.158694 0.592371 0.511147
0.256474 0.603464 0.522255
0.361471 0.612741 0.531518
0.469139 0.621378 0.540154
0.578592 0.629648 0.548440
0.689342 0.637675 0.556451
0.801205 0.645487 0.564279
0.913970 0.653162 0.571939
1.000000 0.660700 0.579492
0.189319 0.719097 0.541772
0.287404 0.730495 0.553170
0.392676 0.740047 0.562722
0.500633 0.748974 0.571649
0.610330 0.757504 0.580179
0.721340 0.765774 0.588449
0.833448 0.773831 0.596506
0.946441 0.781735 0.604410
1.000000 0.789502 0.612192
0.220172 0.847059 0.572610
0.318517 0.858717 0.584283
0.424033 0.868513 0.594079
0.532219 0.877684 0.603235
0.642161 0.886442 0.612009
0.753384 0.894926 0.620493
0.865705 0.903212 0.628763
0.978912 0.911315 0.636881
1.000000 0.919295 0.644846
0.251209 0.976089 0.603662
0.349783 0.987976 0.615549
0.455528 0.998001 0.625574
0.563928 1.000000 0.634943
0.674067 1.000000 0.643915
0.785504 1.000000 0.652598
0.898009 1.000000 0.661067
1.000000 1.000000 0.669367
1.000000 1.000000 0.677531
0.011444 0.000000 0.436484
0.105333 0.005753 0.443702
0.207065 0.011765 0.449699
0.311894 0.017563 0.455497
0.418784 0.023285 0.461219
0.527230 0.028977 0.466926
0.636957 0.034668 0.472618
0.747753 0.040375 0.478309
0.859480 0.046067 0.484016
0.043259 0.109651 0.468299
0.138888 0.118593 0.477241
0.241917 0.125902 0.484550
0.347799 0.132753 0.491402
0.455589 0.139376 0.498024
0.564797 0.145846 0.504494
0.675212 0.152209 0.510857
0.786618 0.158526 0.517174
0.898878 0.164782 0.523430
0.073335 0.227558 0.498375
0.169802 0.237354 0.508156
0.273564 0.245396 0.516213
0.380102 0.252888 0.523705
0.488472 0.260090 0.530907
0.598230 0.267094 0.537911
0.709133 0.273960 0.544778
0.820981 0.280720 0.551553
0.933684 0.287404 0.558236
0.103395 0.348867 0.528435
0.200443 0.359213 0.538796
0.304723 0.367773 0.547356
0.411734 0.375753 0.555337
0.520546 0.383398 0.562982
0.630716 0.390829 0.570397
0.742000 0.398077 0.577661
0.854231 0.405203 0.584787
0.967269 0.412222 0.591806
0.133669 0.472480 0.558709
0.231144 0.483253 0.569497
0.335821 0.492226 0.578454
0.443214 0.500587 0.586816
0.552392 0.508583 0.594827
0.662898 0.516350 0.602579
0.774502 0.523919 0.610162
0.887037 0.531350 0.617594
1.000000 0.538674 0.624903
0.164172 0.597848 0.589212
0.261997 0.608988 0.600351
0.367010 0.618280 0.609644
0.474723 0.626947 0.618326
0.584192 0.635264 0.626627
0.694972 0.643305 0.634668
0.806851 0.651148 0.642512
0.919646 0.658839 0.650202
1.000000 0.666407 0.657771
0.194903 0.724681 0.619944
0.293019 0.736110 0.631373
0.398306 0.745693 0.640955
0.506294 0.754635 0.649897
0.616022 0.763195 0.658457
0.727062 0.771481 0.666743
0.839185 0.779568 0.674830
0.952193 0.787488 0.682765
1.000000 0.795285 0.690547
0.225834 0.852735 0.650874
0.324208 0.864424 0.662562
0.429755 0.874235 0.672389
0.537957 0.883421 0.681559
0.647913 0.892210 0.690349
0.759182 0.900710 0.698863
0.871504 0.909010 0.707164
0.984741 0.917144 0.715297
1.000000 0.925139 0.723278
0.256962 0.981842 0.682002
0.355550 0.993759 0.693919
0.461311 1.000000 0.703944
0.569741 1.000000 0.713344
0.679896 1.000000 0.722332
0.791348 1.000000 0.731044
0.903883 1.000000 0.739528
1.000000 1.000000 0.747845
1.000000 1.000000 0.756024
0.015457 0.002564 0.513817
0.109636 0.010056 0.521309
0.211551 0.016251 0.527504
0.316533 0.022187 0.533440
0.423529 0.028031 0.539284
0.532082 0.033814 0.545083
0.641886 0.039597 0.550851
0.752743 0.045365 0.556619
0.864530 0.051133 0.562387
0.047944 0.114336 0.546288
0.143679 0.123384 0.555337
0.246784 0.130785 0.562737
0.352743 0.137713 0.569665
0.460594 0.144396 0.576349
0.569879 0.150927 0.582879
0.680339 0.157351 0.589319
0.791806 0.163714 0.595666
0.904128 0.170016 0.601984
0.078309 0.232532 0.576669
0.174853 0.242390 0.586511
0.278676 0.250492 0.594614
0.385260 0.258045 0.602182
0.493675 0.265293 0.609430
0.603479 0.272358 0.616480
0.714427 0.279255 0.623392
0.826322 0.286061 0.630198
0.939055 0.292790 0.636912
0.108568 0.354040 0.606928
0.205661 0.364431 0.617334
0.309987 0.373037 0.625940
0.417044 0.381064 0.633967
0.525902 0.388754 0.641642
0.636103 0.396216 0.649104
0.747417 0.403494 0.656397
0.859678 0.410651 0.663554
0.972747 0.417716 0.670604
0.138994 0.477806 0.637354
0.236500 0.488624 0.648173
0.341222 0.497627 0.657176
0.448646 0.506020 0.665568
0.557855 0.514061 0.673609
0.668391 0.521843 0.681392
0.780026 0.529442 0.688991
0.892592 0.536904 0.696452
1.000000 0.544244 0.703807
0.169619 0.603296 0.667964
0.267475 0.614466 0.679133
0.372519 0.623789 0.688472
0.480247 0.632486 0.697169
0.589746 0.640818 0.705501
0.700572 0.648890 0.713573
0.812482 0.656764 0.721447
0.925292 0.664485 0.729168
1.000000 0.672068 0.736751
0.200443 0.730220 0.698802
0.298589 0.741680 0.710262
0.403922 0.751293 0.719860
0.511925 0.760250 0.728832
0.621668 0.768841 0.737423
0.732738 0.777157 0.745739
0.844877 0.785260 0.753841
0.957916 0.793210 0.761791
1.000000 0.801022 0.769604
0.231464 0.858366 0.729824
0.329870 0.870069 0.741527
0.435431 0.879927 0.751385
0.543664 0.889128 0.760586
0.653651 0.897932 0.769390
0.764920 0.906462 0.777920
0.877272 0.914778 0.786236
0.990524 0.922927 0.794400
1.000000 0.930938 0.802396
0.262669 0.987549 0.761028
0.361288 0.999481 0.772961
0.467063 1.000000 0.783017
0.575509 1.000000 0.792432
0.685695 1.000000 0.801434
0.797162 1.000000 0.810162
0.909712 1.000000 0.818677
1.000000 1.000000 0.827008
1.000000 1.000000 0.835203
0.019562 0.006653 0.591852
0.113985 0.014389 0.599588
0.216052 0.020752 0.605951
0.321157 0.026825 0.612024
0.428275 0.032761 0.617960
0.536904 0.038651 0.623850
0.646784 0.044511 0.629694
0.757733 0.050340 0.635538
0.869581 0.056168 0.641367
0.052613 0.119005 0.624903
0.148440 0.128161 0.634058
0.251652 0.135637 0.641535
0.357687 0.142641 0.648539
0.465599 0.149386 0.655299
0.574945 0.155978 0.661875
0.685450 0.162463 0.668360
0.796963 0.168872 0.674769
0.909331 0.175219 0.681132
0.083268 0.237491 0.655558
0.179873 0.247410 0.665476
0.283757 0.255573 0.673640
0.390402 0.263188 0.681254
0.498863 0.270481 0.688548
0.608713 0.277577 0.695644
0.719692 0.284535 0.702602
0.831632 0.291371 0.709438
0.944411 0.298131 0.716197
0.113725 0.359182 0.686015
0.210864 0.369635 0.696468
0.315221 0.378286 0.705119
0.422324 0.386358 0.713176
0.531212 0.394080 0.720913
0.641459 0.401572 0.728405
0.752819 0.408896 0.735729
0.865110 0.416083 0.742916
0.978210 0.423178 0.750011
0.144289 0.483101 0.716579
0.241840 0.493965 0.727443
0.346593 0.502998 0.736492
0.454063 0.511421 0.744915
0.563287 0.519493 0.752987
0.673854 0.527306 0.760800
0.785519 0.534951 0.768429
0.898116 0.542428 0.775921
1.000000 0.549798 0.783291
0.175036 0.608713 0.747326
0.272923 0.619913 0.758526
0.377997 0.629267 0.767880
0.485756 0.637995 0.776623
0.595285 0.646357 0.784970
0.706127 0.654444 0.793072
0.818067 0.662348 0.800977
0.930907 0.670085 0.808713
1.000000 0.677714 0.816327
0.205966 0.735744 0.778256
0.304128 0.747234 0.789746
0.409491 0.756863 0.799374
0.517510 0.765850 0.808362
0.627283 0.774456 0.816983
0.738369 0.782803 0.825315
0.850538 0.790921 0.833448
0.963607 0.798901 0.841413
1.000000 0.806729 0.849241
0.237079 0.863966 0.809369
0.335485 0.875700 0.821103
0.441077 0.885573 0.830976
0.549340 0.894789 0.840192
0.659342 0.903624 0.849027
0.770642 0.912184 0.857572
0.883009 0.920516 0.865919
0.996277 0.928679 0.874083
1.000000 0.936721 0.882109
0.268360 0.993240 0.840650
0.366995 1.000000 0.852598
0.472786 1.000000 0.862684
0.581247 1.000000 0.872114
0.691447 1.000000 0.881148
0.802945 1.000000 0.889891
0.915496 1.000000 0.898405
1.000000 1.000000 0.906767
1.000000 1.000000 0.914977
