CUBE/3231 Retro.cube
# (null)
# 3 columns rgb, 35937 rows
# created by dwsgrading 2017-03-24 09:18:28 +0000
LUT_3D_SIZE 33
0.000000 0.000000 0.001465
0.010956 0.000000 0.003357
0.033722 0.000000 0.004730
0.057053 0.000000 0.005570
0.080430 0.000000 0.005875
0.104692 0.000000 0.006653
0.129442 0.000000 0.007584
0.154543 0.000000 0.008591
0.179919 0.000000 0.009644
0.205524 0.000000 0.010742
0.231342 0.000000 0.011872
0.257328 0.000000 0.013016
0.283482 0.000000 0.014191
0.309789 0.000000 0.015366
0.336233 0.000000 0.016571
0.362799 0.000000 0.017777
0.389471 0.000000 0.019013
0.416251 0.000000 0.020233
0.443137 0.000000 0.021485
0.470130 0.000000 0.022736
0.497200 0.000000 0.023987
0.524361 0.000214 0.025254
0.551614 0.001480 0.026520
0.578943 0.002762 0.027802
0.606332 0.004044 0.029084
0.633814 0.005341 0.030381
0.661341 0.006638 0.031678
0.688960 0.007935 0.032975
0.716625 0.009232 0.034272
0.744350 0.010544 0.035584
0.772152 0.011856 0.036896
0.800000 0.013169 0.038224
0.827893 0.014496 0.039536
0.000000 0.001450 0.006653
0.015534 0.002731 0.007935
0.038254 0.004059 0.009262
0.061997 0.005325 0.010529
0.086336 0.006592 0.011795
0.111101 0.007858 0.013062
0.136187 0.009125 0.014328
0.161563 0.010391 0.015610
0.187152 0.011673 0.016892
0.212955 0.012970 0.018173
0.238926 0.014252 0.019471
0.265080 0.015549 0.020768
0.291371 0.016861 0.022065
0.317784 0.018158 0.023377
0.344335 0.019471 0.024689
0.371008 0.020783 0.026001
0.397787 0.022110 0.027314
0.424643 0.023438 0.028641
0.451621 0.024765 0.029969
0.478691 0.026093 0.031296
0.505852 0.027420 0.032639
0.533089 0.028763 0.033967
0.560403 0.030106 0.035309
0.587793 0.031449 0.036652
0.615244 0.032792 0.038010
0.642786 0.034150 0.039353
0.670375 0.035492 0.040711
0.698039 0.036851 0.042054
0.725765 0.038209 0.043412
0.753552 0.039567 0.044785
0.781384 0.040940 0.046143
0.809293 0.042298 0.047501
0.837232 0.043671 0.048875
0.001053 0.026230 0.013184
0.022797 0.028244 0.015198
0.045945 0.029984 0.016953
0.069993 0.031571 0.018524
0.094591 0.033082 0.020035
0.119554 0.034562 0.021515
0.144823 0.036011 0.022965
0.170352 0.037446 0.024399
0.196094 0.038865 0.025818
0.222019 0.040284 0.027237
0.248112 0.041688 0.028656
0.274372 0.043107 0.030060
0.300755 0.044511 0.031464
0.327276 0.045899 0.032868
0.353918 0.047303 0.034257
0.380667 0.048707 0.035660
0.407523 0.050095 0.037064
0.434470 0.051499 0.038453
0.461509 0.052903 0.039857
0.488655 0.054292 0.041260
0.515862 0.055695 0.042649
0.543160 0.057099 0.044053
0.570535 0.058488 0.045457
0.597986 0.059892 0.046860
0.625498 0.061295 0.048249
0.653086 0.062699 0.049653
0.680735 0.064103 0.051057
0.708446 0.065507 0.052461
0.736217 0.066911 0.053880
0.764050 0.068315 0.055283
0.791928 0.069734 0.056687
0.819883 0.071138 0.058091
0.847868 0.072541 0.059510
0.007736 0.053117 0.019867
0.029709 0.055360 0.022110
0.053040 0.057313 0.024048
0.077272 0.059068 0.025803
0.102022 0.060731 0.027466
0.127123 0.062333 0.029084
0.152529 0.063920 0.030655
0.178164 0.065461 0.032212
0.204013 0.066987 0.033738
0.230030 0.068513 0.035248
0.256229 0.070008 0.036759
0.282567 0.071504 0.038254
0.309041 0.072984 0.039734
0.335637 0.074464 0.041215
0.362341 0.075944 0.042695
0.389166 0.077409 0.044160
0.416083 0.078874 0.045624
0.443091 0.080339 0.047089
0.470207 0.081788 0.048539
0.497398 0.083253 0.050004
0.524666 0.084703 0.051453
0.552026 0.086152 0.052903
0.579446 0.087617 0.054368
0.606943 0.089067 0.055818
0.634516 0.090517 0.057267
0.662135 0.091966 0.058717
0.689830 0.093416 0.060166
0.717586 0.094865 0.061616
0.745403 0.096315 0.063066
0.773281 0.097765 0.064515
0.801205 0.099214 0.065965
0.829190 0.100664 0.067414
0.857221 0.102113 0.068864
0.014496 0.080888 0.026627
0.036622 0.083284 0.029023
0.060090 0.085359 0.031098
0.084443 0.087221 0.032975
0.109300 0.089006 0.034745
0.134508 0.090715 0.036469
0.160006 0.092393 0.038132
0.185733 0.094026 0.039780
0.211658 0.095644 0.041398
0.237766 0.097246 0.042985
0.264027 0.098817 0.044572
0.290440 0.100389 0.046128
0.316976 0.101930 0.047684
0.343648 0.103487 0.049226
0.370428 0.105013 0.050767
0.397299 0.106538 0.052293
0.424277 0.108064 0.053819
0.451347 0.109590 0.055329
0.478508 0.111101 0.056840
0.505745 0.112612 0.058350
0.533074 0.114107 0.059861
0.560479 0.115618 0.061357
0.587945 0.117113 0.062867
0.615488 0.118608 0.064363
0.643091 0.120104 0.065858
0.670771 0.121599 0.067338
0.698512 0.123095 0.068833
0.726299 0.124575 0.070329
0.754162 0.126070 0.071809
0.782071 0.127550 0.073304
0.810040 0.129046 0.074784
0.838056 0.130526 0.076280
0.866117 0.132006 0.077760
0.021347 0.109224 0.033478
0.043580 0.111727 0.035981
0.067155 0.113909 0.038163
0.091600 0.115877 0.040131
0.116533 0.117739 0.041993
0.141833 0.119539 0.043793
0.167407 0.121294 0.045548
0.193210 0.123003 0.047257
0.219211 0.124681 0.048936
0.245380 0.126345 0.050599
0.271717 0.127993 0.052247
0.298192 0.129625 0.053880
0.324788 0.131228 0.055482
0.351507 0.132830 0.057084
0.378332 0.134417 0.058671
0.405264 0.136004 0.060258
0.432303 0.137575 0.061830
0.459403 0.139147 0.063401
0.486625 0.140703 0.064958
0.513909 0.142260 0.066514
0.541283 0.143816 0.068070
0.568719 0.145357 0.069612
0.596231 0.146899 0.071153
0.623819 0.148440 0.072694
0.651469 0.149966 0.074220
0.679179 0.151507 0.075761
0.706966 0.153033 0.077287
0.734798 0.154559 0.078813
0.762676 0.156085 0.080339
0.790631 0.157610 0.081865
0.818631 0.159121 0.083375
0.846677 0.160647 0.084901
0.874784 0.162158 0.086412
0.028275 0.138003 0.040421
0.050599 0.140597 0.043000
0.074250 0.142855 0.045258
0.098772 0.144900 0.047303
0.123796 0.146838 0.049241
0.149157 0.148699 0.051118
0.174792 0.150515 0.052934
0.200656 0.152300 0.054704
0.226719 0.154040 0.056443
0.252949 0.155764 0.058167
0.279332 0.157458 0.059876
0.305867 0.159136 0.061555
0.332509 0.160815 0.063218
0.359289 0.162463 0.064866
0.386160 0.164096 0.066499
0.413138 0.165728 0.068132
0.440223 0.167346 0.069749
0.467369 0.168963 0.071366
0.494621 0.170565 0.072969
0.521965 0.172152 0.074571
0.549371 0.173754 0.076158
0.576852 0.175326 0.077745
0.604410 0.176913 0.079316
0.632029 0.178485 0.080903
0.659709 0.180056 0.082475
0.687465 0.181628 0.084031
0.715282 0.183200 0.085603
0.743145 0.184756 0.087160
0.771069 0.186313 0.088716
0.799039 0.187869 0.090272
0.827070 0.189425 0.091829
0.855161 0.190967 0.093385
0.883284 0.192523 0.094926
0.035279 0.167132 0.047410
0.057664 0.169802 0.050080
0.081392 0.172122 0.052399
0.105974 0.174228 0.054505
0.131060 0.176226 0.056504
0.156481 0.178164 0.058442
0.182177 0.180026 0.060304
0.208087 0.181872 0.062150
0.234211 0.183658 0.063935
0.260487 0.185443 0.065721
0.286931 0.187182 0.067460
0.313497 0.188907 0.069200
0.340200 0.190631 0.070909
0.367025 0.192325 0.072602
0.393942 0.194003 0.074281
0.420966 0.195682 0.075959
0.448081 0.197330 0.077623
0.475273 0.198993 0.079271
0.502571 0.200626 0.080903
0.529946 0.202258 0.082551
0.557382 0.203891 0.084169
0.584909 0.205509 0.085801
0.612497 0.207126 0.087404
0.640146 0.208743 0.089021
0.667872 0.210346 0.090623
0.695659 0.211948 0.092226
0.723491 0.213550 0.093828
0.751400 0.215137 0.095415
0.779355 0.216724 0.097002
0.807355 0.218311 0.098589
0.835416 0.219898 0.100175
0.863539 0.221469 0.101762
0.891691 0.223056 0.103334
0.042329 0.196551 0.054475
0.064790 0.199283 0.057191
0.088563 0.201663 0.059571
0.113207 0.203830 0.061738
0.138338 0.205890 0.063798
0.163821 0.207858 0.065782
0.189563 0.209781 0.067704
0.215534 0.211673 0.069581
0.241703 0.213519 0.071427
0.268025 0.215335 0.073243
0.294514 0.217136 0.075044
0.321126 0.218906 0.076814
0.347875 0.220661 0.078569
0.374731 0.222385 0.080308
0.401694 0.224109 0.082033
0.428748 0.225818 0.083742
0.455909 0.227527 0.085435
0.483131 0.229206 0.087129
0.510460 0.230884 0.088808
0.537865 0.232563 0.090471
0.565347 0.234226 0.092134
0.592905 0.235874 0.093797
0.620523 0.237522 0.095445
0.648219 0.239170 0.097093
0.675975 0.240803 0.098726
0.703777 0.242435 0.100359
0.731655 0.244068 0.101976
0.759579 0.245686 0.103609
0.787564 0.247303 0.105226
0.815610 0.248920 0.106844
0.843702 0.250538 0.108446
0.871839 0.252140 0.110063
0.900023 0.253742 0.111666
0.049439 0.226230 0.061585
0.071946 0.229007 0.064363
0.095781 0.231434 0.066789
0.120485 0.233661 0.069001
0.145663 0.235767 0.071107
0.171176 0.237781 0.073136
0.196979 0.239765 0.075105
0.222980 0.241688 0.077043
0.249195 0.243580 0.078920
0.275563 0.245441 0.080781
0.302083 0.247272 0.082612
0.328740 0.249073 0.084428
0.355520 0.250874 0.086229
0.382422 0.252644 0.087999
0.409415 0.254414 0.089754
0.436515 0.256153 0.091508
0.463706 0.257893 0.093233
0.490974 0.259602 0.094957
0.518334 0.261326 0.096666
0.545769 0.263020 0.098375
0.573281 0.264714 0.100069
0.600870 0.266407 0.101762
0.628519 0.268086 0.103441
0.656245 0.269764 0.105104
0.684016 0.271427 0.106783
0.711864 0.273091 0.108431
0.739773 0.274739 0.110094
0.767727 0.276387 0.111742
0.795743 0.278035 0.113390
0.823804 0.279683 0.115038
0.851911 0.281315 0.116670
0.880079 0.282948 0.118303
0.908293 0.284581 0.119936
0.056596 0.256123 0.068742
0.079164 0.258946 0.071565
0.103029 0.261433 0.074037
0.127779 0.263691 0.076310
0.153002 0.265843 0.078447
0.178561 0.267918 0.080522
0.204395 0.269917 0.082536
0.230457 0.271885 0.084504
0.256687 0.273823 0.086427
0.283101 0.275715 0.088319
0.309667 0.277592 0.090196
0.336355 0.279438 0.092042
0.363180 0.281270 0.093874
0.390097 0.283070 0.095689
0.417136 0.284871 0.097475
0.444266 0.286641 0.099260
0.471489 0.288411 0.101030
0.498787 0.290166 0.102770
0.526177 0.291905 0.104524
0.553643 0.293645 0.106249
0.581186 0.295369 0.107973
0.608804 0.297078 0.109697
0.636484 0.298787 0.111406
0.664240 0.300496 0.113100
0.692042 0.302190 0.114794
0.719921 0.303868 0.116487
0.747845 0.305562 0.118166
0.775830 0.307240 0.119844
0.803861 0.308904 0.121523
0.831952 0.310567 0.123186
0.860090 0.312230 0.124849
0.888289 0.313893 0.126513
0.916518 0.315541 0.128161
0.063798 0.286229 0.075929
0.086397 0.289082 0.078798
0.110323 0.291615 0.081331
0.135103 0.293919 0.083635
0.160357 0.296101 0.085817
0.185962 0.298207 0.087922
0.211841 0.300267 0.089967
0.237934 0.302266 0.091981
0.264210 0.304234 0.093950
0.290654 0.306157 0.095872
0.317250 0.308064 0.097780
0.343969 0.309957 0.099657
0.370825 0.311803 0.101518
0.397787 0.313649 0.103365
0.424857 0.315480 0.105196
0.452018 0.317281 0.106996
0.479271 0.319081 0.108797
0.506584 0.320867 0.110582
0.534020 0.322637 0.112352
0.561517 0.324407 0.114122
0.589090 0.326162 0.115862
0.616724 0.327901 0.117617
0.644434 0.329641 0.119341
0.672206 0.331365 0.121080
0.700038 0.333089 0.122789
0.727932 0.334798 0.124514
0.755886 0.336507 0.126223
0.783902 0.338201 0.127916
0.811963 0.339895 0.129610
0.840070 0.341588 0.131304
0.868238 0.343282 0.132998
0.896452 0.344961 0.134676
0.924712 0.346639 0.136355
0.071031 0.316503 0.083177
0.093675 0.319402 0.086076
0.117632 0.321965 0.088640
0.142458 0.324300 0.090974
0.167758 0.326528 0.093202
0.193393 0.328679 0.095354
0.219303 0.330755 0.097429
0.245426 0.332799 0.099474
0.271733 0.334798 0.101472
0.298222 0.336767 0.103441
0.324834 0.338704 0.105379
0.351598 0.340612 0.107286
0.378485 0.342504 0.109178
0.405463 0.344381 0.111055
0.432563 0.346227 0.112902
0.459754 0.348074 0.114748
0.487037 0.349889 0.116564
0.514397 0.351705 0.118379
0.541833 0.353506 0.120180
0.569360 0.355291 0.121965
0.596963 0.357076 0.123751
0.624628 0.358846 0.125521
0.652369 0.360601 0.127275
0.680171 0.362356 0.129030
0.708019 0.364096 0.130785
0.735943 0.365835 0.132509
0.763928 0.367575 0.134249
0.791959 0.369299 0.135973
0.820035 0.371008 0.137697
0.848173 0.372732 0.139406
0.876356 0.374441 0.141115
0.904601 0.376135 0.142824
0.932876 0.377844 0.144518
0.078309 0.346944 0.090440
0.100984 0.349874 0.093385
0.124971 0.352483 0.095979
0.149828 0.354849 0.098360
0.175158 0.357107 0.100618
0.200839 0.359289 0.102800
0.226780 0.361410 0.104906
0.252934 0.363470 0.106981
0.279271 0.365499 0.109010
0.305791 0.367498 0.111009
0.332448 0.369467 0.112978
0.359228 0.371405 0.114916
0.386145 0.373327 0.116838
0.413153 0.375235 0.118746
0.440284 0.377111 0.120623
0.467491 0.378973 0.122484
0.494804 0.380835 0.124346
0.522179 0.382666 0.126177
0.549661 0.384497 0.128008
0.577218 0.386313 0.129824
0.604837 0.388113 0.131624
0.632532 0.389899 0.133410
0.660288 0.391684 0.135195
0.688106 0.393469 0.136980
0.715999 0.395239 0.138750
0.743938 0.396994 0.140505
0.771939 0.398749 0.142260
0.799985 0.400504 0.144015
0.828092 0.402243 0.145754
0.856260 0.403983 0.147494
0.884459 0.405707 0.149218
0.912718 0.407431 0.150942
0.941024 0.409155 0.152667
0.085618 0.377523 0.097749
0.108324 0.380499 0.100725
0.132342 0.383139 0.103365
0.157244 0.385550 0.105760
0.182605 0.387839 0.108049
0.208301 0.390036 0.110262
0.234272 0.392187 0.112413
0.260456 0.394278 0.114504
0.286839 0.396338 0.116564
0.313375 0.398367 0.118593
0.340063 0.400366 0.120592
0.366873 0.402335 0.122560
0.393805 0.404288 0.124498
0.420844 0.406210 0.126436
0.448005 0.408118 0.128344
0.475242 0.410010 0.130236
0.502571 0.411887 0.132113
0.529976 0.413748 0.133974
0.557488 0.415595 0.135821
0.585061 0.417441 0.137667
0.612696 0.419257 0.139483
0.640421 0.421088 0.141314
0.668208 0.422889 0.143114
0.696040 0.424689 0.144915
0.723949 0.426474 0.146700
0.751919 0.428260 0.148486
0.779934 0.430045 0.150271
0.808011 0.431815 0.152041
0.836149 0.433570 0.153796
0.864317 0.435325 0.155550
0.892546 0.437079 0.157305
0.920836 0.438819 0.159045
0.949157 0.440558 0.160784
0.092958 0.408255 0.105089
0.115694 0.411261 0.108095
0.139742 0.413931 0.110765
0.164660 0.416373 0.113191
0.190066 0.418677 0.115511
0.215793 0.420920 0.117754
0.241794 0.423102 0.119921
0.268009 0.425223 0.122057
0.294408 0.427314 0.124132
0.320974 0.429358 0.126192
0.347677 0.431388 0.128206
0.374517 0.433371 0.130205
0.401480 0.435355 0.132174
0.428550 0.437308 0.134127
0.455726 0.439231 0.136065
0.482994 0.441154 0.137987
0.510353 0.443046 0.139879
0.537774 0.444938 0.141772
0.565301 0.446815 0.143648
0.592905 0.448676 0.145510
0.620569 0.450523 0.147356
0.648310 0.452369 0.149203
0.676112 0.454200 0.151019
0.703975 0.456016 0.152850
0.731899 0.457832 0.154665
0.759899 0.459632 0.156466
0.787930 0.461433 0.158267
0.816037 0.463218 0.160052
0.844175 0.465003 0.161837
0.872374 0.466773 0.163607
0.900633 0.468544 0.165377
0.928923 0.470314 0.167147
0.957259 0.472068 0.168902
0.100313 0.439124 0.112459
0.123095 0.442161 0.115496
0.147173 0.444846 0.118181
0.172122 0.447318 0.120653
0.197543 0.449653 0.122988
0.223301 0.451926 0.125261
0.249317 0.454124 0.127459
0.275563 0.456275 0.129610
0.301991 0.458396 0.131731
0.328588 0.460472 0.133806
0.355322 0.462516 0.135851
0.382177 0.464530 0.137865
0.409171 0.466529 0.139864
0.436255 0.468513 0.141848
0.463462 0.470466 0.143801
0.490745 0.472404 0.145739
0.518135 0.474327 0.147662
0.545586 0.476234 0.149569
0.573129 0.478126 0.151461
0.600748 0.480018 0.153353
0.628443 0.481880 0.155215
0.656199 0.483742 0.157076
0.684016 0.485603 0.158938
0.711910 0.487434 0.160769
0.739849 0.489281 0.162615
0.767865 0.491096 0.164431
0.795926 0.492912 0.166247
0.824033 0.494728 0.168063
0.852201 0.496529 0.169863
0.880430 0.498329 0.171664
0.908690 0.500114 0.173449
0.937011 0.501900 0.175235
0.965377 0.503670 0.177005
0.107713 0.470100 0.119844
0.130510 0.473152 0.122911
0.154620 0.475868 0.125628
0.179583 0.478370 0.128115
0.205035 0.480735 0.130495
0.230823 0.483024 0.132784
0.256870 0.485252 0.135012
0.283131 0.487434 0.137194
0.309590 0.489570 0.139330
0.336202 0.491676 0.141421
0.362966 0.493736 0.143496
0.389853 0.495781 0.145541
0.416861 0.497810 0.147555
0.443976 0.499794 0.149554
0.471199 0.501778 0.151537
0.498512 0.503746 0.153490
0.525902 0.505684 0.155444
0.553384 0.507622 0.157366
0.580941 0.509529 0.159289
0.608591 0.511437 0.161196
0.636301 0.513329 0.163088
0.664073 0.515206 0.164965
0.691920 0.517082 0.166842
0.719829 0.518944 0.168704
0.747799 0.520790 0.170550
0.775830 0.522637 0.172396
0.803906 0.524483 0.174228
0.832044 0.526299 0.176059
0.860227 0.528130 0.177874
0.888457 0.529946 0.179690
0.916747 0.531746 0.181506
0.945083 0.533547 0.183307
0.973465 0.535348 0.185107
0.115129 0.501198 0.127260
0.137957 0.504280 0.130358
0.162097 0.507027 0.133104
0.187091 0.509544 0.135622
0.212558 0.511940 0.138018
0.238376 0.514260 0.140322
0.264439 0.516503 0.142580
0.290730 0.518700 0.144778
0.317205 0.520867 0.146944
0.343847 0.522988 0.149065
0.370626 0.525078 0.151156
0.397528 0.527153 0.153216
0.424567 0.529183 0.155261
0.451698 0.531212 0.157290
0.478935 0.533211 0.159289
0.506279 0.535195 0.161273
0.533700 0.537163 0.163226
0.561196 0.539101 0.165179
0.588785 0.541039 0.167117
0.616434 0.542962 0.169039
0.644175 0.544884 0.170962
0.671962 0.546777 0.172854
0.699840 0.548669 0.174746
0.727764 0.550546 0.176623
0.755749 0.552422 0.178500
0.783795 0.554284 0.180362
0.811887 0.556146 0.182208
0.840040 0.557992 0.184054
0.868254 0.559823 0.185901
0.896498 0.561654 0.187732
0.924804 0.563485 0.189563
0.953155 0.565301 0.191379
0.981552 0.567117 0.193194
0.122576 0.532403 0.134707
0.145418 0.535515 0.137819
0.169589 0.538277 0.140597
0.194598 0.540825 0.143130
0.220096 0.543236 0.145556
0.245930 0.545586 0.147890
0.272023 0.547860 0.150164
0.298344 0.550072 0.152392
0.324834 0.552254 0.154574
0.351492 0.554406 0.156710
0.378302 0.556527 0.158831
0.405234 0.558602 0.160922
0.432273 0.560662 0.162982
0.459434 0.562707 0.165026
0.486702 0.564736 0.167041
0.514061 0.566735 0.169039
0.541497 0.568719 0.171023
0.569009 0.570687 0.172992
0.596613 0.572641 0.174960
0.624292 0.574594 0.176898
0.652049 0.576516 0.178836
0.679866 0.578439 0.180743
0.707744 0.580346 0.182650
0.735683 0.582238 0.184558
0.763699 0.584131 0.186450
0.791760 0.586023 0.188327
0.819867 0.587884 0.190204
0.848035 0.589746 0.192065
0.876265 0.591608 0.193912
0.904540 0.593454 0.195773
0.932860 0.595300 0.197604
0.961227 0.597131 0.199451
0.989639 0.598962 0.201266
0.130037 0.563714 0.142184
0.152911 0.566857 0.145312
0.177096 0.569635 0.148104
0.202136 0.572198 0.150668
0.227665 0.574639 0.153109
0.253513 0.577005 0.155474
0.279637 0.579309 0.157763
0.305959 0.581552 0.160006
0.332479 0.583749 0.162219
0.359167 0.585916 0.164385
0.385977 0.588052 0.166522
0.412940 0.590158 0.168627
0.440009 0.592233 0.170703
0.467185 0.594308 0.172763
0.494469 0.596338 0.174807
0.521843 0.598367 0.176822
0.549294 0.600366 0.178836
0.576837 0.602350 0.180819
0.604456 0.604334 0.182803
0.632151 0.606287 0.184756
0.659922 0.608240 0.186709
0.687755 0.610178 0.188647
0.715663 0.612100 0.190570
0.743618 0.614023 0.192493
0.771649 0.615930 0.194400
0.799725 0.617823 0.196292
0.827848 0.619715 0.198184
0.856046 0.621592 0.200061
0.884276 0.623468 0.201938
0.912566 0.625330 0.203800
0.940902 0.627192 0.205661
0.969284 0.629038 0.207507
0.997711 0.630884 0.209354
0.137530 0.595117 0.149660
0.160433 0.598291 0.152834
0.184634 0.601099 0.155642
0.209689 0.603677 0.158221
0.235233 0.606149 0.160693
0.261112 0.608530 0.163073
0.287251 0.610834 0.165377
0.313603 0.613108 0.167651
0.340139 0.615335 0.169879
0.366842 0.617517 0.172061
0.393683 0.619669 0.174212
0.420661 0.621790 0.176349
0.447745 0.623896 0.178439
0.474937 0.625971 0.180529
0.502235 0.628031 0.182574
0.529625 0.630076 0.184619
0.557107 0.632105 0.186648
0.584665 0.634104 0.188647
0.612299 0.636103 0.190646
0.640024 0.638071 0.192630
0.667811 0.640040 0.194583
0.695659 0.641993 0.196551
0.723568 0.643946 0.198489
0.751553 0.645884 0.200427
0.779599 0.647807 0.202350
0.807691 0.649714 0.204257
0.835843 0.651621 0.206165
0.864042 0.653513 0.208057
0.892302 0.655406 0.209949
0.920607 0.657282 0.211826
0.948959 0.659159 0.213703
0.977356 0.661021 0.215579
1.000000 0.662882 0.217441
0.145037 0.626627 0.157183
0.167956 0.629816 0.160357
0.192187 0.632639 0.163195
0.217273 0.635248 0.165805
0.242832 0.637736 0.168276
0.268727 0.640131 0.170687
0.294881 0.642466 0.173022
0.321248 0.644755 0.175311
0.347814 0.646998 0.177539
0.374533 0.649195 0.179751
0.401389 0.651377 0.181918
0.428382 0.653513 0.184070
0.455497 0.655634 0.186191
0.482704 0.657740 0.188281
0.510018 0.659815 0.190372
0.537438 0.661875 0.192416
0.564935 0.663905 0.194461
0.592493 0.665934 0.196490
0.620157 0.667948 0.198505
0.647883 0.669947 0.200488
0.675700 0.671931 0.202472
0.703563 0.673899 0.204456
0.731502 0.675853 0.206409
0.759487 0.677806 0.208362
0.787549 0.679744 0.210300
0.815656 0.681682 0.212222
0.843824 0.683604 0.214145
0.872038 0.685512 0.216068
0.900313 0.687419 0.217960
0.928634 0.689311 0.219867
0.957000 0.691203 0.221759
0.985412 0.693080 0.223636
1.000000 0.694957 0.225513
0.152575 0.658228 0.164706
0.175509 0.661418 0.167910
0.199756 0.664271 0.170764
0.224857 0.666896 0.173388
0.250446 0.669398 0.175891
0.276356 0.671824 0.178317
0.302525 0.674174 0.180667
0.328923 0.676478 0.182971
0.355505 0.678737 0.185229
0.382239 0.680964 0.187457
0.409110 0.683162 0.189654
0.436118 0.685328 0.191806
0.463249 0.687465 0.193942
0.490486 0.689570 0.196063
0.517815 0.691661 0.198154
0.545251 0.693751 0.200229
0.572763 0.695796 0.202289
0.600351 0.697841 0.204334
0.628016 0.699870 0.206363
0.655772 0.701885 0.208377
0.683589 0.703883 0.210376
0.711467 0.705867 0.212360
0.739422 0.707851 0.214343
0.767437 0.709804 0.216297
0.795499 0.711772 0.218250
0.823636 0.713710 0.220203
0.851820 0.715648 0.222141
0.880049 0.717571 0.224063
0.908339 0.719493 0.225986
0.936660 0.721401 0.227893
0.965042 0.723308 0.229801
0.993484 0.725200 0.231693
1.000000 0.727092 0.233585
0.160128 0.689906 0.172259
0.183078 0.693126 0.175479
0.207340 0.695994 0.178347
0.232471 0.698634 0.181003
0.258061 0.701152 0.183520
0.284001 0.703593 0.185962
0.310201 0.705974 0.188327
0.336599 0.708293 0.190646
0.363195 0.710567 0.192935
0.389960 0.712810 0.195178
0.416846 0.715023 0.197375
0.443870 0.717205 0.199557
0.471015 0.719356 0.201724
0.498268 0.721492 0.203845
0.525628 0.723598 0.205966
0.553063 0.725689 0.208057
0.580591 0.727764 0.210132
0.608194 0.729824 0.212192
0.635889 0.731868 0.214221
0.663645 0.733898 0.216251
0.691493 0.735912 0.218265
0.719387 0.737911 0.220279
0.747356 0.739910 0.222263
0.775387 0.741878 0.224247
0.803464 0.743847 0.226215
0.831601 0.745815 0.228183
0.859800 0.747768 0.230137
0.888060 0.749706 0.232074
0.916350 0.751644 0.234012
0.944701 0.753567 0.235935
0.973098 0.755489 0.237858
1.000000 0.757397 0.239765
1.000000 0.759304 0.241672
0.167697 0.721660 0.179828
0.190661 0.724895 0.183062
0.214954 0.727794 0.185962
0.240101 0.730449 0.188617
0.265705 0.732998 0.191165
0.291661 0.735454 0.193622
0.317876 0.737835 0.196002
0.344305 0.740185 0.198352
0.370916 0.742473 0.200641
0.397681 0.744732 0.202899
0.424598 0.746960 0.205127
0.451637 0.749157 0.207324
0.478798 0.751324 0.209491
0.506065 0.753475 0.211643
0.533440 0.755596 0.213779
0.560891 0.757702 0.215885
0.588434 0.759793 0.217975
0.616053 0.761868 0.220050
0.643763 0.763928 0.222095
0.671534 0.765972 0.224140
0.699397 0.768002 0.226184
0.727306 0.770016 0.228199
0.755291 0.772030 0.230198
0.783337 0.774029 0.232197
0.811429 0.776013 0.234180
0.839582 0.777981 0.236164
0.867796 0.779950 0.238117
0.896056 0.781903 0.240085
0.924376 0.783856 0.242023
0.952743 0.785794 0.243961
0.981155 0.787732 0.245899
1.000000 0.789654 0.247822
1.000000 0.791577 0.249744
0.175280 0.753506 0.187411
0.198276 0.756756 0.190677
0.222568 0.759670 0.193576
0.247730 0.762341 0.196262
0.273365 0.764904 0.198825
0.299336 0.767376 0.201297
0.325567 0.769787 0.203708
0.352010 0.772137 0.206058
0.378637 0.774456 0.208377
0.405432 0.776730 0.210651
0.432349 0.778973 0.212894
0.459419 0.781186 0.215106
0.486595 0.783368 0.217288
0.513878 0.785534 0.219455
0.541253 0.787671 0.221592
0.568734 0.789792 0.223713
0.596292 0.791897 0.225818
0.623926 0.793988 0.227909
0.651652 0.796063 0.229984
0.679438 0.798123 0.232044
0.707301 0.800168 0.234089
0.735241 0.802197 0.236118
0.763226 0.804227 0.238148
0.791287 0.806226 0.240146
0.819394 0.808225 0.242145
0.847578 0.810224 0.244144
0.875792 0.812207 0.246128
