CUBE/3231 Retro.cube
# (null)
# 3 columns rgb, 35937 rows
# created by dwsgrading 2017-03-24 09:18:28 +0000
LUT_3D_SIZE 5
0.000000 0.000000 0.001465
0.179919 0.000000 0.009644
0.389471 0.000000 0.019013
0.606332 0.004044 0.029084
0.827893 0.014496 0.039536
0.042329 0.196551 0.054475
0.241703 0.213519 0.071427
0.455909 0.227527 0.085435
0.675975 0.240803 0.098726
0.900023 0.253742 0.111666
0.100313 0.439124 0.112459
0.301991 0.458396 0.131731
0.518135 0.474327 0.147662
0.739849 0.489281 0.162615
0.965377 0.503670 0.177005
0.160128 0.689906 0.172259
0.363195 0.710567 0.192935
0.580591 0.727764 0.210132
0.803464 0.743847 0.226215
1.000000 0.759304 0.241672
0.221149 0.946029 0.233280
0.425238 0.967712 0.254978
0.643580 0.985855 0.273106
0.867323 1.000000 0.290074
1.000000 1.000000 0.306355
0.000000 0.000000 0.138231
0.189166 0.000000 0.147616
0.399619 0.004120 0.157870
0.616983 0.014694 0.168444
0.838895 0.025483 0.179232
0.053117 0.207340 0.193957
0.252796 0.224613 0.211231
0.467247 0.238865 0.225498
0.687526 0.252369 0.238987
0.911757 0.265476 0.252094
0.111940 0.450752 0.252781
0.313787 0.470176 0.272221
0.530068 0.486259 0.288304
0.751919 0.501350 0.303380
0.977554 0.515862 0.317906
0.172244 0.702022 0.313085
0.375433 0.722805 0.333867
0.592935 0.740108 0.351171
0.815900 0.756298 0.367361
1.000000 0.771832 0.382895
0.233616 0.958495 0.374456
0.437797 0.980270 0.396246
0.656229 0.998505 0.414466
0.880049 1.000000 0.431510
1.000000 1.000000 0.447852
0.003738 0.000000 0.284474
0.198108 0.002808 0.296452
0.409262 0.013764 0.307393
0.627054 0.024765 0.318410
0.849271 0.035874 0.329519
0.063310 0.217533 0.344045
0.263279 0.235096 0.361608
0.477974 0.249592 0.376104
0.698436 0.263279 0.389792
0.922835 0.276555 0.403067
0.122911 0.461723 0.403647
0.324910 0.481315 0.423255
0.541344 0.497551 0.439475
0.763333 0.512749 0.454688
0.989090 0.527382 0.469322
0.183688 0.713466 0.464424
0.386999 0.734371 0.485328
0.604593 0.751766 0.502739
0.827665 0.768048 0.519020
1.000000 0.783688 0.534646
0.245411 0.970291 0.526146
0.449683 0.992157 0.548012
0.668193 1.000000 0.566323
0.892088 1.000000 0.583444
1.000000 1.000000 0.599863
0.011444 0.000000 0.436484
0.207065 0.011765 0.449699
0.418784 0.023285 0.461219
0.636957 0.034668 0.472618
0.859480 0.046067 0.484016
0.073335 0.227558 0.498375
0.273564 0.245396 0.516213
0.488472 0.260090 0.530907
0.709133 0.273960 0.544778
0.933684 0.287404 0.558236
0.133669 0.472480 0.558709
0.335821 0.492226 0.578454
0.552392 0.508583 0.594827
0.774502 0.523919 0.610162
1.000000 0.538674 0.624903
0.194903 0.724681 0.619944
0.398306 0.745693 0.640955
0.616022 0.763195 0.658457
0.839185 0.779568 0.674830
1.000000 0.795285 0.690547
0.256962 0.981842 0.682002
0.461311 1.000000 0.703944
0.679896 1.000000 0.722332
0.903883 1.000000 0.739528
1.000000 1.000000 0.756024
0.019562 0.006653 0.591852
0.216052 0.020752 0.605951
0.428275 0.032761 0.617960
0.646784 0.044511 0.629694
0.869581 0.056168 0.641367
0.083268 0.237491 0.655558
0.283757 0.255573 0.673640
0.498863 0.270481 0.688548
0.719692 0.284535 0.702602
0.944411 0.298131 0.716197
0.144289 0.483101 0.716579
0.346593 0.502998 0.736492
0.563287 0.519493 0.752987
0.785519 0.534951 0.768429
1.000000 0.549798 0.783291
0.205966 0.735744 0.778256
0.409491 0.756863 0.799374
0.627283 0.774456 0.816983
0.850538 0.790921 0.833448
1.000000 0.806729 0.849241
0.268360 0.993240 0.840650
0.472786 1.000000 0.862684
0.691447 1.000000 0.881148
0.915496 1.000000 0.898405
1.000000 1.000000 0.914977
