CUBE/3411 Film - Teal and orange.cube
# (null)
# 3 columns rgb, 35937 rows
# created by dwsgrading 2017-03-24 09:18:32 +0000
LUT_3D_SIZE 9
0.000000 0.075593 0.096315
0.086366 0.099443 0.111345
0.218830 0.127565 0.125673
0.388739 0.162905 0.140291
0.576471 0.198810 0.163699
0.756939 0.233631 0.190173
0.915145 0.268833 0.212360
1.000000 0.307805 0.235080
1.000000 0.352651 0.258122
0.000000 0.130526 0.067872
0.092760 0.158465 0.089250
0.226352 0.192035 0.110124
0.392172 0.230793 0.130434
0.577752 0.272953 0.153445
0.756985 0.314839 0.179004
0.916930 0.358038 0.202930
1.000000 0.404746 0.226001
1.000000 0.458747 0.256550
0.000000 0.195132 0.032654
0.102129 0.227085 0.060365
0.238621 0.266392 0.090883
0.402686 0.309941 0.119753
0.590631 0.358053 0.149096
0.774456 0.408942 0.175647
0.938964 0.460166 0.201144
1.000000 0.512215 0.226642
1.000000 0.562631 0.267506
0.002762 0.277668 0.000000
0.111131 0.315908 0.024247
0.252323 0.361700 0.064042
0.412772 0.408820 0.099992
0.601099 0.461845 0.137346
0.786572 0.515297 0.172534
0.954528 0.571649 0.195468
1.000000 0.625254 0.222904
1.000000 0.662486 0.282429
0.014267 0.380346 0.000000
0.122637 0.425315 0.000000
0.253986 0.472541 0.038285
0.417868 0.524575 0.076692
0.601877 0.578973 0.114839
0.786175 0.631983 0.158419
0.945174 0.676555 0.213413
1.000000 0.729259 0.236973
1.000000 0.764324 0.300755
0.052964 0.509896 0.000000
0.153857 0.557092 0.027955
0.249180 0.596185 0.063066
0.390600 0.643961 0.095583
0.574441 0.703685 0.100374
0.758038 0.756756 0.137774
0.915343 0.798810 0.191714
1.000000 0.826947 0.278202
1.000000 0.857649 0.348241
0.236194 0.688029 0.131945
0.274907 0.710750 0.154604
0.317693 0.729992 0.172488
0.393988 0.754620 0.189151
0.531075 0.794903 0.199115
0.717891 0.861158 0.153368
0.878553 0.903838 0.190295
1.000000 0.932830 0.252552
1.000000 0.948791 0.342321
0.450355 0.830198 0.302510
0.473182 0.841321 0.318898
0.488869 0.847990 0.326818
0.507469 0.852415 0.326543
0.563577 0.865934 0.321187
0.686976 0.903563 0.295094
0.862943 0.979950 0.203540
1.000000 1.000000 0.238926
1.000000 1.000000 0.310948
0.663844 0.936690 0.472389
0.676127 0.943084 0.482399
0.678874 0.944228 0.483360
0.673838 0.940215 0.474342
0.676402 0.936965 0.458518
0.721920 0.946654 0.436454
0.836072 0.990173 0.360647
1.000000 1.000000 0.036500
1.000000 1.000000 0.057816
0.000000 0.064210 0.172702
0.048371 0.087129 0.187427
0.189685 0.111574 0.199435
0.364752 0.144427 0.212039
0.557717 0.181140 0.220264
0.743008 0.217807 0.227344
0.902983 0.254170 0.243137
1.000000 0.294377 0.261540
1.000000 0.340642 0.283238
0.000000 0.117693 0.142428
0.063005 0.144244 0.162524
0.202060 0.175738 0.183078
0.371466 0.213275 0.201968
0.560250 0.255558 0.214023
0.744762 0.300298 0.219074
0.907439 0.345724 0.230320
1.000000 0.393622 0.248325
1.000000 0.450202 0.276616
0.000000 0.179995 0.106310
0.079057 0.211566 0.133211
0.219547 0.250324 0.163073
0.385992 0.293385 0.191135
0.575769 0.341985 0.213947
0.763119 0.395468 0.222583
0.931075 0.449271 0.232914
1.000000 0.502541 0.250614
1.000000 0.551278 0.301778
0.000000 0.261784 0.058183
0.096345 0.300969 0.093370
0.239124 0.347158 0.132204
0.400473 0.394659 0.167422
0.589899 0.447883 0.201312
0.776333 0.502083 0.229557
0.945632 0.559258 0.238849
1.000000 0.613214 0.257969
1.000000 0.648371 0.340154
0.006073 0.366552 0.014176
0.114748 0.413626 0.056718
0.245792 0.461830 0.097932
0.409216 0.513771 0.136080
0.593698 0.567971 0.171618
0.778332 0.621225 0.211643
0.938735 0.667811 0.263386
1.000000 0.718502 0.286351
1.000000 0.755398 0.348180
0.055222 0.507729 0.024704
0.152956 0.554971 0.065614
0.247486 0.594141 0.098177
0.387549 0.641062 0.131014
0.568750 0.697505 0.144427
0.752087 0.749615 0.181399
0.910063 0.792279 0.231250
1.000000 0.823987 0.303349
1.000000 0.856809 0.364935
0.243534 0.692912 0.148241
0.280781 0.714824 0.169879
0.322393 0.733547 0.186801
0.397528 0.756893 0.202518
0.532296 0.795682 0.213153
0.715480 0.857191 0.178607
0.875608 0.899138 0.216449
1.000000 0.929686 0.271687
1.000000 0.948135 0.352499
0.458991 0.834119 0.311421
0.480568 0.844999 0.327169
0.495277 0.850813 0.334447
0.512230 0.854780 0.333486
0.566567 0.867720 0.327749
0.688670 0.904189 0.301823
0.861326 0.976181 0.220157
1.000000 1.000000 0.255985
1.000000 1.000000 0.321309
0.669551 0.939559 0.477882
0.681178 0.945602 0.487297
0.683543 0.946441 0.487968
0.677729 0.942306 0.478569
0.679774 0.938582 0.462257
0.724147 0.947951 0.439994
0.837415 0.990692 0.364752
1.000000 1.000000 0.060182
1.000000 1.000000 0.080995
0.000000 0.059510 0.256031
0.000000 0.081834 0.271458
0.151827 0.100206 0.278691
0.334508 0.128573 0.288365
0.532525 0.161822 0.296437
0.720516 0.196246 0.302724
0.885283 0.234318 0.299825
1.000000 0.277546 0.295949
1.000000 0.326589 0.308339
0.000000 0.111055 0.227817
0.018799 0.136522 0.247181
0.170184 0.162875 0.262577
0.345235 0.197650 0.278859
0.538109 0.237156 0.290715
0.723613 0.279225 0.300114
0.888472 0.324224 0.303853
1.000000 0.373556 0.304448
1.000000 0.431510 0.331060
0.000000 0.169909 0.188952
0.047333 0.199664 0.214954
0.194629 0.235935 0.241993
0.364553 0.277699 0.268238
0.557275 0.325231 0.290181
0.744045 0.375433 0.307546
0.911208 0.426520 0.321508
1.000000 0.477516 0.336828
1.000000 0.529610 0.389197
0.000000 0.249302 0.129335
0.076600 0.287694 0.165118
0.221607 0.333272 0.204379
0.384817 0.380026 0.240177
0.575280 0.432471 0.275639
0.762051 0.485863 0.306554
0.928664 0.538918 0.326818
1.000000 0.589334 0.350988
1.000000 0.632471 0.413504
0.000000 0.355093 0.077211
0.103655 0.402472 0.120333
0.234745 0.450111 0.162005
0.397620 0.501228 0.202457
0.581903 0.554421 0.241505
0.766674 0.607233 0.281712
0.928679 0.655390 0.325292
1.000000 0.704128 0.351690
1.000000 0.743770 0.400366
0.057069 0.505058 0.070176
0.149889 0.550439 0.108827
0.243091 0.589120 0.140444
0.381369 0.634897 0.174365
0.559625 0.687449 0.198566
0.742443 0.738582 0.236164
0.901488 0.782040 0.280034
1.000000 0.817288 0.336721
1.000000 0.852323 0.389242
0.249516 0.695384 0.169726
0.285374 0.716640 0.190021
0.325734 0.734539 0.205921
0.398489 0.757107 0.220981
0.531319 0.793866 0.233326
0.709270 0.849226 0.213962
0.869047 0.890623 0.250355
1.000000 0.922820 0.298589
1.000000 0.944900 0.368475
0.465843 0.836973 0.322072
0.486976 0.847318 0.337240
0.500450 0.852827 0.343557
0.516213 0.856046 0.341314
0.568719 0.868147 0.336004
0.688777 0.903243 0.312245
0.856443 0.968429 0.246403
0.999130 1.000000 0.280705
1.000000 1.000000 0.338445
0.674327 0.941970 0.483528
0.685252 0.947585 0.492256
0.687083 0.948165 0.492500
0.680995 0.943709 0.482979
0.682399 0.939635 0.466697
0.725750 0.948592 0.444160
0.837674 0.989990 0.371130
1.000000 1.000000 0.119890
1.000000 1.000000 0.138445
0.000000 0.057649 0.365545
0.000000 0.079942 0.382528
0.084291 0.090913 0.385321
0.281788 0.110643 0.390982
0.488426 0.138155 0.400580
0.683177 0.166613 0.409018
0.848249 0.199298 0.418524
0.996689 0.236789 0.423667
1.000000 0.284764 0.433310
0.000000 0.108186 0.341833
0.000000 0.133288 0.362112
0.112078 0.150500 0.370291
0.298192 0.178851 0.383490
0.498360 0.213809 0.396597
0.688930 0.250721 0.407477
0.854002 0.291417 0.421973
1.000000 0.335912 0.434775
1.000000 0.396506 0.457847
0.000000 0.162356 0.306905
0.000000 0.191379 0.331945
0.147127 0.219562 0.352209
0.323766 0.256718 0.375387
0.522210 0.301778 0.396689
0.713039 0.348577 0.414389
0.880064 0.396201 0.436286
1.000000 0.444663 0.457893
1.000000 0.502739 0.493004
0.000000 0.237339 0.248417
0.033265 0.272602 0.281621
0.184360 0.313466 0.316243
0.351049 0.357778 0.349142
0.545037 0.408560 0.381537
0.735027 0.460792 0.408789
0.902037 0.511452 0.432609
1.000000 0.559884 0.459648
1.000000 0.609216 0.501503
0.000000 0.336294 0.173281
0.074098 0.382452 0.217121
0.207141 0.429206 0.258396
0.372183 0.478996 0.297765
0.557870 0.531472 0.335454
0.744274 0.584070 0.372808
0.908263 0.633402 0.409354
1.000000 0.680232 0.436622
1.000000 0.722713 0.473869
0.046967 0.492592 0.144472
0.135866 0.536156 0.179995
0.227817 0.574273 0.210117
0.364630 0.618326 0.244862
0.540169 0.667079 0.277134
0.723140 0.716762 0.315099
0.883146 0.761196 0.352438
1.000000 0.799924 0.394980
1.000000 0.838041 0.434607
0.248829 0.690623 0.207797
0.283162 0.711299 0.226154
0.322103 0.728466 0.240757
0.392432 0.749615 0.256168
0.522545 0.783612 0.272404
0.694194 0.830472 0.273243
0.853651 0.871229 0.307530
0.994049 0.905501 0.347021
1.000000 0.932921 0.401221
0.467643 0.836011 0.337270
0.487968 0.845869 0.351186
0.500557 0.851057 0.356970
0.515297 0.853544 0.354635
0.566247 0.864546 0.349462
0.683589 0.896757 0.331609
0.842847 0.950576 0.292592
0.985229 0.985916 0.325307
1.000000 1.000000 0.372274
0.675090 0.941863 0.488792
0.685664 0.947143 0.496849
0.686824 0.947402 0.496834
0.680293 0.942733 0.486992
0.681346 0.938384 0.470741
0.723949 0.946883 0.448844
0.833432 0.985031 0.383642
1.000000 1.000000 0.279561
1.000000 1.000000 0.308965
0.000000 0.052796 0.514015
0.000000 0.076371 0.535210
0.000000 0.090761 0.543862
0.184192 0.087556 0.534859
0.409125 0.104585 0.546670
0.616190 0.122469 0.561135
0.793530 0.140642 0.575280
0.945357 0.173510 0.586999
1.000000 0.233753 0.597848
0.000000 0.105531 0.501839
0.000000 0.131472 0.525582
0.000000 0.146624 0.534356
0.207385 0.152346 0.533135
0.424292 0.178042 0.547509
0.624857 0.204883 0.562051
0.799207 0.229068 0.575830
0.953628 0.268284 0.594202
1.000000 0.352529 0.613336
0.000000 0.159411 0.475105
0.000000 0.189578 0.503914
0.039109 0.206317 0.513909
0.240497 0.228916 0.527504
0.453590 0.266651 0.549218
0.653605 0.305592 0.569619
0.828275 0.341604 0.588052
0.984924 0.387976 0.610376
1.000000 0.463981 0.637140
0.000000 0.234470 0.426749
0.000000 0.267720 0.458076
0.100130 0.292287 0.477821
0.283253 0.329030 0.503685
0.485710 0.374899 0.532418
0.681666 0.422599 0.555840
0.855024 0.468986 0.575967
1.000000 0.516014 0.600855
1.000000 0.571603 0.633555
0.000000 0.327382 0.355703
0.015000 0.364462 0.389120
0.147753 0.401984 0.420523
0.315373 0.446067 0.453468
0.505226 0.494881 0.486244
0.696468 0.545937 0.517845
0.865095 0.594949 0.544182
1.000000 0.640620 0.564416
1.000000 0.685069 0.592355
0.014542 0.470314 0.291112
0.098268 0.509255 0.321172
0.186831 0.543770 0.347921
0.321569 0.584558 0.378637
0.496880 0.629511 0.409979
0.682139 0.677806 0.443030
0.845289 0.723033 0.471000
0.990692 0.764431 0.500969
1.000000 0.804532 0.528130
0.231281 0.670314 0.296269
0.265187 0.690837 0.312459
0.302403 0.707240 0.325261
0.369345 0.726055 0.339178
0.494911 0.755825 0.359777
0.660090 0.794003 0.379950
0.820005 0.833982 0.411490
0.962005 0.869795 0.442161
1.000000 0.902586 0.478431
0.459083 0.824887 0.377722
0.478386 0.834546 0.389868
0.490105 0.839231 0.394598
0.503227 0.840894 0.393103
0.551369 0.849851 0.390890
0.663111 0.875898 0.386709
0.811643 0.914748 0.383627
0.954086 0.950057 0.413031
1.000000 0.981842 0.446906
0.668711 0.935821 0.501198
0.678874 0.941054 0.508659
0.679545 0.941115 0.508263
0.672343 0.936004 0.498817
0.672633 0.931228 0.483207
0.714199 0.938064 0.465904
0.816495 0.967788 0.423377
0.962386 1.000000 0.392813
1.000000 1.000000 0.423835
0.000000 0.000000 0.596094
0.000000 0.000000 0.633982
0.000000 0.020508 0.686900
0.058671 0.024750 0.698741
0.319509 0.025498 0.709819
0.541955 0.034470 0.733013
0.728969 0.033783 0.758312
0.900206 0.022293 0.785046
1.000000 0.034424 0.805447
0.000000 0.019394 0.618448
0.000000 0.049073 0.653483
0.000000 0.092592 0.700755
0.068406 0.087205 0.696056
0.323522 0.093599 0.706065
0.549142 0.100267 0.736309
0.747539 0.085878 0.775753
0.928786 0.054215 0.816815
1.000000 0.073167 0.842252
0.000000 0.120165 0.637644
0.000000 0.149554 0.669947
0.000000 0.189197 0.710430
0.107790 0.179431 0.699825
0.352819 0.193652 0.717815
0.569543 0.204471 0.746273
0.753491 0.190188 0.776837
0.944839 0.138247 0.831479
1.000000 0.217960 0.839033
0.000000 0.215732 0.603433
0.000000 0.250477 0.638849
0.000000 0.287968 0.673838
0.170657 0.296483 0.674708
0.392126 0.330526 0.697536
0.604379 0.371099 0.724590
0.786007 0.407034 0.749126
0.950469 0.438376 0.771847
1.000000 0.496406 0.787778
0.000000 0.335653 0.560159
0.000000 0.369863 0.591653
0.034043 0.386465 0.601678
0.228794 0.419532 0.623545
0.431113 0.461875 0.650294
0.630793 0.508919 0.676661
0.804074 0.551934 0.695796
0.963134 0.592630 0.711406
1.000000 0.636957 0.727565
0.000000 0.467765 0.485039
0.047379 0.495750 0.503166
0.127214 0.522469 0.521111
0.256794 0.555062 0.543404
0.432990 0.593729 0.568933
0.622644 0.638193 0.596338
0.789319 0.680919 0.620417
0.939223 0.722225 0.640803
1.000000 0.762341 0.651576
0.207706 0.647517 0.456489
0.239094 0.666285 0.469963
0.271153 0.680354 0.480354
0.328618 0.694545 0.490059
0.444312 0.718593 0.505531
0.606867 0.751492 0.524025
0.769589 0.790539 0.549798
0.914687 0.826749 0.572808
1.000000 0.862623 0.595773
0.444495 0.805386 0.471931
0.463584 0.814939 0.482094
0.473579 0.818952 0.485924
0.483391 0.819089 0.484047
0.524773 0.824491 0.483543
0.626795 0.843595 0.491188
0.768612 0.873808 0.506493
0.911482 0.908507 0.532250
1.000000 0.941451 0.559213
0.658824 0.923781 0.548165
0.668757 0.928939 0.554650
0.669062 0.928725 0.554055
0.660746 0.922911 0.545403
0.658701 0.916442 0.532555
0.694987 0.919783 0.522179
0.785504 0.937789 0.508858
0.919783 0.970108 0.515404
1.000000 1.000000 0.542626
0.000000 0.000000 0.277470
0.000000 0.000000 0.329732
0.000000 0.000000 0.424765
0.000000 0.000000 0.705715
0.317037 0.000000 0.804425
0.524834 0.000000 0.886748
0.664820 0.000000 0.919799
0.753368 0.000000 0.919844
0.819806 0.000000 0.904036
0.000000 0.000000 0.290898
0.000000 0.000000 0.333532
0.000000 0.000000 0.425391
0.047028 0.000000 0.723522
0.341970 0.000000 0.826902
0.524697 0.000000 0.902968
0.630564 0.000000 0.929808
0.672435 0.000000 0.920821
0.716884 0.000000 0.898650
0.000000 0.000000 0.394186
0.000000 0.000000 0.414206
0.000000 0.000000 0.535744
0.169741 0.000000 0.766964
0.399283 0.000000 0.866056
0.538186 0.000000 0.925750
0.596872 0.000000 0.937575
0.588159 0.000000 0.911345
0.671504 0.000000 0.906462
0.000000 0.079652 0.662577
0.000000 0.099947 0.690654
0.000000 0.156344 0.755322
0.000000 0.234348 0.844465
0.282750 0.215930 0.847669
0.519173 0.210422 0.883604
0.715038 0.132265 0.930388
0.941390 0.000000 1.000000
1.000000 0.042176 1.000000
0.000000 0.254475 0.647242
0.000000 0.282338 0.675517
0.000000 0.346410 0.737850
0.054749 0.389395 0.766842
0.336782 0.422660 0.786328
0.556512 0.463706 0.810773
0.743420 0.502663 0.834241
0.909056 0.537835 0.854307
1.000000 0.578332 0.869657
0.000000 0.481422 0.655055
0.000000 0.495979 0.658793
0.033173 0.513207 0.665858
0.180011 0.538949 0.680385
0.367453 0.572244 0.701640
0.564416 0.611948 0.724178
0.736843 0.652293 0.744442
0.889998 0.689311 0.759197
1.000000 0.722866 0.770794
0.175952 0.637842 0.592599
0.205447 0.655055 0.603250
0.234302 0.666880 0.611292
0.285039 0.677501 0.618235
0.393957 0.696101 0.630167
0.554025 0.722835 0.646311
0.720729 0.759945 0.668650
0.868772 0.794934 0.688487
1.000000 0.829892 0.706966
0.425620 0.787152 0.607569
0.443717 0.796017 0.616892
0.452110 0.799115 0.619806
0.457404 0.797650 0.616526
0.489342 0.799527 0.613123
0.582345 0.814084 0.614893
0.722667 0.841184 0.624826
0.867948 0.875517 0.645747
1.000000 0.908904 0.667323
0.653559 0.910063 0.646571
0.662989 0.915022 0.652781
0.662593 0.914488 0.651865
0.652735 0.907988 0.642939
0.646357 0.899870 0.629450
0.673655 0.899504 0.619074
0.752743 0.911238 0.611795
0.884993 0.939910 0.624033
1.000000 0.973739 0.648859
0.000000 0.000000 0.000000
0.000000 0.000000 0.000000
0.000000 0.000000 0.000000
0.000000 0.000000 0.025299
0.000000 0.000000 0.400931
0.000000 0.000000 0.488487
0.000000 0.000000 0.541665
0.000000 0.000000 0.547890
0.000000 0.000000 0.527047
0.000000 0.000000 0.000000
0.000000 0.000000 0.000000
0.000000 0.000000 0.000000
0.000000 0.000000 0.000000
0.000000 0.000000 0.318059
0.000000 0.000000 0.374868
0.000000 0.000000 0.387823
0.000000 0.000000 0.345068
0.000000 0.000000 0.302312
0.000000 0.000000 0.000000
0.000000 0.000000 0.000000
0.000000 0.000000 0.000000
0.000000 0.000000 0.000000
0.000000 0.000000 0.214862
0.000000 0.000000 0.222858
0.000000 0.000000 0.186862
0.000000 0.000000 0.101015
0.000000 0.000000 0.130373
0.000000 0.000000 0.000000
0.000000 0.000000 0.000000
0.000000 0.000000 0.000000
0.000000 0.000000 0.003586
0.000000 0.000000 0.362295
0.000000 0.000000 0.336706
0.000000 0.000000 0.287846
0.000000 0.000000 0.220584
0.000000 0.000000 0.407874
0.000000 0.000000 0.541451
0.000000 0.000000 0.536263
0.000000 0.007111 0.581857
0.000000 0.256992 0.838666
0.219577 0.345251 0.926482
0.472587 0.362310 0.955978
0.676570 0.386175 0.986618
0.850568 0.407996 1.000000
1.000000 0.475074 1.000000
0.000000 0.235218 0.572229
0.000000 0.245274 0.577798
0.000000 0.303944 0.631174
0.000000 0.525780 0.836973
0.258808 0.538140 0.817288
0.487282 0.573831 0.838422
0.675380 0.611124 0.858198
0.839734 0.645243 0.875929
0.995010 0.679469 0.891035
0.116945 0.631327 0.713298
0.149355 0.646922 0.721767
0.178408 0.657328 0.728099
0.228351 0.665354 0.732891
0.338003 0.680095 0.742336
0.499321 0.702174 0.757366
0.670466 0.735927 0.776638
0.822690 0.769390 0.794553
0.967956 0.803235 0.809842
0.402945 0.776486 0.714519
0.420127 0.784833 0.722652
0.426856 0.787610 0.725246
0.429358 0.784939 0.721798
0.455055 0.784039 0.717235
0.540108 0.794339 0.719280
0.676326 0.816464 0.728405
0.824811 0.849622 0.748150
0.966476 0.882078 0.767117
0.634043 0.895369 0.752605
0.643015 0.900145 0.758190
0.642069 0.899245 0.756985
0.631174 0.892195 0.748547
0.622003 0.882811 0.735714
0.642100 0.879759 0.724941
0.713344 0.887144 0.717113
0.843503 0.912917 0.726207
0.983703 0.946273 0.747814
0.000000 0.000000 0.000000
0.000000 0.000000 0.000000
0.000000 0.000000 0.000000
0.000000 0.000000 0.000000
0.000000 0.000000 0.000000
0.000000 0.000000 0.000000
0.000000 0.000000 0.000000
0.000000 0.000000 0.000000
0.000000 0.000000 0.000000
0.000000 0.000000 0.000000
0.000000 0.000000 0.000000
0.000000 0.000000 0.000000
0.000000 0.000000 0.000000
0.000000 0.000000 0.000000
0.000000 0.000000 0.000000
0.000000 0.000000 0.000000
0.000000 0.000000 0.000000
0.000000 0.000000 0.000000
0.000000 0.000000 0.000000
0.000000 0.000000 0.000000
0.000000 0.000000 0.000000
0.000000 0.000000 0.000000
0.000000 0.000000 0.000000
0.000000 0.000000 0.000000
0.000000 0.000000 0.000000
0.000000 0.000000 0.000000
0.000000 0.000000 0.000000
0.000000 0.000000 0.000000
0.000000 0.000000 0.000000
0.000000 0.000000 0.000000
0.000000 0.000000 0.000000
0.000000 0.000000 0.000000
0.000000 0.000000 0.000000
0.000000 0.000000 0.000000
0.000000 0.000000 0.000000
0.000000 0.000000 0.197971
0.000000 0.000000 0.000000
0.000000 0.000000 0.000000
0.000000 0.000000 0.000000
0.000000 0.000000 0.000000
0.205997 0.000000 0.903212
0.000000 0.000000 0.196841
0.000000 0.000000 0.211597
0.000000 0.000000 0.503105
0.970062 0.368933 1.000000
0.000000 0.000000 0.198337
0.000000 0.000000 0.196262
0.000000 0.000000 0.263981
0.000000 0.056184 0.535622
0.046006 0.499992 0.950240
0.416236 0.519051 0.970611
0.615839 0.548196 0.991058
0.791363 0.584573 1.000000
0.951263 0.630640 1.000000
0.000000 0.125154 0.407034
0.000000 0.153262 0.432303
0.000000 0.236255 0.511925
0.000000 0.511971 0.778637
0.148806 0.636423 0.846983
0.414389 0.669963 0.863966
0.597848 0.698390 0.880964
0.763317 0.730327 0.898299
0.918151 0.762005 0.914595
0.367102 0.767086 0.821271
0.384558 0.774762 0.828382
0.390906 0.776822 0.830182
0.390982 0.773342 0.826291
0.411444 0.770626 0.821286
0.491371 0.777691 0.823224
0.620874 0.793301 0.831846
0.775891 0.825544 0.850263
0.921569 0.857023 0.867430
0.615320 0.885725 0.848066
0.624002 0.890394 0.853422
0.622385 0.889296 0.852125
0.610468 0.881727 0.843336
0.598276 0.871305 0.831006
0.611582 0.865721 0.821744
0.673304 0.868955 0.816983
0.797894 0.889113 0.825711
0.941848 0.921538 0.846082
