CUBE/3411 Film - Teal and orange.cube
# (null)
# 3 columns rgb, 35937 rows
# created by dwsgrading 2017-03-24 09:18:32 +0000
LUT_3D_SIZE 33
0.000000 0.075593 0.096315
0.003769 0.080919 0.099779
0.029419 0.087098 0.103944
0.057023 0.093172 0.107683
0.086366 0.099443 0.111345
0.117006 0.106065 0.115053
0.148272 0.112520 0.118639
0.182040 0.119936 0.122240
0.218830 0.127565 0.125673
0.258579 0.136080 0.128939
0.300435 0.144717 0.132036
0.343557 0.153628 0.135912
0.388739 0.162905 0.140291
0.434791 0.171847 0.145418
0.482063 0.181140 0.150881
0.529458 0.189960 0.157214
0.576471 0.198810 0.163699
0.623270 0.207660 0.170748
0.668864 0.216358 0.177234
0.713649 0.224964 0.183581
0.756939 0.233631 0.190173
0.798764 0.242100 0.196231
0.839185 0.251072 0.201724
0.877577 0.259998 0.207065
0.915145 0.268833 0.212360
0.952056 0.278294 0.217334
0.987900 0.287785 0.222324
1.000000 0.297688 0.228061
1.000000 0.307805 0.235080
1.000000 0.317861 0.241840
1.000000 0.328634 0.248112
1.000000 0.340185 0.253681
1.000000 0.352651 0.258122
0.000000 0.088502 0.089006
0.004913 0.094270 0.092851
0.030564 0.100755 0.097566
0.058305 0.107057 0.101717
0.087465 0.113878 0.106035
0.118593 0.121004 0.110124
0.150240 0.128008 0.114015
0.183642 0.135515 0.117968
0.219959 0.143389 0.121386
0.259052 0.152087 0.125566
0.300343 0.161089 0.128695
0.343648 0.170169 0.132433
0.388464 0.179706 0.137087
0.434089 0.189197 0.141695
0.480766 0.199008 0.147066
0.527764 0.208270 0.153017
0.574395 0.217563 0.159197
0.620981 0.226856 0.166110
0.666514 0.235950 0.172732
0.711284 0.244739 0.179339
0.754818 0.253895 0.185626
0.796597 0.262623 0.192081
0.836728 0.271748 0.197818
0.875700 0.281041 0.203189
0.913344 0.290379 0.208637
0.950408 0.300359 0.214084
0.986526 0.310231 0.219379
1.000000 0.320394 0.224414
1.000000 0.331197 0.229480
1.000000 0.342016 0.234653
1.000000 0.353384 0.240284
1.000000 0.365835 0.246830
1.000000 0.378912 0.254856
0.000000 0.102144 0.082170
0.006806 0.108049 0.086427
0.032731 0.114672 0.091478
0.060166 0.121386 0.095903
0.089158 0.128389 0.100999
0.120897 0.135988 0.105333
0.152972 0.143435 0.109987
0.185992 0.151049 0.114137
0.221790 0.159197 0.117937
0.260960 0.168048 0.121889
0.301961 0.177172 0.126116
0.344320 0.186725 0.130053
0.389013 0.196551 0.134524
0.434302 0.206363 0.139223
0.480919 0.216419 0.144335
0.527642 0.226291 0.150362
0.574380 0.235935 0.156344
0.620554 0.245792 0.162814
0.665690 0.255390 0.169162
0.710094 0.264637 0.175784
0.753506 0.274372 0.181918
0.795087 0.283772 0.188357
0.835233 0.293446 0.193881
0.874281 0.303319 0.199435
0.912001 0.313008 0.205020
0.949081 0.323033 0.210361
0.985504 0.333761 0.215763
1.000000 0.344564 0.221088
1.000000 0.355734 0.226459
1.000000 0.367422 0.231983
1.000000 0.379187 0.237964
1.000000 0.391562 0.244938
1.000000 0.406058 0.253147
0.000000 0.116304 0.074769
0.008789 0.122408 0.079789
0.034684 0.129290 0.084886
0.062287 0.136095 0.089738
0.091005 0.143465 0.095094
0.123232 0.151400 0.100252
0.156130 0.159411 0.105379
0.188586 0.167117 0.110277
0.224186 0.175265 0.114397
0.262577 0.184268 0.118288
0.303685 0.193713 0.122896
0.346273 0.203281 0.127611
0.390692 0.213474 0.132815
0.436118 0.223529 0.137484
0.482353 0.233707 0.142718
0.528893 0.244160 0.148409
0.575189 0.254276 0.154635
0.621332 0.264363 0.160800
0.666728 0.274693 0.167224
0.710979 0.284566 0.173816
0.754131 0.294499 0.179873
0.795727 0.304692 0.186084
0.835981 0.314717 0.191882
0.875303 0.325063 0.197375
0.913191 0.335592 0.203174
0.950256 0.346517 0.208408
0.986908 0.357534 0.213840
1.000000 0.368917 0.219486
1.000000 0.380453 0.224948
1.000000 0.392477 0.231006
1.000000 0.404608 0.237690
1.000000 0.417563 0.245289
1.000000 0.432258 0.254337
0.000000 0.130526 0.067872
0.010697 0.136736 0.072755
0.037049 0.143694 0.078035
0.064210 0.150912 0.083772
0.092760 0.158465 0.089250
0.124880 0.166751 0.094850
0.159136 0.175631 0.100572
0.191028 0.183551 0.105547
0.226352 0.192035 0.110124
0.264668 0.201190 0.114809
0.305547 0.210941 0.120043
0.347982 0.220706 0.125078
0.392172 0.230793 0.130434
0.437781 0.241337 0.135775
0.484169 0.251865 0.141146
0.531014 0.262562 0.147082
0.577752 0.272953 0.153445
0.623896 0.283268 0.159945
0.669429 0.293812 0.166186
0.713771 0.304250 0.172839
0.756985 0.314839 0.179004
0.798947 0.325658 0.185611
0.839445 0.336294 0.191592
0.878721 0.346899 0.197116
0.916930 0.358038 0.202930
0.954406 0.369299 0.208453
0.991348 0.380697 0.214160
1.000000 0.392721 0.220005
1.000000 0.404746 0.226001
1.000000 0.416770 0.232242
1.000000 0.429496 0.239185
1.000000 0.443183 0.247227
1.000000 0.458747 0.256550
0.000000 0.144991 0.060563
0.013138 0.151324 0.065736
0.039368 0.158373 0.071672
0.066300 0.165881 0.077531
0.094835 0.173541 0.083146
0.126787 0.182223 0.089937
0.162325 0.191348 0.095949
0.193835 0.199268 0.101305
0.228779 0.208118 0.105806
0.266789 0.217655 0.111284
0.307851 0.227680 0.116991
0.350225 0.238025 0.122545
0.394629 0.248707 0.128008
0.440238 0.259693 0.133989
0.486809 0.270481 0.139940
0.533410 0.281483 0.145632
0.580331 0.292622 0.152331
0.626825 0.303502 0.158831
0.672648 0.314321 0.165637
0.717617 0.325383 0.172213
0.761013 0.336339 0.178454
0.803052 0.347097 0.185183
0.844160 0.358419 0.191394
0.883680 0.369650 0.197269
0.922286 0.381003 0.203296
0.960266 0.393088 0.209094
0.997482 0.404852 0.214939
1.000000 0.416876 0.220813
1.000000 0.429496 0.227268
1.000000 0.442054 0.233661
1.000000 0.455222 0.240757
1.000000 0.469917 0.248936
1.000000 0.486198 0.258427
0.000000 0.160815 0.052323
0.015320 0.167422 0.058213
0.041917 0.174731 0.064195
0.068864 0.182559 0.070436
0.097261 0.190417 0.076860
0.129381 0.199405 0.083467
0.165652 0.209308 0.090486
0.197253 0.217487 0.095872
0.231678 0.226474 0.102037
0.269673 0.235889 0.107546
0.310109 0.245762 0.113436
0.352483 0.256168 0.119570
0.397009 0.267140 0.125628
0.442603 0.278447 0.131914
0.489570 0.290089 0.138598
0.536599 0.301656 0.144900
0.583658 0.313130 0.151049
0.630442 0.324865 0.157855
0.676371 0.336263 0.164645
0.721416 0.347768 0.171389
0.765637 0.359518 0.177798
0.808072 0.370962 0.184573
0.849180 0.382528 0.190738
0.889067 0.394568 0.196811
0.927901 0.406317 0.203006
0.966125 0.418479 0.208911
1.000000 0.431266 0.215015
1.000000 0.443763 0.221073
1.000000 0.456474 0.227359
1.000000 0.469444 0.234211
1.000000 0.482567 0.241413
1.000000 0.496513 0.250065
1.000000 0.512108 0.261173
0.000000 0.177447 0.043366
0.017914 0.184131 0.049210
0.044144 0.191531 0.055406
0.071244 0.199817 0.062852
0.099779 0.208148 0.069490
0.131792 0.217441 0.076387
0.168688 0.227893 0.084550
0.201175 0.236667 0.090593
0.234852 0.245548 0.096666
0.272450 0.255451 0.103227
0.313008 0.265705 0.109667
0.355474 0.276829 0.116320
0.400137 0.287892 0.123186
0.445716 0.299046 0.129854
0.492699 0.310658 0.136553
0.539757 0.322911 0.143740
0.587121 0.334966 0.150332
0.634455 0.347326 0.156741
0.680644 0.359548 0.163714
0.725750 0.371603 0.170275
0.770047 0.383658 0.176577
0.812879 0.395956 0.183749
0.854215 0.408240 0.189792
0.894499 0.420554 0.196063
0.933715 0.433234 0.202197
0.972412 0.445624 0.208209
1.000000 0.458244 0.214374
1.000000 0.471275 0.220661
1.000000 0.484154 0.227070
1.000000 0.496895 0.234058
1.000000 0.510155 0.242008
1.000000 0.523354 0.251606
1.000000 0.537240 0.264134
0.000000 0.195132 0.032654
0.019883 0.202090 0.039017
0.046418 0.209796 0.045731
0.073518 0.218509 0.053300
0.102129 0.227085 0.060365
0.133883 0.236530 0.068330
0.170443 0.247318 0.076722
0.205631 0.257374 0.084733
0.238621 0.266392 0.090883
0.275807 0.276539 0.098299
0.315862 0.287114 0.104967
0.358129 0.298085 0.112322
0.402686 0.309941 0.119753
0.448600 0.321614 0.127092
0.495613 0.333516 0.134569
0.543343 0.345647 0.142031
0.590631 0.358053 0.149096
0.637583 0.370703 0.155657
0.684459 0.383642 0.162249
0.729763 0.396368 0.169009
0.774456 0.408942 0.175647
0.817456 0.421729 0.182513
0.859190 0.434485 0.188830
0.899611 0.447089 0.194965
0.938964 0.460166 0.201144
0.978241 0.473075 0.207446
1.000000 0.486061 0.213626
1.000000 0.499062 0.219867
1.000000 0.512215 0.226642
1.000000 0.524910 0.233875
1.000000 0.537499 0.242298
1.000000 0.550317 0.253101
1.000000 0.562631 0.267506
0.000000 0.213733 0.020569
0.021775 0.221012 0.027649
0.048035 0.229145 0.035264
0.075181 0.238056 0.043183
0.104234 0.247425 0.051377
0.136187 0.257359 0.059678
0.172061 0.268116 0.068849
0.209430 0.279118 0.077699
0.242557 0.288441 0.084932
0.278904 0.298512 0.091890
0.318730 0.309697 0.100099
0.360906 0.321080 0.107805
0.405417 0.332845 0.115496
0.451347 0.345129 0.123812
0.498405 0.357412 0.131548
0.545769 0.369909 0.139345
0.593698 0.382635 0.147204
0.641032 0.395239 0.154726
0.687694 0.408392 0.160906
0.733516 0.421805 0.167361
0.778164 0.434928 0.174136
0.821393 0.447929 0.180926
0.863645 0.461387 0.187289
0.904341 0.474464 0.193652
0.943908 0.487526 0.199939
0.983047 0.500603 0.206119
1.000000 0.514015 0.212467
1.000000 0.527276 0.218952
1.000000 0.540169 0.226001
1.000000 0.553185 0.233570
1.000000 0.565255 0.242741
1.000000 0.576806 0.254261
1.000000 0.587686 0.270970
0.000000 0.233646 0.009766
0.023575 0.241215 0.016800
0.050324 0.249989 0.024887
0.077409 0.259312 0.033356
0.106004 0.268742 0.042161
0.138231 0.279194 0.051240
0.174319 0.290211 0.060594
0.211063 0.301381 0.070237
0.247700 0.312245 0.078798
0.282658 0.322210 0.086336
0.321660 0.333165 0.093950
0.363790 0.344900 0.102708
0.407996 0.357061 0.111070
0.453681 0.369543 0.119326
0.501060 0.382498 0.128084
0.548638 0.395209 0.136309
0.596262 0.407950 0.144579
0.643946 0.421088 0.152865
0.690669 0.434089 0.160311
0.736553 0.447761 0.166232
0.781842 0.461677 0.172534
0.825132 0.475105 0.179034
0.867323 0.488396 0.185763
0.908492 0.502068 0.192264
0.948516 0.515404 0.198550
0.987823 0.528862 0.204730
1.000000 0.542123 0.211292
1.000000 0.555642 0.218128
1.000000 0.568643 0.225116
1.000000 0.581079 0.232975
1.000000 0.593179 0.242893
1.000000 0.603754 0.255680
1.000000 0.612558 0.274189
0.000443 0.255055 0.000000
0.025147 0.262791 0.006088
0.052293 0.271992 0.014771
0.079637 0.281804 0.023911
0.108721 0.291737 0.032868
0.140719 0.302434 0.042771
0.176303 0.313787 0.052491
0.212818 0.325063 0.061814
0.250935 0.336706 0.071702
0.286839 0.347402 0.080034
0.324895 0.358328 0.088304
0.366125 0.370016 0.096788
0.410437 0.382483 0.105821
0.455894 0.395102 0.114809
0.503227 0.408026 0.123278
0.551003 0.421439 0.132662
0.598917 0.434516 0.141329
0.646342 0.447654 0.149905
0.693401 0.461067 0.158511
0.739254 0.474250 0.165881
0.784314 0.488304 0.171588
0.828275 0.502541 0.177813
0.870802 0.516197 0.184070
0.911696 0.529824 0.190433
0.951690 0.543313 0.197024
0.991608 0.557183 0.203403
1.000000 0.570596 0.210071
1.000000 0.583841 0.216693
1.000000 0.597284 0.224063
1.000000 0.609491 0.232441
1.000000 0.620829 0.242481
1.000000 0.630823 0.256580
1.000000 0.637537 0.278447
0.002762 0.277668 0.000000
0.027512 0.285893 0.000000
0.054231 0.295338 0.005066
0.082017 0.305684 0.014740
0.111131 0.315908 0.024247
0.142962 0.326772 0.033982
0.178637 0.338506 0.044312
0.214740 0.350042 0.054520
0.252323 0.361700 0.064042
0.291920 0.373587 0.073930
0.328664 0.384527 0.082139
0.369116 0.396216 0.090898
0.412772 0.408820 0.099992
0.458412 0.421836 0.109499
0.505211 0.434989 0.119066
0.553002 0.448188 0.128008
0.601099 0.461845 0.137346
0.648707 0.475196 0.146380
0.695598 0.488457 0.155566
0.741695 0.502022 0.164462
0.786572 0.515297 0.172534
0.830274 0.529519 0.177707
0.873182 0.543893 0.183688
0.914260 0.557885 0.189532
0.954528 0.571649 0.195468
0.994141 0.585245 0.202075
1.000000 0.599039 0.208728
1.000000 0.612406 0.215503
1.000000 0.625254 0.222904
1.000000 0.637736 0.231693
1.000000 0.648707 0.242329
1.000000 0.657649 0.256886
1.000000 0.662486 0.282429
0.004440 0.301381 0.000000
0.030014 0.310079 0.000000
0.056474 0.320180 0.000000
0.084047 0.330770 0.005310
0.113649 0.341588 0.015808
0.145495 0.352590 0.025788
0.180026 0.364157 0.035981
0.216144 0.376165 0.046296
0.253605 0.387961 0.056519
0.292882 0.400137 0.066224
0.333181 0.412284 0.075807
0.371893 0.423819 0.084749
0.414755 0.436240 0.093935
0.460090 0.449256 0.103548
0.507164 0.462806 0.113298
0.554757 0.476265 0.123110
0.602594 0.489815 0.132235
0.650614 0.503456 0.142245
0.697246 0.516930 0.151766
0.743053 0.530083 0.161227
0.788067 0.543496 0.170947
0.831022 0.556603 0.179721
0.873259 0.570871 0.185565
0.915022 0.585107 0.189837
0.955505 0.599557 0.195300
0.995300 0.613321 0.201160
1.000000 0.626963 0.207553
1.000000 0.640574 0.214374
1.000000 0.653574 0.221881
1.000000 0.665415 0.230732
1.000000 0.676249 0.241611
1.000000 0.684489 0.257908
1.000000 0.687770 0.287037
0.007126 0.326711 0.000000
0.032410 0.335515 0.000000
0.059113 0.346227 0.000000
0.086641 0.357153 0.000000
0.116106 0.368063 0.006989
0.148119 0.379705 0.017746
0.182025 0.391394 0.028183
0.217227 0.403098 0.038834
0.254231 0.415381 0.049180
0.293492 0.427604 0.059174
0.334127 0.440146 0.069291
0.374945 0.452613 0.078492
0.416648 0.464988 0.087770
0.461280 0.477974 0.097139
0.507866 0.491386 0.106935
0.555673 0.505302 0.117128
0.603571 0.518853 0.127077
0.651011 0.532540 0.136782
0.698375 0.546227 0.146883
0.744106 0.559319 0.157092
0.788647 0.572213 0.167208
0.831617 0.584894 0.178164
0.872709 0.597406 0.189227
0.912764 0.610864 0.196643
0.954040 0.625864 0.198444
0.993988 0.640497 0.203204
1.000000 0.654261 0.208499
1.000000 0.667704 0.214679
1.000000 0.680735 0.221729
1.000000 0.692714 0.230488
1.000000 0.703151 0.241962
1.000000 0.710628 0.259495
1.000000 0.713054 0.292271
0.010651 0.352911 0.000000
0.035279 0.362493 0.000000
0.061799 0.373312 0.000000
0.089815 0.384863 0.000000
0.119066 0.396124 0.000305
0.150179 0.407614 0.010956
0.183459 0.419593 0.021866
0.218173 0.431342 0.032349
0.254536 0.443458 0.042573
0.293248 0.456062 0.053208
0.333913 0.468788 0.062791
0.375891 0.481666 0.072648
0.418128 0.494514 0.081422
0.461830 0.507622 0.090913
0.508095 0.521172 0.100603
0.555474 0.534829 0.110674
0.603601 0.548745 0.121294
0.651225 0.562387 0.130983
0.698100 0.575708 0.141497
0.743816 0.589044 0.152453
0.788327 0.601953 0.163302
0.830808 0.614160 0.174975
0.871565 0.625986 0.186801
0.910780 0.637400 0.200687
0.948150 0.648936 0.213077
0.988922 0.664683 0.211734
1.000000 0.679377 0.215000
1.000000 0.693324 0.219364
1.000000 0.706432 0.225162
1.000000 0.718395 0.233402
1.000000 0.728878 0.245045
1.000000 0.736141 0.263569
1.000000 0.738537 0.295918
0.014267 0.380346 0.000000
0.038895 0.390646 0.000000
0.064775 0.401999 0.000000
0.092958 0.413291 0.000000
0.122637 0.425315 0.000000
0.153063 0.436912 0.006226
0.184848 0.448371 0.017044
0.218631 0.460380 0.027756
0.253986 0.472541 0.038285
0.292042 0.484901 0.048371
0.332280 0.497826 0.058259
0.374029 0.511101 0.068025
0.417868 0.524575 0.076692
0.461143 0.537697 0.085344
0.507164 0.551492 0.094652
0.554376 0.565194 0.104524
0.601877 0.578973 0.114839
0.649622 0.592874 0.125093
0.696483 0.606317 0.136126
0.741878 0.619348 0.147311
0.786175 0.631983 0.158419
0.828885 0.644190 0.170825
0.869352 0.655619 0.183581
0.907988 0.666362 0.197559
0.945174 0.676555 0.213413
0.980682 0.686641 0.230655
1.000000 0.700526 0.233783
1.000000 0.715267 0.233783
1.000000 0.729259 0.236973
1.000000 0.741665 0.243076
1.000000 0.752300 0.253407
1.000000 0.760250 0.271580
1.000000 0.764324 0.300755
0.019303 0.409094 0.000000
0.043000 0.419821 0.000000
0.069535 0.431632 0.000000
0.097154 0.443549 0.000000
0.126635 0.455421 0.000000
0.156054 0.467063 0.005249
0.186114 0.478492 0.015625
0.218265 0.490166 0.025940
0.253025 0.502235 0.036362
0.290089 0.514672 0.046799
0.329137 0.527535 0.056214
0.370367 0.540673 0.065232
0.414221 0.554482 0.073838
0.459129 0.568475 0.081544
0.504295 0.582132 0.089067
0.551247 0.596078 0.098848
0.598688 0.609934 0.109499
0.646189 0.623545 0.119661
0.692699 0.636957 0.130541
0.738491 0.650217 0.141817
0.782605 0.662791 0.153216
0.824826 0.674647 0.165484
0.865461 0.686168 0.178943
0.903853 0.696574 0.193378
0.940383 0.706310 0.209537
0.975647 0.715282 0.227878
1.000000 0.724010 0.249439
1.000000 0.733776 0.266789
1.000000 0.749615 0.259495
1.000000 0.762814 0.262043
1.000000 0.774411 0.269062
1.000000 0.783734 0.282612
1.000000 0.789548 0.307210
0.025864 0.439460 0.000000
0.049180 0.450752 0.000000
0.075380 0.462913 0.000000
0.103944 0.475532 0.000000
0.133349 0.487541 0.000000
0.159670 0.498451 0.007965
0.188022 0.509544 0.018799
0.218311 0.521065 0.028794
0.251026 0.532799 0.038575
0.286564 0.545022 0.048249
0.324758 0.557900 0.058274
0.365011 0.570962 0.066728
0.407843 0.584451 0.074647
0.452811 0.598886 0.080995
0.499382 0.613428 0.086595
0.545510 0.627405 0.093950
0.592630 0.641337 0.103487
0.640223 0.655344 0.114137
0.686793 0.668666 0.125078
0.732250 0.681575 0.135607
0.776577 0.694270 0.147570
0.818784 0.705959 0.159701
0.858991 0.717098 0.172900
0.897261 0.727413 0.187457
0.933837 0.737301 0.203937
0.968795 0.745953 0.222370
1.000000 0.753628 0.243351
1.000000 0.760937 0.268376
1.000000 0.767880 0.295186
1.000000 0.782147 0.292744
1.000000 0.795041 0.293004
1.000000 0.806073 0.300435
1.000000 0.813764 0.318257
0.035233 0.472221 0.000000
0.059068 0.484962 0.000000
0.086458 0.497383 0.000000
0.115175 0.510140 0.000000
0.141375 0.521767 0.008469
0.165255 0.531701 0.018067
0.190661 0.542092 0.027710
0.218585 0.552865 0.037461
0.249393 0.564370 0.047044
0.282643 0.576104 0.056657
0.319005 0.588266 0.065400
0.358053 0.601373 0.073487
0.399680 0.614603 0.080949
0.443565 0.628504 0.086534
0.489738 0.643229 0.090089
0.537636 0.658824 0.092927
0.584527 0.672999 0.099718
0.631861 0.686641 0.109270
0.678721 0.700435 0.119509
0.724117 0.713298 0.130434
0.768215 0.725689 0.141573
0.810178 0.737438 0.154070
0.850477 0.748653 0.166995
0.888502 0.758877 0.181109
0.925170 0.768124 0.197131
0.960372 0.776699 0.215625
0.993927 0.784466 0.236591
1.000000 0.790967 0.261402
1.000000 0.796857 0.287160
1.000000 0.803067 0.314229
1.000000 0.813977 0.323568
1.000000 0.826642 0.322957
1.000000 0.836683 0.331579
0.052964 0.509896 0.000000
0.078584 0.522713 0.000000
0.107515 0.536233 0.006806
0.132753 0.547372 0.018250
0.153857 0.557092 0.027955
0.174075 0.566354 0.036683
0.197009 0.575906 0.046006
0.221714 0.585809 0.054475
0.249180 0.596185 0.063066
0.280262 0.607294 0.072602
0.314122 0.618784 0.080812
0.350729 0.630900 0.088441
0.390600 0.643961 0.095583
0.432929 0.657557 0.100175
0.478172 0.671824 0.102647
0.525429 0.687099 0.102541
0.574441 0.703685 0.100374
0.621668 0.717952 0.106569
0.668452 0.731304 0.116075
0.713985 0.744152 0.126253
0.758038 0.756756 0.137774
0.800259 0.768383 0.149264
0.840558 0.779202 0.162295
0.878874 0.789654 0.176196
0.915343 0.798810 0.191714
0.950439 0.807080 0.209400
0.984161 0.814374 0.229709
1.000000 0.821164 0.253635
1.000000 0.826947 0.278202
1.000000 0.832013 0.303746
1.000000 0.837018 0.330648
1.000000 0.844419 0.351995
1.000000 0.857649 0.348241
0.089387 0.554208 0.013336
0.114595 0.566430 0.026108
0.136675 0.576928 0.036652
0.156329 0.586526 0.045914
0.173083 0.594614 0.053880
0.190280 0.602548 0.061250
0.209018 0.610971 0.068849
0.230976 0.619898 0.076799
0.254856 0.629114 0.084382
0.281880 0.638911 0.091951
0.312566 0.649454 0.099977
0.346273 0.660548 0.107515
0.383291 0.672511 0.113848
0.423468 0.685023 0.119570
0.466712 0.698894 0.123461
0.512367 0.713390 0.123674
0.560601 0.729351 0.118303
0.610269 0.746731 0.109377
0.657740 0.760983 0.116014
0.703410 0.773861 0.125780
0.747692 0.786099 0.135943
0.789929 0.797879 0.147677
0.830213 0.808759 0.159396
0.868544 0.818753 0.172885
0.905074 0.827985 0.187945
0.940780 0.836423 0.205005
0.974319 0.843671 0.224537
1.000000 0.850019 0.246021
1.000000 0.855604 0.269795
1.000000 0.860929 0.294118
1.000000 0.865339 0.319539
1.000000 0.869398 0.346960
1.000000 0.874418 0.374624
0.137469 0.600687 0.051774
0.156054 0.610559 0.061509
0.172168 0.618860 0.069627
0.186572 0.626398 0.076829
0.199817 0.633204 0.083268
0.214282 0.640375 0.089921
0.229648 0.647379 0.096513
0.247120 0.654688 0.102876
0.267231 0.662684 0.109880
0.290211 0.671244 0.116564
0.316793 0.680110 0.123156
0.346624 0.689769 0.129534
0.380499 0.700465 0.136461
0.417548 0.711833 0.141588
0.457984 0.724224 0.145693
0.501335 0.737697 0.147143
0.547448 0.752850 0.144900
0.595865 0.769696 0.135821
0.646204 0.787778 0.121370
0.692531 0.801328 0.128695
0.737133 0.813748 0.138354
0.779553 0.825345 0.148501
0.820066 0.836057 0.159930
0.858625 0.846342 0.172351
0.895415 0.855497 0.185977
0.930861 0.863798 0.201892
0.964874 0.871046 0.220401
0.997864 0.877699 0.240833
1.000000 0.883177 0.262867
1.000000 0.888060 0.285344
1.000000 0.892363 0.309483
1.000000 0.896239 0.335332
1.000000 0.899870 0.362844
0.186511 0.645808 0.091417
0.199985 0.653437 0.099199
0.212039 0.660395 0.105852
0.223621 0.666636 0.112154
0.234119 0.672312 0.117540
0.245380 0.678050 0.123003
0.258045 0.684092 0.128573
0.272221 0.690242 0.134005
0.288212 0.696452 0.139101
0.306813 0.703075 0.144366
0.329168 0.710643 0.150027
0.354314 0.718730 0.155962
0.383566 0.727749 0.161089
0.416785 0.737819 0.166049
0.453559 0.748882 0.170306
0.493996 0.760830 0.172305
0.537041 0.774365 0.171328
0.583383 0.789700 0.165652
0.632486 0.807950 0.150561
0.681819 0.825925 0.137041
0.727016 0.838499 0.143893
0.770062 0.850492 0.152605
0.810742 0.861387 0.163119
0.849546 0.871458 0.174228
0.886381 0.880705 0.187289
0.922255 0.889097 0.202243
0.956344 0.896529 0.218555
0.989349 0.903166 0.236683
1.000000 0.908965 0.256367
1.000000 0.914092 0.278264
1.000000 0.918242 0.301015
1.000000 0.921584 0.325429
1.000000 0.924788 0.351659
0.236194 0.688029 0.131945
0.247211 0.694942 0.138567
0.256870 0.700587 0.144167
0.265675 0.705699 0.149401
0.274907 0.710750 0.154604
0.283940 0.715404 0.159197
0.293492 0.720195 0.163485
0.304494 0.724910 0.167773
0.317693 0.729992 0.172488
0.331975 0.735180 0.176791
0.349035 0.740795 0.180957
0.369589 0.747204 0.185000
0.393988 0.754620 0.189151
0.422354 0.762844 0.193103
0.454902 0.772213 0.196674
0.491539 0.782971 0.199344
0.531075 0.794903 0.199115
0.574289 0.808209 0.195056
0.619959 0.824063 0.185519
0.670130 0.844053 0.163256
0.717891 0.861158 0.153368
0.760998 0.873121 0.160281
0.802121 0.884077 0.168734
0.841337 0.894392 0.179171
0.878553 0.903838 0.190295
0.914549 0.912398 0.203204
0.949386 0.920073 0.217792
0.982605 0.926986 0.234226
1.000000 0.932830 0.252552
1.000000 0.937835 0.272526
1.000000 0.942168 0.293889
1.000000 0.945830 0.317311
1.000000 0.948791 0.342321
0.287572 0.728237 0.173190
0.296620 0.733715 0.179232
0.304814 0.738888 0.184726
0.312032 0.743145 0.189349
0.319600 0.747051 0.193729
0.327108 0.750973 0.197742
0.335149 0.755154 0.201999
0.343618 0.758694 0.205341
0.352987 0.762249 0.208469
0.364019 0.766079 0.211429
0.377234 0.770535 0.214511
0.393149 0.775128 0.217227
0.412131 0.780621 0.219867
0.435264 0.787289 0.223209
0.462837 0.794842 0.225254
0.494316 0.803830 0.227192
0.530190 0.814008 0.227268
0.569680 0.825940 0.225284
0.612161 0.839612 0.217762
0.657847 0.856321 0.202350
0.708858 0.878737 0.170687
0.753735 0.893614 0.168688
0.795468 0.904997 0.175113
0.834531 0.915343 0.184131
0.872358 0.924804 0.193774
0.908782 0.933806 0.204929
0.943297 0.941802 0.218494
0.977172 0.948837 0.233021
1.000000 0.955215 0.249668
1.000000 0.960494 0.267475
1.000000 0.964874 0.287953
1.000000 0.968475 0.310033
1.000000 0.971435 0.334325
0.340276 0.765393 0.214954
0.348257 0.770321 0.220798
0.355138 0.774380 0.225635
0.361517 0.777981 0.229801
0.368307 0.781430 0.234073
0.374411 0.784543 0.237461
0.380514 0.787610 0.240818
0.387213 0.790356 0.243778
0.394736 0.793240 0.246662
0.402457 0.795789 0.248554
0.411719 0.798520 0.250065
0.423484 0.801984 0.251865
0.437873 0.805936 0.253376
0.455512 0.810742 0.255070
0.477424 0.816632 0.256001
0.504051 0.823911 0.257252
0.535012 0.832364 0.256596
0.569955 0.842329 0.254749
0.608392 0.854170 0.249577
0.650813 0.868544 0.238132
0.696803 0.887022 0.216037
0.747341 0.911360 0.179171
0.789746 0.923659 0.181949
0.829740 0.934707 0.189090
0.867704 0.944625 0.197452
0.904295 0.953658 0.207553
0.939467 0.961990 0.218830
