CUBE/3411 Film - Teal and orange.cube
# (null)
# 3 columns rgb, 35937 rows
# created by dwsgrading 2017-03-24 09:18:32 +0000
LUT_3D_SIZE 5
0.000000 0.075593 0.096315
0.218830 0.127565 0.125673
0.576471 0.198810 0.163699
0.915145 0.268833 0.212360
1.000000 0.352651 0.258122
0.000000 0.195132 0.032654
0.238621 0.266392 0.090883
0.590631 0.358053 0.149096
0.938964 0.460166 0.201144
1.000000 0.562631 0.267506
0.014267 0.380346 0.000000
0.253986 0.472541 0.038285
0.601877 0.578973 0.114839
0.945174 0.676555 0.213413
1.000000 0.764324 0.300755
0.236194 0.688029 0.131945
0.317693 0.729992 0.172488
0.531075 0.794903 0.199115
0.878553 0.903838 0.190295
1.000000 0.948791 0.342321
0.663844 0.936690 0.472389
0.678874 0.944228 0.483360
0.676402 0.936965 0.458518
0.836072 0.990173 0.360647
1.000000 1.000000 0.057816
0.000000 0.059510 0.256031
0.151827 0.100206 0.278691
0.532525 0.161822 0.296437
0.885283 0.234318 0.299825
1.000000 0.326589 0.308339
0.000000 0.169909 0.188952
0.194629 0.235935 0.241993
0.557275 0.325231 0.290181
0.911208 0.426520 0.321508
1.000000 0.529610 0.389197
0.000000 0.355093 0.077211
0.234745 0.450111 0.162005
0.581903 0.554421 0.241505
0.928679 0.655390 0.325292
1.000000 0.743770 0.400366
0.249516 0.695384 0.169726
0.325734 0.734539 0.205921
0.531319 0.793866 0.233326
0.869047 0.890623 0.250355
1.000000 0.944900 0.368475
0.674327 0.941970 0.483528
0.687083 0.948165 0.492500
0.682399 0.939635 0.466697
0.837674 0.989990 0.371130
1.000000 1.000000 0.138445
0.000000 0.052796 0.514015
0.000000 0.090761 0.543862
0.409125 0.104585 0.546670
0.793530 0.140642 0.575280
1.000000 0.233753 0.597848
0.000000 0.159411 0.475105
0.039109 0.206317 0.513909
0.453590 0.266651 0.549218
0.828275 0.341604 0.588052
1.000000 0.463981 0.637140
0.000000 0.327382 0.355703
0.147753 0.401984 0.420523
0.505226 0.494881 0.486244
0.865095 0.594949 0.544182
1.000000 0.685069 0.592355
0.231281 0.670314 0.296269
0.302403 0.707240 0.325261
0.494911 0.755825 0.359777
0.820005 0.833982 0.411490
1.000000 0.902586 0.478431
0.668711 0.935821 0.501198
0.679545 0.941115 0.508263
0.672633 0.931228 0.483207
0.816495 0.967788 0.423377
1.000000 1.000000 0.423835
0.000000 0.000000 0.277470
0.000000 0.000000 0.424765
0.317037 0.000000 0.804425
0.664820 0.000000 0.919799
0.819806 0.000000 0.904036
0.000000 0.000000 0.394186
0.000000 0.000000 0.535744
0.399283 0.000000 0.866056
0.596872 0.000000 0.937575
0.671504 0.000000 0.906462
0.000000 0.254475 0.647242
0.000000 0.346410 0.737850
0.336782 0.422660 0.786328
0.743420 0.502663 0.834241
1.000000 0.578332 0.869657
0.175952 0.637842 0.592599
0.234302 0.666880 0.611292
0.393957 0.696101 0.630167
0.720729 0.759945 0.668650
1.000000 0.829892 0.706966
0.653559 0.910063 0.646571
0.662593 0.914488 0.651865
0.646357 0.899870 0.629450
0.752743 0.911238 0.611795
1.000000 0.973739 0.648859
0.000000 0.000000 0.000000
0.000000 0.000000 0.000000
0.000000 0.000000 0.000000
0.000000 0.000000 0.000000
0.000000 0.000000 0.000000
0.000000 0.000000 0.000000
0.000000 0.000000 0.000000
0.000000 0.000000 0.000000
0.000000 0.000000 0.000000
0.000000 0.000000 0.000000
0.000000 0.000000 0.000000
0.000000 0.000000 0.000000
0.205997 0.000000 0.903212
0.000000 0.000000 0.211597
0.970062 0.368933 1.000000
0.000000 0.125154 0.407034
0.000000 0.236255 0.511925
0.148806 0.636423 0.846983
0.597848 0.698390 0.880964
0.918151 0.762005 0.914595
0.615320 0.885725 0.848066
0.622385 0.889296 0.852125
0.598276 0.871305 0.831006
0.673304 0.868955 0.816983
0.941848 0.921538 0.846082
