CUBE/5122 City.cube
# (null)
# 3 columns rgb, 35937 rows
# created by dwsgrading 2017-03-24 09:18:49 +0000
LUT_3D_SIZE 33
0.087984 0.081804 0.079820
0.087480 0.082246 0.085740
0.087053 0.082887 0.092515
0.087800 0.083131 0.098894
0.089418 0.083162 0.104784
0.091508 0.083223 0.110002
0.095018 0.083101 0.113802
0.099107 0.082979 0.116304
0.104616 0.082673 0.117601
0.110826 0.082338 0.118090
0.118517 0.081697 0.118120
0.127764 0.081209 0.118120
0.139452 0.081254 0.118929
0.152956 0.081590 0.120027
0.168414 0.082002 0.121309
0.186831 0.082063 0.122621
0.206973 0.081682 0.123888
0.229557 0.080583 0.124941
0.254582 0.079347 0.126238
0.281895 0.077806 0.127382
0.311360 0.075624 0.128511
0.343282 0.072877 0.129870
0.377188 0.069581 0.130907
0.413809 0.065675 0.132280
0.452277 0.061112 0.133242
0.494041 0.055787 0.134737
0.537545 0.049973 0.135805
0.583566 0.043473 0.137163
0.631800 0.036423 0.138476
0.682643 0.028519 0.139620
0.735637 0.020386 0.141039
0.790036 0.011826 0.141360
0.846220 0.003098 0.141619
0.083299 0.084642 0.101488
0.082963 0.085298 0.107073
0.085069 0.085649 0.109133
0.087785 0.085969 0.111788
0.091447 0.086046 0.114137
0.096025 0.086061 0.114672
0.101595 0.085924 0.114824
0.108278 0.085924 0.114397
0.116274 0.086183 0.114366
0.126360 0.086992 0.114809
0.138521 0.088258 0.115785
0.151827 0.089540 0.116701
0.166766 0.090425 0.117601
0.183673 0.091173 0.118196
0.202045 0.091737 0.118944
0.222507 0.091798 0.119448
0.245624 0.091630 0.120439
0.271305 0.090883 0.121294
0.299214 0.089265 0.122011
0.329519 0.087221 0.122667
0.361944 0.084504 0.123079
0.396506 0.081346 0.123735
0.433692 0.077378 0.124315
0.473198 0.072877 0.124865
0.514778 0.067643 0.125429
0.559289 0.061814 0.126452
0.606134 0.055467 0.127230
0.655085 0.048371 0.127840
0.706538 0.040726 0.128588
0.760189 0.032578 0.129351
0.816571 0.023865 0.130175
0.874434 0.014694 0.130465
0.933440 0.005509 0.129778
0.077394 0.088975 0.116869
0.078447 0.090013 0.118563
0.079744 0.091142 0.118120
0.085161 0.091752 0.111376
0.092195 0.091997 0.109438
0.100618 0.092683 0.109209
0.110521 0.093874 0.109590
0.122240 0.095506 0.110445
0.134951 0.097261 0.110994
0.148669 0.098604 0.111543
0.163531 0.099779 0.111910
0.179751 0.101259 0.112337
0.197787 0.102403 0.112596
0.216968 0.103273 0.112688
0.238056 0.104021 0.112764
0.261128 0.104204 0.112627
0.286015 0.103655 0.112245
0.314015 0.102495 0.112261
0.344060 0.100633 0.111894
0.377035 0.098177 0.111971
0.412421 0.094881 0.111818
0.449836 0.091142 0.111559
0.489265 0.086946 0.111360
0.531563 0.081956 0.110704
0.576516 0.076478 0.110765
0.623545 0.070146 0.110567
0.673030 0.063142 0.110338
0.725063 0.055833 0.110475
0.779751 0.048020 0.110658
0.836927 0.039429 0.111070
0.895689 0.030442 0.111208
0.955917 0.021057 0.111299
1.000000 0.011994 0.110933
0.071321 0.095781 0.119478
0.073930 0.097322 0.119844
0.078492 0.099413 0.121523
0.084718 0.102281 0.120912
0.095903 0.105150 0.110842
0.109773 0.107103 0.106981
0.123751 0.108782 0.105959
0.138521 0.110231 0.105241
0.154192 0.111986 0.104845
0.171008 0.113588 0.104433
0.189151 0.115114 0.103792
0.208133 0.116289 0.103044
0.228428 0.117403 0.102098
0.250233 0.118151 0.100969
0.273411 0.118273 0.099794
0.298573 0.118273 0.098314
0.325536 0.117556 0.096574
0.354650 0.116487 0.095033
0.387350 0.114168 0.093614
0.422232 0.111467 0.092241
0.460639 0.107759 0.090944
0.501472 0.103548 0.089723
0.544350 0.098924 0.088762
0.588907 0.093538 0.087617
0.635996 0.087633 0.086046
0.685588 0.081559 0.084947
0.738430 0.074464 0.084169
0.793347 0.066941 0.083619
0.850141 0.058762 0.083253
0.912123 0.049287 0.081575
0.969360 0.041215 0.082506
1.000000 0.031998 0.082170
1.000000 0.022446 0.081743
0.071015 0.107912 0.123796
0.077211 0.111376 0.125551
0.084245 0.114595 0.126589
0.092271 0.117937 0.127687
0.101717 0.121477 0.125978
0.116426 0.124575 0.113481
0.135042 0.126879 0.103517
0.153674 0.128573 0.099275
0.172854 0.130068 0.096651
0.192355 0.131395 0.094041
0.213046 0.132601 0.091508
0.234730 0.133623 0.089204
0.257465 0.134218 0.086137
0.281697 0.134752 0.082948
0.307103 0.134676 0.079423
0.334203 0.134539 0.076097
0.363394 0.133913 0.072404
0.394873 0.132494 0.068223
0.428626 0.130526 0.063966
0.466499 0.127596 0.060502
0.506508 0.123995 0.057176
0.550256 0.119585 0.054124
0.595956 0.114641 0.050782
0.644205 0.109087 0.047639
0.694453 0.103319 0.044526
0.746685 0.096864 0.042054
0.801068 0.090089 0.039628
0.857542 0.082643 0.037232
0.916121 0.074617 0.035431
0.975830 0.066239 0.034272
1.000000 0.057435 0.033478
1.000000 0.048295 0.033555
1.000000 0.039017 0.033158
0.075441 0.124880 0.128405
0.083772 0.128527 0.129931
0.092760 0.132372 0.131258
0.102419 0.136019 0.132479
0.113283 0.139681 0.133730
0.124849 0.143450 0.130129
0.142489 0.146700 0.115251
0.164843 0.149035 0.097475
0.187442 0.150439 0.086564
0.210651 0.151675 0.079225
0.233570 0.152560 0.073182
0.257755 0.153521 0.066468
0.283070 0.154025 0.059480
0.309636 0.154604 0.051820
0.337881 0.154879 0.043717
0.367346 0.154620 0.035966
0.398627 0.153826 0.027695
0.432181 0.152773 0.020600
0.468482 0.151080 0.013504
0.507698 0.148653 0.006867
0.550744 0.144823 0.002350
0.596017 0.140414 0.000000
0.644877 0.135073 0.000000
0.695430 0.129366 0.000000
0.747631 0.123507 0.000000
0.801892 0.116899 0.000000
0.857359 0.109819 0.000000
0.915312 0.102083 0.000000
0.973129 0.094453 0.000000
1.000000 0.086152 0.000000
1.000000 0.077272 0.000000
1.000000 0.068299 0.000000
1.000000 0.059037 0.000000
0.082139 0.144564 0.133669
0.091524 0.148409 0.134920
0.101549 0.152392 0.135988
0.112657 0.156100 0.137041
0.123934 0.159579 0.137774
0.136477 0.163134 0.138231
0.150256 0.166766 0.132113
0.170153 0.170199 0.113481
0.195575 0.172595 0.085969
0.222782 0.174380 0.063676
0.250065 0.175647 0.044938
0.277531 0.176852 0.030747
0.305577 0.177523 0.018769
0.334585 0.178027 0.007370
0.364874 0.178027 0.000000
0.396475 0.177646 0.000000
0.430228 0.176806 0.000000
0.465614 0.175692 0.000000
0.503273 0.173709 0.000000
0.543389 0.171176 0.000000
0.587091 0.167666 0.000000
0.634531 0.163134 0.000000
0.684886 0.157900 0.000000
0.738018 0.151904 0.000000
0.792645 0.145632 0.000000
0.848203 0.138872 0.000000
0.904799 0.131838 0.000000
0.961776 0.124681 0.000000
1.000000 0.117037 0.000000
1.000000 0.108980 0.000000
1.000000 0.100587 0.000000
1.000000 0.092103 0.000000
1.000000 0.083207 0.000000
0.087602 0.165881 0.138048
0.098360 0.169833 0.139162
0.108965 0.173678 0.139696
0.121141 0.177386 0.140459
0.133486 0.180819 0.140719
0.146868 0.184360 0.141100
0.160906 0.187823 0.140566
0.177035 0.191592 0.132021
0.199451 0.195010 0.107683
0.228641 0.198245 0.068147
0.260258 0.200931 0.026490
0.292165 0.202731 0.000000
0.323262 0.202976 0.000000
0.354894 0.203037 0.000000
0.387366 0.202914 0.000000
0.420951 0.202594 0.000000
0.456291 0.202136 0.000000
0.493584 0.200992 0.000000
0.532418 0.199374 0.000000
0.574014 0.196902 0.000000
0.617472 0.193942 0.000000
0.665461 0.189822 0.000000
0.716823 0.184894 0.000000
0.770901 0.179034 0.000000
0.827054 0.172244 0.000000
0.884611 0.165118 0.000000
0.942763 0.157900 0.000000
1.000000 0.150713 0.000000
1.000000 0.143175 0.000000
1.000000 0.135424 0.000000
1.000000 0.127474 0.000000
1.000000 0.119341 0.000000
1.000000 0.110842 0.000000
0.091814 0.188525 0.141573
0.103380 0.192493 0.142092
0.115190 0.196216 0.142397
0.128237 0.200061 0.142779
0.141863 0.203708 0.142916
0.156451 0.207263 0.143038
0.171420 0.210529 0.142916
0.187442 0.214176 0.141176
0.205890 0.218006 0.130098
0.231312 0.222324 0.098848
0.264393 0.226841 0.041627
0.299733 0.229801 0.000000
0.334554 0.230472 0.000000
0.369558 0.231052 0.000000
0.405127 0.231144 0.000000
0.441016 0.231006 0.000000
0.478202 0.230289 0.000000
0.516320 0.229267 0.000000
0.556420 0.227710 0.000000
0.597940 0.225788 0.000000
0.642191 0.222995 0.000000
0.689113 0.219745 0.000000
0.740337 0.215290 0.000000
0.794491 0.209613 0.000000
0.851545 0.202976 0.000000
0.910765 0.195621 0.000000
0.969619 0.188373 0.000000
1.000000 0.180941 0.000000
1.000000 0.173266 0.000000
1.000000 0.165545 0.000000
1.000000 0.157671 0.000000
1.000000 0.149798 0.000000
1.000000 0.141878 0.000000
0.094896 0.212512 0.144121
0.107408 0.216678 0.144335
0.120592 0.220417 0.144579
0.134569 0.224414 0.144686
0.149340 0.228016 0.144625
0.164721 0.231754 0.144305
0.181613 0.235492 0.144518
0.198825 0.239063 0.144198
0.216724 0.242878 0.141009
0.237476 0.246998 0.127504
0.265629 0.251652 0.088319
0.301991 0.257679 0.012650
0.339635 0.259937 0.000000
0.378225 0.261067 0.000000
0.416785 0.261723 0.000000
0.455467 0.261509 0.000000
0.494118 0.261021 0.000000
0.533867 0.259998 0.000000
0.574334 0.258732 0.000000
0.616526 0.257053 0.000000
0.660746 0.254841 0.000000
0.707347 0.251774 0.000000
0.756527 0.248264 0.000000
0.810330 0.243320 0.000000
0.866758 0.237247 0.000000
0.926482 0.230182 0.000000
0.986908 0.222858 0.000000
1.000000 0.215152 0.000000
1.000000 0.207416 0.000000
1.000000 0.199619 0.000000
1.000000 0.191821 0.000000
1.000000 0.184024 0.000000
1.000000 0.176257 0.000000
0.096773 0.238254 0.145998
0.110826 0.242542 0.146441
0.125216 0.246647 0.146258
0.140520 0.250568 0.146319
0.156420 0.254383 0.146212
0.173388 0.258366 0.146105
0.191196 0.262348 0.145968
0.209583 0.266117 0.146014
0.228809 0.269657 0.145708
0.248508 0.273594 0.140520
0.271534 0.277806 0.123796
0.302068 0.283192 0.074784
0.340688 0.289494 0.000000
0.380774 0.292180 0.000000
0.421622 0.293492 0.000000
0.462959 0.293751 0.000000
0.504128 0.293584 0.000000
0.545449 0.292958 0.000000
0.587503 0.291890 0.000000
0.630045 0.290578 0.000000
0.673915 0.288762 0.000000
0.719615 0.286381 0.000000
0.768185 0.283116 0.000000
0.819028 0.279454 0.000000
0.875303 0.274113 0.000000
0.933394 0.267994 0.000000
0.994430 0.260716 0.000000
1.000000 0.253147 0.000000
1.000000 0.245197 0.000000
1.000000 0.237507 0.000000
1.000000 0.229709 0.000000
1.000000 0.222065 0.000000
1.000000 0.214557 0.000000
0.098924 0.266102 0.148104
0.114000 0.270207 0.148196
0.129549 0.274372 0.147951
0.146334 0.278477 0.148058
0.163531 0.282795 0.147982
0.181796 0.286839 0.148180
0.200519 0.290791 0.147982
0.220005 0.294423 0.148104
0.240009 0.298054 0.147814
0.260822 0.301549 0.147341
0.282017 0.305623 0.140505
0.307362 0.310063 0.119188
0.340505 0.316564 0.059266
0.379995 0.322606 0.000000
0.421607 0.325460 0.000000
0.464637 0.326909 0.000000
0.508095 0.327398 0.000000
0.551629 0.327382 0.000000
0.594919 0.326848 0.000000
0.639109 0.325704 0.000000
0.683238 0.324300 0.000000
0.728618 0.322423 0.000000
0.775540 0.320012 0.000000
0.825422 0.316838 0.000000
0.877821 0.312917 0.000000
0.935042 0.307362 0.000000
0.993683 0.301198 0.000000
1.000000 0.293828 0.000000
1.000000 0.286320 0.000000
1.000000 0.278920 0.000000
1.000000 0.271534 0.000000
1.000000 0.264118 0.000000
1.000000 0.257038 0.000000
0.100679 0.295369 0.149981
0.117067 0.299702 0.149981
0.133989 0.303929 0.149996
0.152163 0.308171 0.150256
0.170596 0.312535 0.150408
0.189975 0.316442 0.150683
0.209430 0.320333 0.150530
0.229984 0.323934 0.150439
0.250904 0.327535 0.150500
0.272450 0.331060 0.150652
0.294621 0.334737 0.149691
0.317220 0.338933 0.141924
0.344961 0.343771 0.115389
0.380026 0.350927 0.046662
0.419684 0.356558 0.000000
0.462516 0.359762 0.000000
0.507240 0.361746 0.000000
0.552316 0.362524 0.000000
0.597467 0.362615 0.000000
0.642451 0.362188 0.000000
0.687816 0.361257 0.000000
0.733471 0.359930 0.000000
0.780667 0.358053 0.000000
0.828092 0.355810 0.000000
0.878965 0.352529 0.000000
0.931792 0.348806 0.000000
0.989654 0.343618 0.000000
1.000000 0.337728 0.000000
1.000000 0.330770 0.000000
1.000000 0.323980 0.000000
1.000000 0.316991 0.000000
1.000000 0.310140 0.000000
1.000000 0.303059 0.000000
0.102632 0.326085 0.152224
0.120256 0.330358 0.152316
0.138674 0.334493 0.152422
0.157534 0.338766 0.152850
0.177478 0.342962 0.153185
0.197574 0.346990 0.153490
0.218311 0.350805 0.153689
0.239811 0.354482 0.153887
0.261616 0.358083 0.154223
0.284047 0.361715 0.154681
0.306889 0.365255 0.155108
0.330205 0.368948 0.153506
0.354116 0.373297 0.144381
0.383413 0.378424 0.114305
0.419867 0.385992 0.040070
0.459770 0.391546 0.000000
0.503594 0.395087 0.000000
0.549126 0.397467 0.000000
0.595239 0.398840 0.000000
0.641505 0.399268 0.000000
0.687846 0.399191 0.000000
0.734493 0.398566 0.000000
0.781308 0.397681 0.000000
0.829572 0.396201 0.000000
0.878126 0.394369 0.000000
0.929580 0.391409 0.000000
0.982589 0.388495 0.000000
1.000000 0.383551 0.000000
1.000000 0.378042 0.000000
1.000000 0.371405 0.000000
1.000000 0.364706 0.000000
1.000000 0.357961 0.000000
1.000000 0.351644 0.000000
0.105104 0.357717 0.155016
0.124056 0.361837 0.155306
0.143709 0.365988 0.155840
0.163851 0.370245 0.156268
0.184680 0.374411 0.157046
0.205814 0.378378 0.157382
0.227405 0.382177 0.157900
0.249592 0.385977 0.158541
0.272389 0.389700 0.159274
0.295460 0.393317 0.160082
0.318929 0.396902 0.160845
0.343053 0.400366 0.161929
0.367315 0.404242 0.159564
0.392798 0.408713 0.149538
0.422889 0.414069 0.117769
0.460273 0.421881 0.041382
0.500496 0.427314 0.000000
0.544182 0.431434 0.000000
0.590219 0.434531 0.000000
0.637369 0.436622 0.000000
0.684688 0.437797 0.000000
0.731991 0.438285 0.000000
0.779568 0.438331 0.000000
0.827543 0.438010 0.000000
0.876539 0.437140 0.000000
0.926162 0.435920 0.000000
0.977996 0.433677 0.000000
1.000000 0.430900 0.000000
1.000000 0.425986 0.000000
1.000000 0.420737 0.000000
1.000000 0.414328 0.000000
1.000000 0.407950 0.000000
1.000000 0.401266 0.000000
0.108782 0.389990 0.158801
0.128679 0.394232 0.159350
0.149401 0.398199 0.159945
0.170520 0.402319 0.160586
0.192370 0.406424 0.161669
0.214359 0.410513 0.162478
0.237049 0.414405 0.163561
0.260014 0.418265 0.164553
0.283360 0.422004 0.165591
0.307317 0.425635 0.166949
0.331456 0.429297 0.168170
0.356252 0.432837 0.169833
0.381231 0.436515 0.171267
0.406088 0.440742 0.168185
0.432425 0.445365 0.158236
0.463554 0.450996 0.126879
0.501350 0.459052 0.054292
0.541833 0.465293 0.000000
0.585779 0.470161 0.000000
0.632410 0.474098 0.000000
0.680125 0.477012 0.000000
0.727504 0.478950 0.000000
0.775448 0.480034 0.000000
0.823453 0.480842 0.000000
0.872221 0.480919 0.000000
0.921263 0.480446 0.000000
0.971191 0.479316 0.000000
1.000000 0.477440 0.000000
1.000000 0.474449 0.000000
1.000000 0.469688 0.000000
1.000000 0.464332 0.000000
1.000000 0.457801 0.000000
1.000000 0.451133 0.000000
0.113161 0.423056 0.163409
0.134554 0.427070 0.164370
0.156039 0.431113 0.165255
0.178042 0.435080 0.166278
0.200671 0.439033 0.167514
0.223774 0.443122 0.168688
0.247379 0.446983 0.170245
0.270924 0.450935 0.171633
0.295125 0.454994 0.173404
0.319768 0.458671 0.175311
0.344518 0.462455 0.177081
0.369833 0.466255 0.179492
0.395560 0.470329 0.181949
0.421347 0.474403 0.183886
0.447379 0.478843 0.181064
0.474556 0.484016 0.170947
0.506737 0.489952 0.143435
0.544350 0.498299 0.077958
0.585550 0.505608 0.012070
0.629129 0.510918 0.000000
0.675105 0.515389 0.000000
0.722469 0.518868 0.000000
0.770077 0.521477 0.000000
0.817868 0.523095 0.000000
0.865690 0.523949 0.000000
0.913619 0.524285 0.000000
0.962142 0.523873 0.000000
1.000000 0.522820 0.000000
1.000000 0.520958 0.000000
1.000000 0.517662 0.000000
1.000000 0.512764 0.000000
1.000000 0.507042 0.000000
1.000000 0.500145 0.000000
0.118959 0.456565 0.169055
0.141527 0.460472 0.170474
0.164004 0.464515 0.171740
0.187182 0.468406 0.173419
0.210559 0.472496 0.175006
0.234180 0.476448 0.176623
0.258457 0.480232 0.178683
0.282811 0.484169 0.180575
0.308003 0.488457 0.183215
0.333120 0.492668 0.185977
0.358801 0.496941 0.188724
0.384909 0.501060 0.191623
0.411246 0.505333 0.194873
0.437476 0.509880 0.198444
0.464485 0.514443 0.201190
0.491356 0.519738 0.198444
0.519554 0.525444 0.188998
0.551537 0.531121 0.166629
0.588403 0.538705 0.113130
0.629709 0.547311 0.037583
0.672190 0.552819 0.000000
0.717494 0.557656 0.000000
0.763958 0.561303 0.000000
0.810483 0.563989 0.000000
0.857145 0.565728 0.000000
0.903731 0.566369 0.000000
0.950668 0.566461 0.000000
0.997925 0.565789 0.000000
1.000000 0.564538 0.000000
1.000000 0.562036 0.000000
1.000000 0.558221 0.000000
1.000000 0.552987 0.000000
1.000000 0.547066 0.000000
0.126558 0.490455 0.176440
0.149844 0.494423 0.178241
0.173297 0.498436 0.180011
0.197513 0.502434 0.182315
0.221683 0.506493 0.184421
0.246433 0.510643 0.186938
0.271641 0.514855 0.189609
0.296895 0.519142 0.192340
0.322621 0.523583 0.195636
0.348592 0.528054 0.199145
0.374945 0.532647 0.202731
0.401282 0.537026 0.206302
0.428214 0.541604 0.210437
0.455268 0.546548 0.214893
0.482673 0.551339 0.219318
0.509636 0.556344 0.221973
0.536690 0.561822 0.219242
0.565164 0.567468 0.210147
0.596674 0.572854 0.192065
0.631922 0.579477 0.152224
0.673030 0.588632 0.071366
0.714183 0.594156 0.023148
0.757183 0.598688 0.000000
0.801923 0.602090 0.000000
0.846937 0.604578 0.000000
0.891798 0.606104 0.000000
0.936446 0.606714 0.000000
0.981369 0.606317 0.000000
1.000000 0.605325 0.000000
1.000000 0.603387 0.000000
1.000000 0.600519 0.000000
1.000000 0.596185 0.000000
1.000000 0.590738 0.000000
0.135729 0.524514 0.185061
0.160159 0.528679 0.187549
0.185061 0.533028 0.190234
0.209979 0.537209 0.193103
0.235050 0.541573 0.196048
0.260700 0.545937 0.199359
0.286625 0.550515 0.203037
0.312947 0.555367 0.206729
0.339406 0.559976 0.210758
0.366003 0.564645 0.214984
0.392630 0.569436 0.219120
0.419684 0.574182 0.223636
0.446525 0.578759 0.228199
0.473594 0.583581 0.232853
0.500740 0.588220 0.237644
0.527947 0.592782 0.242603
0.554345 0.597848 0.244831
0.581277 0.603128 0.241947
0.609949 0.608789 0.233112
0.640757 0.613977 0.216785
0.673884 0.619287 0.190402
0.711269 0.626032 0.132692
0.752148 0.633021 0.062470
0.792767 0.636881 0.020737
0.835035 0.639887 0.000000
0.877165 0.641993 0.000000
0.919799 0.642954 0.000000
0.961715 0.643168 0.000000
1.000000 0.642374 0.000000
1.000000 0.641215 0.000000
1.000000 0.639078 0.000000
1.000000 0.636194 0.000000
1.000000 0.631998 0.000000
0.147921 0.559930 0.196323
0.173342 0.564324 0.199527
0.199145 0.568795 0.203082
0.225238 0.573404 0.206775
0.251164 0.578180 0.210712
0.277607 0.582818 0.214862
0.304372 0.587579 0.219074
0.330831 0.592203 0.223255
0.357473 0.597070 0.227985
0.384558 0.601831 0.232578
0.411551 0.606546 0.237278
0.438514 0.611383 0.242359
0.465614 0.615991 0.247272
0.492638 0.620554 0.252293
0.519234 0.624750 0.257023
0.545769 0.629068 0.262333
0.572152 0.633310 0.267079
0.598352 0.637964 0.268925
0.624216 0.642817 0.266102
0.651347 0.647532 0.257588
0.680690 0.652003 0.242206
0.711666 0.656214 0.222477
0.745342 0.660761 0.190066
0.783780 0.666804 0.131136
0.823224 0.671885 0.070512
0.862394 0.674281 0.035309
0.901442 0.675959 0.006546
0.941115 0.676707 0.000000
0.980270 0.676844 0.000000
1.000000 0.676234 0.000000
1.000000 0.675074 0.000000
1.000000 0.672938 0.000000
1.000000 0.670359 0.000000
0.162676 0.595987 0.209720
0.189090 0.600580 0.213779
0.215625 0.605234 0.217853
0.242283 0.610178 0.222583
0.269169 0.615106 0.227161
0.296269 0.619944 0.231830
0.323171 0.624735 0.236744
0.349920 0.629511 0.241566
0.376822 0.633936 0.246189
0.403647 0.638605 0.251209
0.430671 0.643275 0.256352
0.457679 0.647608 0.261585
0.484184 0.651896 0.266529
0.510872 0.655955 0.271824
0.537194 0.659968 0.277089
0.563256 0.663844 0.282246
0.589044 0.667597 0.287663
0.614420 0.671153 0.292287
0.639094 0.675074 0.293492
0.663706 0.679210 0.290593
0.689632 0.683207 0.282429
0.717464 0.686931 0.268818
0.746426 0.690654 0.251698
0.777218 0.693980 0.230472
0.810361 0.697078 0.204196
0.845838 0.700938 0.162478
0.883970 0.705348 0.106249
0.920882 0.707790 0.073091
0.957427 0.708644 0.053452
0.993271 0.708797 0.041840
1.000000 0.708263 0.035599
1.000000 0.707378 0.035050
1.000000 0.705699 0.038865
0.180423 0.633173 0.225681
0.207370 0.637842 0.230365
0.234134 0.642420 0.234943
0.261341 0.647196 0.239857
0.288396 0.651926 0.244755
0.315419 0.656535 0.249897
0.342504 0.661097 0.254795
0.369436 0.665553 0.260060
0.396429 0.669947 0.265278
0.423011 0.674022 0.270314
0.449653 0.678080 0.275563
0.476188 0.681971 0.280980
0.502449 0.685863 0.286168
0.528283 0.689357 0.291325
0.554055 0.692744 0.296727
0.579477 0.696025 0.302007
0.604288 0.699184 0.307347
0.628656 0.702159 0.312688
0.652689 0.705074 0.317266
0.676188 0.708400 0.318288
0.699489 0.712139 0.316045
0.724483 0.715633 0.308751
0.750790 0.719326 0.297581
0.777920 0.722622 0.283360
0.806424 0.725704 0.266194
0.836332 0.728344 0.248035
0.867414 0.730602 0.230442
0.899626 0.732403 0.212940
0.932723 0.734157 0.192447
0.966094 0.735286 0.174868
0.998337 0.735912 0.164218
1.000000 0.736080 0.160143
1.000000 0.735317 0.165637
0.199756 0.670237 0.242969
0.227161 0.674815 0.248020
0.254475 0.679316 0.253269
0.281514 0.683757 0.258198
0.308736 0.687953 0.263432
0.335729 0.692119 0.268605
0.362509 0.696193 0.273716
0.389288 0.700206 0.279225
0.415991 0.704067 0.284398
0.442298 0.707607 0.289799
0.468177 0.711009 0.294850
0.494209 0.714168 0.300084
0.519997 0.717205 0.305409
0.545052 0.720424 0.311040
0.570108 0.723201 0.316411
0.594690 0.725917 0.321798
0.619028 0.728542 0.327443
0.642802 0.731151 0.333089
0.666270 0.733700 0.338979
0.689219 0.736538 0.343709
0.711498 0.739651 0.345357
0.733288 0.743114 0.343771
0.756878 0.746319 0.338125
0.781353 0.749813 0.329366
0.806348 0.752926 0.318318
0.832425 0.755962 0.305135
0.859556 0.758511 0.291279
0.887221 0.760754 0.278141
0.915923 0.762554 0.266606
0.944701 0.763851 0.257923
0.973510 0.764782 0.252079
1.000000 0.765499 0.249943
1.000000 0.765789 0.250767
0.220508 0.706432 0.261051
0.248035 0.710704 0.266331
0.275410 0.714672 0.271824
0.302663 0.718547 0.276967
0.329351 0.722438 0.282338
0.356329 0.725933 0.287617
0.382742 0.729213 0.292699
0.409125 0.732631 0.298100
0.435233 0.735576 0.303380
0.460975 0.738491 0.308659
0.486534 0.741192 0.314015
0.511986 0.743969 0.319387
0.537148 0.746517 0.324910
0.561486 0.749035 0.330541
0.585946 0.751385 0.336339
0.609873 0.753780 0.342092
0.633570 0.756100 0.348226
0.656886 0.758556 0.354604
0.679728 0.761105 0.361166
0.701961 0.763439 0.367742
0.723232 0.766125 0.372503
0.744137 0.769085 0.374792
0.764858 0.772320 0.374365
0.786969 0.775616 0.370809
0.809308 0.778729 0.364248
0.831754 0.781796 0.356451
0.855146 0.784665 0.346746
0.879240 0.787289 0.337118
0.903838 0.789731 0.328008
0.928771 0.791836 0.320836
0.954009 0.793469 0.315877
0.978561 0.794766 0.313237
1.000000 0.795697 0.313329
0.241932 0.740490 0.279072
0.269154 0.744167 0.284337
0.296559 0.747829 0.289860
0.323522 0.750957 0.295277
0.350210 0.753964 0.300679
0.376867 0.756954 0.306004
0.402823 0.759747 0.311467
0.428824 0.762219 0.316808
0.454398 0.764584 0.322179
0.479652 0.766918 0.327642
0.504997 0.769131 0.333318
0.529961 0.771405 0.339040
0.554314 0.773754 0.345129
0.578622 0.775982 0.351278
0.602502 0.778073 0.357549
0.625834 0.780194 0.363684
0.648875 0.782315 0.370382
0.671321 0.784482 0.377188
0.693324 0.786664 0.384161
0.714733 0.789090 0.391302
0.735546 0.791287 0.398550
0.755566 0.793851 0.403952
0.775036 0.797009 0.407095
0.794278 0.800031 0.408286
0.814023 0.803082 0.406088
0.834516 0.805982 0.402029
0.854231 0.809125 0.397040
0.874952 0.811963 0.391043
0.895796 0.815061 0.385306
0.917235 0.817700 0.380346
0.938399 0.819883 0.376379
0.959350 0.821866 0.374380
0.980636 0.823392 0.374578
0.263920 0.772671 0.296727
0.291035 0.775464 0.302220
0.318090 0.778103 0.307713
0.344594 0.780636 0.313024
0.371176 0.782986 0.318425
0.397147 0.785183 0.324010
0.423239 0.787305 0.329625
0.448829 0.789578 0.335561
0.474281 0.791562 0.341268
0.499641 0.793423 0.347311
0.524208 0.795483 0.353521
0.548684 0.797360 0.359701
0.572869 0.799146 0.366171
0.596872 0.801160 0.372930
0.620035 0.803067 0.379629
0.642649 0.805081 0.386648
0.664973 0.806928 0.393744
0.686809 0.808759 0.401114
0.707774 0.810773 0.408438
0.728313 0.812940 0.416342
0.748394 0.815106 0.424460
0.767742 0.817380 0.432135
0.786130 0.820081 0.438346
0.803845 0.822858 0.442329
0.821027 0.825879 0.444678
0.839017 0.828794 0.444709
0.856565 0.831952 0.443015
