CUBE/5122 City.cube
# (null)
# 3 columns rgb, 35937 rows
# created by dwsgrading 2017-03-24 09:18:49 +0000
LUT_3D_SIZE 5
0.087984 0.081804 0.079820
0.104616 0.082673 0.117601
0.206973 0.081682 0.123888
0.452277 0.061112 0.133242
0.846220 0.003098 0.141619
0.091814 0.188525 0.141573
0.205890 0.218006 0.130098
0.478202 0.230289 0.000000
0.851545 0.202976 0.000000
1.000000 0.141878 0.000000
0.113161 0.423056 0.163409
0.295125 0.454994 0.173404
0.506737 0.489952 0.143435
0.865690 0.523949 0.000000
1.000000 0.500145 0.000000
0.220508 0.706432 0.261051
0.435233 0.735576 0.303380
0.633570 0.756100 0.348226
0.809308 0.778729 0.364248
1.000000 0.795697 0.313329
0.438849 0.909331 0.418784
0.639506 0.909621 0.490776
0.788693 0.911971 0.566934
0.871839 0.908476 0.633310
0.907805 0.908278 0.692485
0.083040 0.081575 0.124987
0.096849 0.086564 0.149325
0.172915 0.103914 0.170092
0.380865 0.094987 0.203098
0.744656 0.045548 0.237659
0.078737 0.204837 0.218997
0.215564 0.227588 0.236393
0.430533 0.237568 0.244724
0.722805 0.230915 0.249577
1.000000 0.193606 0.258808
0.119875 0.436805 0.293263
0.308171 0.467628 0.313558
0.519066 0.503166 0.322637
0.865217 0.514427 0.239155
1.000000 0.503685 0.274586
0.241856 0.720317 0.400793
0.455528 0.745998 0.435142
0.649836 0.765713 0.469581
0.817426 0.788113 0.487587
1.000000 0.803754 0.448997
0.476722 0.911208 0.521492
0.671351 0.911971 0.580102
0.805386 0.911574 0.637842
0.876738 0.907500 0.689082
0.904738 0.907195 0.759258
0.077867 0.080247 0.184817
0.122713 0.083482 0.212604
0.197253 0.110231 0.219638
0.358953 0.116686 0.254337
0.667826 0.085069 0.301656
0.024674 0.227085 0.366842
0.221317 0.233433 0.406149
0.379767 0.268498 0.353491
0.558801 0.295537 0.381552
0.918318 0.273640 0.414221
0.068009 0.467521 0.432975
0.291203 0.491203 0.453315
0.534569 0.519005 0.477012
0.803738 0.540887 0.497932
1.000000 0.552285 0.518334
0.260975 0.734829 0.530037
0.475670 0.756054 0.556527
0.666957 0.775036 0.583352
0.825605 0.797574 0.602060
1.000000 0.812222 0.585595
0.515328 0.912978 0.618433
0.701473 0.913298 0.662516
0.819699 0.910140 0.700877
0.880858 0.906401 0.744152
0.900511 0.905348 0.837385
0.076310 0.076890 0.260243
0.150332 0.076738 0.347677
0.272282 0.091020 0.377539
0.404044 0.114321 0.352911
0.648692 0.106554 0.385092
0.010086 0.228412 0.616678
0.224598 0.231373 0.670985
0.460029 0.248493 0.590768
0.585000 0.305531 0.492348
0.828122 0.323095 0.512810
0.000000 0.509224 0.709072
0.207965 0.519432 0.750683
0.540459 0.525475 0.750530
0.736797 0.580758 0.632959
0.897475 0.618540 0.656794
0.197940 0.769070 0.687221
0.440879 0.779675 0.697795
0.659373 0.790280 0.705867
0.833158 0.806806 0.717037
0.959060 0.828229 0.733516
0.543908 0.916609 0.712993
0.726787 0.913909 0.738140
0.831632 0.907851 0.761654
0.883024 0.904112 0.809232
0.897459 0.904753 0.899977
0.077455 0.069291 0.380667
0.176669 0.065187 0.552895
0.342763 0.057145 0.700603
0.538827 0.067277 0.639673
0.728527 0.089128 0.577020
0.000000 0.170916 1.000000
0.175753 0.158907 1.000000
0.452338 0.167651 1.000000
0.692882 0.233585 1.000000
0.866712 0.325154 0.710094
0.000000 0.452766 1.000000
0.155642 0.464790 1.000000
0.509422 0.487251 1.000000
0.798352 0.543252 1.000000
0.908934 0.629984 0.783185
0.048264 0.789822 1.000000
0.329473 0.792874 1.000000
0.593744 0.793729 1.000000
0.828031 0.801999 0.997742
0.920241 0.847318 0.817578
0.529274 0.928557 0.845777
0.717494 0.917769 0.839811
0.827436 0.906889 0.843763
0.882368 0.902571 0.873655
0.897047 0.906813 0.930907
