CUBE/5122 City.cube
# (null)
# 3 columns rgb, 35937 rows
# created by dwsgrading 2017-03-24 09:18:49 +0000
LUT_3D_SIZE 9
0.087984 0.081804 0.079820
0.089418 0.083162 0.104784
0.104616 0.082673 0.117601
0.139452 0.081254 0.118929
0.206973 0.081682 0.123888
0.311360 0.075624 0.128511
0.452277 0.061112 0.133242
0.631800 0.036423 0.138476
0.846220 0.003098 0.141619
0.071015 0.107912 0.123796
0.101717 0.121477 0.125978
0.172854 0.130068 0.096651
0.257465 0.134218 0.086137
0.363394 0.133913 0.072404
0.506508 0.123995 0.057176
0.694453 0.103319 0.044526
0.916121 0.074617 0.035431
1.000000 0.039017 0.033158
0.091814 0.188525 0.141573
0.141863 0.203708 0.142916
0.205890 0.218006 0.130098
0.334554 0.230472 0.000000
0.478202 0.230289 0.000000
0.642191 0.222995 0.000000
0.851545 0.202976 0.000000
1.000000 0.173266 0.000000
1.000000 0.141878 0.000000
0.100679 0.295369 0.149981
0.170596 0.312535 0.150408
0.250904 0.327535 0.150500
0.344961 0.343771 0.115389
0.507240 0.361746 0.000000
0.687816 0.361257 0.000000
0.878965 0.352529 0.000000
1.000000 0.330770 0.000000
1.000000 0.303059 0.000000
0.113161 0.423056 0.163409
0.200671 0.439033 0.167514
0.295125 0.454994 0.173404
0.395560 0.470329 0.181949
0.506737 0.489952 0.143435
0.675105 0.515389 0.000000
0.865690 0.523949 0.000000
1.000000 0.520958 0.000000
1.000000 0.500145 0.000000
0.147921 0.559930 0.196323
0.251164 0.578180 0.210712
0.357473 0.597070 0.227985
0.465614 0.615991 0.247272
0.572152 0.633310 0.267079
0.680690 0.652003 0.242206
0.823224 0.671885 0.070512
0.980270 0.676844 0.000000
1.000000 0.670359 0.000000
0.220508 0.706432 0.261051
0.329351 0.722438 0.282338
0.435233 0.735576 0.303380
0.537148 0.746517 0.324910
0.633570 0.756100 0.348226
0.723232 0.766125 0.372503
0.809308 0.778729 0.364248
0.903838 0.789731 0.328008
1.000000 0.795697 0.313329
0.310628 0.828061 0.331685
0.417273 0.834134 0.356420
0.519387 0.839307 0.383459
0.614786 0.844648 0.413199
0.701213 0.850568 0.445441
0.777752 0.857877 0.481071
0.841337 0.866712 0.516091
0.893034 0.876371 0.531060
0.936141 0.882673 0.533150
0.438849 0.909331 0.418784
0.544060 0.908995 0.453452
0.639506 0.909621 0.490776
0.722408 0.911009 0.529671
0.788693 0.911971 0.566934
0.837156 0.910384 0.600366
0.871839 0.908476 0.633310
0.893965 0.907607 0.664271
0.907805 0.908278 0.692485
0.086198 0.082124 0.094987
0.085908 0.083818 0.124819
0.093278 0.086229 0.136187
0.122683 0.090227 0.142687
0.184588 0.093599 0.151522
0.282094 0.090288 0.161822
0.415351 0.077974 0.172061
0.587396 0.055314 0.183581
0.796826 0.023041 0.195911
0.069154 0.113787 0.144884
0.106462 0.126040 0.153231
0.165515 0.135210 0.160754
0.239445 0.141466 0.165515
0.332525 0.143847 0.168429
0.459709 0.137911 0.169436
0.630823 0.121553 0.170016
0.837186 0.097154 0.172183
1.000000 0.064836 0.179675
0.093523 0.194415 0.177020
0.145617 0.208972 0.183825
0.210468 0.222950 0.183368
0.337575 0.224918 0.140642
0.470558 0.224186 0.133211
0.618799 0.219364 0.128237
0.802731 0.205432 0.128405
1.000000 0.182956 0.133852
1.000000 0.158068 0.140902
0.102373 0.302312 0.203052
0.174075 0.318303 0.208133
0.255955 0.333532 0.213413
0.348837 0.348135 0.200610
0.514748 0.355306 0.064378
0.686015 0.354406 0.007294
0.864317 0.347936 0.001511
1.000000 0.332052 0.015488
1.000000 0.310246 0.058503
0.116518 0.429877 0.230060
0.205875 0.445426 0.237156
0.300893 0.460822 0.245518
0.402380 0.477119 0.256260
0.512505 0.496056 0.241489
0.684092 0.513512 0.080354
0.868833 0.519097 0.006287
1.000000 0.516228 0.011414
1.000000 0.499580 0.042985
0.154971 0.567025 0.269627
0.259815 0.585214 0.285252
0.367086 0.604913 0.303090
0.474662 0.623545 0.321508
0.580713 0.640604 0.340108
0.686381 0.657801 0.324773
0.825528 0.668544 0.237201
0.977966 0.669734 0.181796
1.000000 0.663905 0.203494
0.230869 0.713191 0.333242
0.339956 0.728542 0.352728
0.445335 0.740978 0.371527
0.545800 0.751232 0.389990
0.641657 0.761013 0.410697
0.730114 0.770733 0.433234
0.813489 0.783429 0.428000
0.907912 0.793820 0.390005
1.000000 0.799756 0.382544
0.324086 0.831708 0.395163
0.430533 0.837263 0.416663
0.532158 0.842512 0.440787
0.626383 0.847837 0.467170
0.711696 0.853971 0.496178
0.785977 0.861570 0.528267
0.846830 0.870329 0.560815
0.894820 0.879271 0.572992
0.934905 0.884077 0.569604
0.457496 0.910231 0.471077
0.562020 0.910109 0.502724
0.655314 0.910887 0.536248
0.735317 0.911955 0.571130
0.797726 0.912062 0.603449
0.842588 0.909972 0.632654
0.874174 0.908003 0.661738
0.894820 0.907362 0.691905
0.906554 0.907881 0.723644
0.083040 0.081575 0.124987
0.088396 0.082216 0.151247
0.096849 0.086564 0.149325
0.122805 0.096254 0.156161
0.172915 0.103914 0.170092
0.258808 0.104097 0.187030
0.380865 0.094987 0.203098
0.542306 0.075608 0.219257
0.744656 0.045548 0.237659
0.058091 0.120867 0.183215
0.110048 0.129549 0.199374
0.156115 0.144503 0.191516
0.203403 0.158251 0.204059
0.279530 0.165042 0.218448
0.394873 0.162585 0.229175
0.555978 0.149248 0.237461
0.751766 0.128420 0.243763
0.974533 0.100175 0.250935
0.078737 0.204837 0.218997
0.140078 0.216968 0.228321
0.215564 0.227588 0.236393
0.317235 0.233555 0.241810
0.430533 0.237568 0.244724
0.560204 0.238605 0.247181
0.722805 0.230915 0.249577
0.922393 0.214206 0.253681
1.000000 0.193606 0.258808
0.102831 0.309728 0.255451
0.178164 0.324819 0.264622
0.261662 0.339666 0.273640
0.353933 0.353765 0.273869
0.519142 0.352483 0.223865
0.673808 0.351171 0.223835
0.833722 0.350286 0.229908
1.000000 0.343343 0.243748
1.000000 0.331151 0.262715
0.119875 0.436805 0.293263
0.211276 0.452384 0.302953
0.308171 0.467628 0.313558
0.410101 0.484306 0.325856
0.519066 0.503166 0.322637
0.695293 0.512139 0.242969
0.865217 0.514427 0.239155
1.000000 0.514260 0.252491
1.000000 0.503685 0.274586
0.162509 0.574838 0.338628
0.268879 0.593652 0.355032
0.376715 0.612573 0.372885
0.483940 0.631159 0.390616
0.588602 0.647852 0.407477
0.691814 0.663691 0.399756
0.836103 0.670909 0.321065
0.980575 0.669825 0.305531
1.000000 0.667750 0.326101
0.241856 0.720317 0.400793
0.350729 0.734447 0.418387
0.455528 0.745998 0.435142
0.555642 0.756085 0.451820
0.649836 0.765713 0.469581
0.736858 0.775784 0.489372
0.817426 0.788113 0.487587
0.913649 0.797909 0.448020
1.000000 0.803754 0.448997
0.337407 0.835218 0.454551
0.444480 0.840513 0.474174
0.545495 0.845579 0.495369
0.638437 0.850721 0.518654
0.722118 0.857404 0.544717
0.793957 0.865339 0.573083
0.852049 0.873381 0.602899
0.896178 0.881483 0.613184
0.933928 0.885298 0.604730
0.476722 0.911208 0.521492
0.580087 0.911192 0.549767
0.671351 0.911971 0.580102
0.747570 0.912703 0.610559
0.805386 0.911574 0.637842
0.847440 0.909468 0.663050
0.876738 0.907500 0.689082
0.895369 0.906966 0.719509
0.904738 0.907195 0.759258
0.079988 0.080873 0.156222
0.091341 0.080919 0.175067
0.108278 0.085389 0.172198
0.135119 0.098192 0.176608
0.179767 0.109102 0.189883
0.253269 0.113207 0.208072
0.361929 0.108034 0.228275
0.510018 0.092836 0.248920
0.698756 0.067216 0.271733
0.056916 0.125231 0.225544
0.113756 0.133013 0.247074
0.177707 0.142489 0.244816
0.217060 0.161349 0.236530
0.270985 0.175189 0.248386
0.358068 0.181506 0.266117
0.497261 0.174823 0.283787
0.676844 0.158251 0.298711
0.887266 0.133974 0.310079
0.042023 0.219257 0.288243
0.113161 0.228046 0.310079
0.218341 0.230304 0.321431
0.293812 0.248249 0.293065
0.362188 0.264988 0.305287
0.468711 0.272328 0.321355
0.618280 0.268177 0.332189
0.808957 0.253483 0.340002
1.000000 0.234836 0.347585
0.068025 0.326604 0.318410
0.154940 0.338933 0.328130
0.253025 0.349447 0.336065
0.359976 0.359472 0.344060
0.488899 0.364065 0.348837
0.620508 0.369512 0.353536
0.760922 0.375189 0.360708
0.928923 0.375372 0.371008
1.000000 0.369146 0.384329
0.115190 0.446311 0.355123
0.215412 0.459876 0.366552
0.315435 0.475044 0.379324
0.418448 0.491920 0.393210
0.526268 0.511177 0.400534
0.703578 0.515297 0.360464
0.858137 0.520867 0.371313
1.000000 0.524971 0.385580
1.000000 0.521813 0.403586
0.170993 0.583368 0.405737
0.278431 0.602029 0.422339
0.386572 0.621012 0.439994
0.493431 0.638560 0.456977
0.596765 0.654627 0.472557
0.697292 0.669627 0.471092
0.846967 0.672969 0.406683
0.979309 0.672694 0.410986
1.000000 0.673930 0.431159
0.253010 0.727550 0.466011
0.361181 0.740414 0.481376
0.465705 0.751247 0.496056
0.565255 0.760769 0.510933
0.658351 0.770611 0.526940
0.743847 0.780774 0.544045
0.821347 0.792844 0.545281
0.919768 0.801801 0.504952
1.000000 0.807858 0.515618
0.351461 0.838544 0.512398
0.458015 0.843580 0.529259
0.558434 0.848386 0.547967
0.650584 0.853864 0.568673
0.732448 0.860822 0.591959
0.801907 0.868711 0.617105
0.856703 0.876432 0.642176
0.896468 0.882902 0.650523
0.933089 0.886229 0.638209
0.496025 0.912154 0.570367
0.597604 0.912062 0.595346
0.686976 0.912749 0.622324
0.758892 0.913085 0.647791
0.812726 0.910903 0.669917
0.852018 0.908644 0.691829
0.878798 0.907134 0.715343
0.895247 0.906310 0.750256
0.902632 0.906310 0.797681
0.077867 0.080247 0.184817
0.093690 0.079393 0.203830
0.122713 0.083482 0.212604
0.156283 0.096193 0.214160
0.197253 0.110231 0.219638
0.262882 0.117464 0.234318
0.358953 0.116686 0.254337
0.492912 0.105699 0.276951
0.667826 0.085069 0.301656
0.056870 0.128939 0.275776
0.117067 0.135851 0.302693
0.191058 0.141741 0.311070
0.246403 0.157137 0.295079
0.291615 0.176333 0.288869
0.362005 0.188830 0.300420
0.475547 0.190570 0.319280
0.631296 0.180529 0.339223
0.823621 0.162036 0.358099
0.024674 0.227085 0.366842
0.109880 0.232334 0.392355
0.221317 0.233433 0.406149
0.328161 0.242329 0.380331
0.379767 0.268498 0.353491
0.450233 0.287236 0.363470
0.558801 0.295537 0.381552
0.722438 0.288350 0.399405
0.918318 0.273640 0.414221
0.007843 0.347982 0.411246
0.099367 0.358770 0.432547
0.214588 0.363500 0.452110
0.362249 0.361639 0.456428
0.456367 0.382681 0.412467
0.535424 0.403845 0.425925
0.653742 0.415473 0.445426
0.812268 0.418601 0.461692
1.000000 0.413535 0.476631
0.068009 0.467521 0.432975
0.176394 0.478828 0.442908
0.291203 0.491203 0.453315
0.411536 0.504601 0.464469
0.534569 0.519005 0.477012
0.672953 0.529778 0.487877
0.803738 0.540887 0.497932
0.932143 0.550179 0.507713
1.000000 0.552285 0.518334
0.159854 0.596979 0.473457
0.278950 0.613108 0.489448
0.394888 0.629526 0.506554
0.503059 0.646250 0.522698
0.605280 0.661250 0.537041
0.702235 0.675319 0.541482
0.851423 0.675334 0.504936
0.969100 0.678325 0.516091
1.000000 0.684245 0.533104
0.260975 0.734829 0.530037
0.371740 0.746319 0.544167
0.475670 0.756054 0.556527
0.574990 0.765545 0.569726
0.666957 0.775036 0.583352
0.750484 0.785473 0.598184
0.825605 0.797574 0.602060
0.925673 0.805051 0.566766
1.000000 0.812222 0.585595
0.365591 0.841901 0.569787
0.472282 0.846571 0.584314
0.571908 0.851286 0.600351
0.663005 0.856779 0.618326
0.742947 0.863783 0.638239
0.809461 0.871885 0.659419
0.860700 0.879072 0.679545
0.896574 0.883955 0.686336
0.932189 0.886641 0.671366
0.515328 0.912978 0.618433
0.615457 0.912856 0.639948
0.701473 0.913298 0.662516
0.769390 0.912718 0.683055
0.819699 0.910140 0.700877
0.855741 0.907881 0.719081
0.880858 0.906401 0.744152
0.894926 0.905348 0.784344
0.900511 0.905348 0.837385
0.076997 0.079026 0.217395
0.097108 0.076677 0.248081
0.137102 0.080522 0.273243
0.184146 0.089738 0.282582
0.229480 0.104234 0.277684
0.285786 0.116274 0.276707
0.371664 0.119722 0.290700
0.490684 0.114260 0.311009
0.649805 0.098985 0.335851
0.057771 0.130739 0.347021
0.120668 0.136675 0.379171
0.200641 0.140368 0.395254
0.275303 0.149905 0.385260
0.329732 0.169360 0.360922
0.387366 0.188663 0.350958
0.482246 0.197513 0.360616
0.614069 0.195239 0.378561
0.784131 0.183322 0.399725
0.016098 0.230793 0.463035
0.108705 0.234333 0.491173
0.223545 0.235325 0.507591
0.345312 0.238605 0.491142
0.421530 0.261036 0.441550
0.475319 0.288212 0.419104
0.557763 0.305806 0.426139
0.686946 0.309789 0.443748
0.856062 0.303349 0.464652
0.000000 0.361608 0.531762
0.076478 0.366598 0.557168
0.210697 0.366766 0.575265
0.363806 0.364126 0.574701
0.496544 0.374426 0.522469
0.554650 0.408621 0.483467
0.631785 0.434638 0.495354
0.746441 0.450462 0.518151
0.911269 0.452094 0.541772
0.000000 0.492790 0.542885
0.108507 0.503029 0.560250
0.230671 0.512917 0.580133
0.371313 0.519936 0.600580
0.538796 0.523186 0.604944
0.640024 0.550393 0.556313
0.719341 0.575662 0.572259
0.827604 0.588647 0.591287
0.961471 0.590906 0.603555
0.110811 0.620951 0.560601
0.235279 0.635325 0.574502
0.359136 0.649165 0.587442
0.480903 0.661585 0.598077
0.598123 0.671611 0.606104
0.707485 0.680430 0.612894
0.821729 0.686259 0.618448
0.920439 0.694652 0.624750
1.000000 0.704738 0.633936
0.243778 0.748867 0.599619
0.364080 0.756497 0.608652
0.477928 0.763195 0.618387
0.582895 0.770306 0.629068
0.675349 0.779568 0.640345
0.757519 0.789914 0.652567
0.829267 0.802335 0.659419
0.927428 0.808057 0.640299
0.990814 0.817502 0.658915
0.372534 0.847044 0.627695
0.483726 0.850050 0.639536
0.585107 0.853788 0.652293
0.674678 0.859815 0.667216
0.752712 0.866941 0.683345
0.816693 0.874586 0.700206
0.864317 0.880903 0.715251
0.896330 0.885054 0.720394
0.930755 0.886687 0.705776
0.534401 0.913512 0.666087
0.632502 0.913634 0.683742
0.715282 0.913588 0.701427
0.778912 0.911757 0.716030
0.826093 0.909255 0.730144
0.859770 0.906767 0.748058
0.882216 0.905287 0.775860
0.894377 0.904479 0.817990
0.898909 0.904814 0.871458
0.076310 0.076890 0.260243
0.102083 0.074022 0.305669
0.150332 0.076738 0.347677
0.210224 0.081834 0.375509
0.272282 0.091020 0.377539
0.331304 0.104509 0.358022
0.404044 0.114321 0.352911
0.509194 0.114687 0.364981
0.648692 0.106554 0.385092
0.058824 0.130251 0.441581
0.124361 0.134371 0.488136
0.208728 0.135790 0.518746
0.297383 0.140215 0.523568
0.376486 0.153277 0.496788
0.438560 0.176059 0.451820
0.512078 0.194751 0.427192
0.622736 0.201083 0.432212
0.767269 0.197406 0.447990
0.010086 0.228412 0.616678
0.107073 0.230610 0.653147
0.224598 0.231373 0.670985
0.354147 0.233082 0.652888
0.460029 0.248493 0.590768
0.524025 0.277775 0.523064
0.585000 0.305531 0.492348
0.688319 0.319249 0.495338
0.828122 0.323095 0.512810
0.000000 0.364111 0.717128
0.064302 0.365255 0.743389
0.207294 0.363912 0.755947
0.363241 0.362829 0.739956
0.514458 0.369192 0.678401
0.600641 0.400427 0.592630
0.658213 0.437522 0.560830
0.744564 0.464118 0.570367
0.872679 0.476310 0.591608
0.000000 0.509224 0.709072
0.064073 0.515053 0.730663
0.207965 0.519432 0.750683
0.368475 0.522606 0.762478
0.540459 0.525475 0.750530
0.680644 0.543175 0.680690
0.736797 0.580758 0.632959
0.803754 0.605890 0.640192
0.897475 0.618540 0.656794
0.041672 0.647028 0.684413
0.168765 0.660212 0.700938
0.295323 0.672114 0.717891
0.423667 0.680644 0.733684
0.559838 0.683375 0.746044
0.708690 0.681407 0.738445
0.790570 0.702373 0.680201
0.848646 0.722179 0.689021
0.924346 0.734340 0.703441
0.197940 0.769070 0.687221
0.321935 0.774685 0.693065
0.440879 0.779675 0.697795
0.554406 0.784604 0.702037
0.659373 0.790280 0.705867
0.752941 0.797131 0.710216
0.833158 0.806806 0.717037
0.906813 0.816327 0.724849
0.959060 0.828229 0.733516
0.357687 0.857679 0.692561
0.476188 0.858351 0.698680
0.585107 0.860151 0.706004
0.681422 0.864103 0.716091
0.761669 0.870054 0.727718
0.823270 0.877058 0.739254
0.866835 0.881987 0.749249
0.895750 0.885771 0.754803
0.927108 0.886458 0.748592
0.543908 0.916609 0.712993
0.645167 0.915236 0.726207
0.726787 0.913909 0.738140
0.787243 0.910750 0.748440
0.831632 0.907851 0.761654
0.862806 0.905501 0.780285
0.883024 0.904112 0.809232
0.893980 0.903670 0.850721
0.897459 0.904753 0.899977
0.076509 0.073426 0.314412
0.108904 0.071260 0.377462
0.163470 0.071931 0.438285
0.232761 0.073075 0.488563
0.311864 0.075441 0.512291
0.390585 0.084016 0.490105
0.462074 0.097154 0.457313
0.552728 0.104982 0.449424
0.675563 0.103716 0.460822
0.058991 0.127230 0.564691
0.126482 0.128450 0.638590
0.213184 0.126406 0.702296
0.309407 0.125475 0.746181
0.409171 0.131884 0.732219
0.501213 0.149767 0.655467
0.575525 0.174929 0.566781
0.660731 0.194049 0.528740
0.780072 0.200214 0.526497
0.000000 0.206912 1.000000
0.085786 0.202899 1.000000
0.203876 0.200336 1.000000
0.339055 0.201724 1.000000
0.469261 0.215869 1.000000
0.577325 0.250584 0.780377
0.643793 0.288457 0.638849
0.717830 0.317143 0.582849
0.831510 0.331792 0.579736
0.000000 0.331426 1.000000
0.032425 0.331426 1.000000
0.181735 0.331563 1.000000
0.341833 0.335225 1.000000
0.505608 0.346578 1.000000
0.636728 0.382055 0.835813
0.708568 0.427344 0.690959
0.771084 0.465904 0.647807
0.871977 0.488334 0.650095
0.000000 0.492256 1.000000
0.021653 0.496315 1.000000
0.183093 0.500618 1.000000
0.353521 0.505287 1.000000
0.528679 0.512612 1.000000
0.691341 0.532357 0.923323
0.778058 0.572137 0.753216
0.825055 0.607614 0.707347
0.890883 0.629480 0.705806
0.000000 0.658091 0.986587
0.104341 0.667124 0.999054
0.247730 0.673625 1.000000
0.395224 0.676005 1.000000
0.549584 0.675532 0.997223
0.703670 0.676692 0.933532
0.821241 0.694377 0.800168
0.859861 0.726040 0.742428
0.903883 0.748104 0.743938
0.134051 0.789517 0.824857
0.261921 0.793271 0.825452
0.384863 0.796704 0.826749
0.502724 0.799756 0.829633
0.615457 0.802502 0.832547
0.725765 0.804349 0.835721
0.833875 0.807263 0.821790
0.886763 0.827924 0.769604
0.916930 0.844877 0.776013
0.325444 0.871870 0.773434
0.448188 0.871153 0.773297
0.561517 0.871885 0.774258
0.662776 0.874235 0.776761
0.748699 0.878264 0.780407
0.816052 0.882170 0.784436
0.863401 0.883772 0.788540
0.894652 0.885481 0.795178
0.915053 0.886946 0.808103
0.541344 0.922683 0.766445
0.645304 0.919402 0.772595
0.727794 0.915740 0.778943
0.789487 0.910811 0.785595
0.834226 0.906630 0.796567
0.865217 0.903975 0.815473
0.884016 0.902831 0.842786
0.894011 0.903288 0.878019
0.896345 0.905303 0.920043
0.077455 0.069291 0.380667
0.116762 0.067491 0.465568
0.176669 0.065187 0.552895
0.252003 0.061769 0.637613
0.342763 0.057145 0.700603
0.447486 0.056443 0.698955
0.538827 0.067277 0.639673
0.623819 0.081392 0.592203
0.728527 0.089128 0.577020
0.055085 0.117739 0.765545
0.114061 0.104570 1.000000
0.196918 0.092607 1.000000
0.296147 0.084321 1.000000
0.405478 0.083696 1.000000
0.524086 0.095949 1.000000
0.637797 0.127825 0.984497
0.729000 0.167788 0.723873
0.823407 0.188449 0.660578
0.000000 0.170916 1.000000
0.055863 0.164019 1.000000
0.175753 0.158907 1.000000
0.313069 0.158633 1.000000
0.452338 0.167651 1.000000
0.581918 0.191028 1.000000
0.692882 0.233585 1.000000
0.781430 0.289708 0.829068
0.866712 0.325154 0.710094
0.000000 0.288502 1.000000
0.000000 0.288548 1.000000
0.151385 0.288960 1.000000
0.312963 0.293980 1.000000
0.481437 0.306538 1.000000
0.631678 0.335073 1.000000
0.746288 0.383597 1.000000
0.824918 0.445808 0.868925
0.897719 0.486992 0.752438
0.000000 0.452766 1.000000
0.000000 0.458183 1.000000
0.155642 0.464790 1.000000
0.332631 0.474754 1.000000
0.509422 0.487251 1.000000
0.677470 0.506081 1.000000
0.798352 0.543252 1.000000
0.863661 0.594079 0.868513
0.908934 0.629984 0.783185
0.000000 0.638972 1.000000
0.046540 0.647044 1.000000
0.211002 0.653010 1.000000
0.374105 0.656275 1.000000
0.535882 0.657404 1.000000
0.690089 0.661906 1.000000
0.820630 0.677745 1.000000
0.887358 0.717296 0.869017
0.916655 0.750195 0.801221
0.048264 0.789822 1.000000
0.191257 0.791791 1.000000
0.329473 0.792874 1.000000
0.463493 0.793469 1.000000
0.593744 0.793729 1.000000
0.717693 0.795254 1.000000
0.828031 0.801999 0.997742
0.901976 0.822370 0.876173
0.920241 0.847318 0.817578
0.276341 0.880720 0.951629
0.405859 0.879881 0.928634
0.525521 0.880217 0.910887
0.632013 0.881590 0.899031
0.722194 0.883833 0.891829
0.793500 0.884840 0.887312
0.848127 0.883177 0.883497
0.890486 0.882063 0.872023
0.904707 0.889326 0.842573
0.529274 0.928557 0.845777
0.635081 0.923705 0.842130
0.717494 0.917769 0.839811
0.780606 0.911940 0.839597
0.827436 0.906889 0.843763
0.860792 0.903761 0.855299
0.882368 0.902571 0.873655
0.893614 0.903624 0.900267
0.897047 0.906813 0.930907
