CUBE/5210 Vibrant.cube
# (null)
# 3 columns rgb, 35937 rows
# created by dwsgrading 2017-03-24 09:18:52 +0000
LUT_3D_SIZE 9
0.000000 0.000000 0.001358
0.083803 0.000000 0.000000
0.213718 0.000000 0.000000
0.349767 0.000000 0.000000
0.481941 0.000000 0.000000
0.595132 0.000000 0.000000
0.689021 0.000000 0.000000
0.770336 0.000000 0.000000
0.846174 0.003586 0.000671
0.000000 0.101915 0.000000
0.097673 0.095247 0.000000
0.230533 0.093889 0.000000
0.370642 0.093736 0.000000
0.503258 0.095506 0.000000
0.614908 0.101030 0.000000
0.707027 0.110948 0.005173
0.787396 0.123568 0.016846
0.861540 0.137148 0.029572
0.000000 0.251133 0.000000
0.065034 0.247562 0.000000
0.254307 0.232685 0.000000
0.393072 0.228931 0.000259
0.516625 0.233921 0.005554
0.624582 0.241215 0.008240
0.714611 0.251987 0.016281
0.793423 0.264820 0.027283
0.866056 0.277913 0.038849
0.000000 0.407584 0.000000
0.029603 0.405829 0.000000
0.227573 0.390356 0.000000
0.415854 0.375677 0.000000
0.550958 0.370672 0.000000
0.646143 0.376654 0.010758
0.728283 0.386908 0.025193
0.802670 0.398856 0.036072
0.872480 0.410529 0.045304
0.000000 0.560281 0.000000
0.005005 0.557885 0.000000
0.197604 0.543542 0.000000
0.397284 0.524910 0.000000
0.560952 0.512871 0.000000
0.678065 0.507973 0.000000
0.757900 0.511376 0.000000
0.824369 0.518959 0.013092
0.886946 0.527199 0.034562
0.000000 0.691463 0.000000
0.000000 0.686610 0.000000
0.180102 0.672129 0.000000
0.380514 0.652506 0.000000
0.547967 0.637049 0.000000
0.676127 0.628168 0.000000
0.772747 0.624598 0.000000
0.847715 0.624903 0.000000
0.910048 0.627146 0.000000
0.000000 0.799130 0.000000
0.000000 0.792157 0.000000
0.175738 0.776852 0.000000
0.371984 0.757168 0.000000
0.539315 0.739773 0.000000
0.666865 0.728145 0.000000
0.766903 0.721859 0.000000
0.849790 0.717830 0.000000
0.921294 0.715160 0.000000
0.000000 0.889158 0.000000
0.000000 0.880476 0.000000
0.175158 0.864393 0.000000
0.365850 0.844602 0.000000
0.530800 0.825971 0.000000
0.657526 0.812726 0.000000
0.756863 0.804669 0.000000
0.841779 0.799435 0.000000
0.918334 0.794949 0.000000
0.000000 0.966918 0.000000
0.000000 0.956909 0.000000
0.169711 0.940688 0.000000
0.355932 0.921340 0.000000
0.519646 0.902876 0.000000
0.646464 0.889067 0.000000
0.745861 0.880308 0.000000
0.830915 0.874372 0.000000
0.909270 0.869566 0.000000
0.000000 0.000000 0.119249
0.098024 0.000000 0.115831
0.225498 0.000000 0.087617
0.357107 0.000000 0.076509
0.487968 0.000000 0.073793
0.600214 0.000000 0.076081
0.693126 0.000000 0.083574
0.774472 0.000000 0.094301
0.849897 0.005722 0.106477
0.000000 0.103471 0.102007
0.087617 0.099046 0.104173
0.229526 0.097704 0.100160
0.372503 0.096712 0.098024
0.505592 0.098573 0.097200
0.617243 0.104097 0.101259
0.709178 0.114015 0.110094
0.789364 0.126650 0.121920
0.863279 0.140200 0.134737
0.000000 0.252796 0.068818
0.056977 0.250645 0.071046
0.247028 0.236454 0.075181
0.383246 0.235660 0.107866
0.512428 0.239750 0.106371
0.622232 0.246403 0.109819
0.713146 0.256779 0.118257
0.792386 0.269215 0.129366
0.865278 0.281971 0.141009
0.000000 0.409445 0.034653
0.024918 0.408194 0.037766
0.217136 0.394873 0.030854
0.408637 0.379446 0.044694
0.538186 0.376181 0.102388
0.636439 0.383017 0.120027
0.722057 0.392844 0.127291
0.798108 0.404288 0.135912
0.868498 0.415564 0.144747
0.000000 0.561654 0.009873
0.000992 0.559365 0.012619
0.186938 0.546715 0.002625
0.388205 0.528023 0.002930
0.553689 0.515480 0.017655
0.667979 0.510826 0.062974
0.745190 0.515358 0.106279
0.812802 0.523323 0.130114
0.877317 0.531456 0.144274
0.000000 0.691829 0.000000
0.000000 0.687068 0.000000
0.170626 0.673411 0.000000
0.368765 0.654597 0.000000
0.539620 0.638453 0.000000
0.668727 0.629129 0.000000
0.764767 0.625513 0.026444
0.837018 0.626154 0.066880
0.897383 0.628916 0.102693
0.000000 0.798581 0.000717
0.000000 0.791608 0.000000
0.166476 0.776928 0.000000
0.358862 0.758221 0.000000
0.529519 0.740246 0.000000
0.658717 0.728084 0.000000
0.759411 0.721477 0.000000
0.842313 0.717327 0.003189
0.912367 0.714778 0.033402
0.000000 0.888014 0.006439
0.000000 0.879179 0.001236
0.165408 0.863523 0.000000
0.351858 0.844572 0.000000
0.519585 0.825742 0.000000
0.648630 0.812085 0.000000
0.749004 0.803754 0.000000
0.834607 0.798444 0.000000
0.911345 0.793851 0.000000
0.000000 0.965194 0.006195
0.000000 0.955154 0.000000
0.159564 0.939284 0.000000
0.341772 0.920729 0.000000
0.507530 0.902327 0.000000
0.636942 0.888182 0.000000
0.737713 0.879194 0.000000
0.823575 0.873121 0.000000
0.902556 0.868269 0.000000
0.000000 0.002045 0.280018
0.056962 0.000000 0.293614
0.248966 0.000000 0.265400
0.389929 0.000000 0.237827
0.511803 0.000000 0.223285
0.618143 0.000000 0.221302
0.707820 0.000000 0.227115
0.787228 0.000000 0.237110
0.861204 0.002258 0.248798
0.000000 0.111070 0.256458
0.050248 0.107393 0.267109
0.250431 0.088701 0.266331
0.390417 0.090776 0.244465
0.516060 0.095415 0.239353
0.624857 0.102022 0.242451
0.715389 0.112413 0.250980
0.794675 0.125292 0.262623
0.867918 0.139010 0.275334
0.000000 0.252659 0.241886
0.047456 0.250233 0.246098
0.229160 0.239307 0.243778
0.375326 0.239261 0.240925
0.509026 0.241886 0.241276
0.620706 0.247791 0.246143
0.712306 0.257847 0.255131
0.791760 0.269917 0.266377
0.864790 0.282414 0.278141
0.000000 0.408804 0.210895
0.017334 0.407233 0.214984
0.198413 0.396887 0.210391
0.392844 0.381582 0.214145
0.518364 0.381842 0.250141
0.624292 0.388144 0.251713
0.712963 0.397116 0.257832
0.790646 0.407767 0.266697
0.862303 0.418296 0.275792
0.000000 0.560784 0.186938
0.000000 0.557824 0.189425
0.172656 0.546410 0.183551
0.367834 0.530053 0.174365
0.538796 0.516381 0.186496
0.647990 0.513024 0.234226
0.725750 0.519219 0.260182
0.797406 0.527367 0.270878
0.865736 0.534981 0.277272
0.000000 0.690059 0.175174
0.000000 0.684794 0.175814
0.157641 0.671794 0.167559
0.345464 0.655528 0.153033
0.522896 0.638483 0.153979
0.654780 0.628595 0.165011
0.749615 0.625071 0.197360
0.817700 0.626856 0.237827
0.878050 0.630594 0.262959
0.000000 0.796231 0.175799
0.000000 0.788739 0.173693
0.153399 0.774472 0.162570
0.336065 0.757748 0.144884
0.510231 0.739696 0.136248
0.643748 0.726680 0.141817
0.746105 0.719661 0.149996
0.829068 0.715419 0.171283
0.896361 0.713420 0.205295
0.000000 0.885267 0.180468
0.000000 0.875853 0.174823
0.151736 0.860517 0.160311
0.329564 0.842969 0.138964
0.498436 0.824720 0.123766
0.632547 0.810330 0.124254
0.735225 0.801556 0.129473
0.822156 0.796063 0.135988
0.899382 0.791424 0.152102
0.000000 0.962097 0.178943
0.000000 0.951675 0.170459
0.145235 0.935973 0.153277
0.320195 0.918563 0.129915
0.485359 0.901030 0.111208
0.619852 0.886366 0.107164
0.723445 0.876951 0.110674
0.810925 0.870665 0.115724
0.891112 0.865690 0.121416
0.000000 0.006394 0.447013
0.011475 0.000000 0.462257
0.224353 0.000000 0.462303
0.409277 0.000000 0.427085
0.548821 0.000000 0.406149
0.657115 0.000000 0.394659
0.743328 0.000000 0.393332
0.818952 0.000000 0.398733
0.889570 0.000000 0.407279
0.000000 0.120668 0.419806
0.012100 0.115221 0.437583
0.215305 0.093782 0.458701
0.415656 0.078553 0.432868
0.553231 0.081163 0.413779
0.656916 0.090532 0.405371
0.741726 0.103273 0.407996
0.816861 0.117662 0.416403
0.887144 0.132342 0.427100
0.000000 0.257618 0.408301
0.015579 0.257908 0.407965
0.190692 0.248219 0.413352
0.397009 0.230076 0.413443
0.529320 0.234882 0.395911
0.633143 0.243580 0.394598
0.721431 0.254658 0.402014
0.799039 0.267063 0.412451
0.870848 0.279713 0.423713
0.000000 0.408820 0.389456
0.006500 0.407004 0.394263
0.188205 0.396139 0.391897
0.373663 0.384176 0.388754
0.508904 0.385260 0.387243
0.619516 0.389700 0.390799
0.709728 0.398001 0.397284
0.788251 0.407980 0.406561
0.860349 0.417945 0.415793
0.000000 0.559762 0.367407
0.000000 0.556466 0.371099
0.163653 0.544457 0.366537
0.346380 0.531106 0.358923
0.522393 0.516960 0.361349
0.625986 0.516884 0.394965
0.710887 0.523186 0.399191
0.786465 0.530510 0.404791
0.856641 0.537408 0.410681
0.000000 0.688334 0.356603
0.000000 0.682658 0.357733
0.148379 0.669062 0.349676
0.327611 0.654246 0.339315
0.502846 0.638621 0.329763
0.639490 0.627787 0.338903
0.730358 0.625025 0.375250
0.796475 0.628672 0.402243
0.860914 0.632929 0.411093
0.000000 0.794018 0.357046
0.000000 0.786068 0.354849
0.143420 0.771160 0.343526
0.319310 0.755230 0.330297
0.487068 0.739147 0.314672
0.627054 0.725231 0.315312
0.731533 0.717647 0.322621
0.813672 0.713481 0.346502
0.876295 0.712856 0.381872
0.000000 0.882521 0.360739
0.000000 0.872740 0.354818
0.140734 0.856733 0.339940
0.312764 0.839704 0.323156
0.474830 0.823407 0.304280
0.613947 0.808591 0.297536
0.720043 0.799237 0.301885
0.808530 0.793500 0.307912
0.885908 0.788922 0.325750
0.000000 0.959091 0.358129
0.000000 0.948409 0.349569
0.133669 0.932082 0.332128
0.303624 0.915129 0.313481
0.462242 0.899107 0.292821
0.599817 0.884703 0.281575
0.707393 0.874662 0.282887
0.797055 0.868101 0.287785
0.878569 0.862959 0.293126
0.000000 0.010788 0.604501
0.000000 0.000000 0.620996
0.179141 0.000000 0.635798
0.396948 0.000000 0.616129
0.563394 0.000000 0.585748
0.684932 0.000000 0.573236
0.778393 0.000000 0.568856
0.857053 0.000000 0.569741
0.928084 0.000000 0.573266
0.000000 0.129198 0.578149
0.000000 0.123171 0.597803
0.173342 0.103685 0.621866
0.399023 0.078752 0.620691
0.570169 0.072450 0.592569
0.688640 0.077745 0.580957
0.778927 0.089418 0.577569
0.854322 0.104250 0.579156
0.922515 0.120089 0.583322
0.000000 0.268376 0.555520
0.000000 0.268788 0.559503
0.156237 0.256748 0.574029
0.366476 0.235264 0.595529
0.551934 0.224674 0.573617
0.668391 0.230549 0.561791
0.754955 0.242817 0.558785
0.827863 0.257069 0.561502
0.895064 0.271183 0.566934
0.000000 0.412558 0.550378
0.000000 0.411673 0.552285
0.159945 0.403494 0.544381
0.337957 0.392889 0.547585
0.528527 0.376944 0.549569
0.639750 0.382528 0.536355
0.723110 0.393164 0.536522
0.797726 0.404120 0.542550
0.867567 0.414527 0.549706
0.000000 0.560220 0.534630
0.000000 0.556603 0.537728
0.153323 0.544182 0.533761
0.336507 0.530251 0.528450
0.505089 0.518517 0.524468
0.616724 0.519554 0.523476
0.705516 0.524483 0.527459
0.782589 0.530785 0.533135
0.853742 0.537118 0.538918
0.000000 0.687694 0.523095
0.000000 0.681498 0.524041
0.138613 0.667430 0.517601
0.318471 0.652079 0.509392
0.483574 0.638636 0.500893
0.625177 0.627207 0.501823
0.710109 0.627131 0.529305
0.782284 0.631083 0.532586
0.850675 0.634852 0.534829
0.000000 0.792477 0.521477
0.000000 0.784176 0.519707
0.132921 0.768841 0.510231
0.309499 0.752270 0.498375
0.469871 0.737346 0.486732
0.609979 0.724193 0.478355
0.717845 0.715923 0.483803
0.796445 0.712520 0.511147
0.857053 0.713909 0.532464
0.000000 0.880354 0.522103
0.000000 0.870314 0.517235
0.129244 0.853895 0.504433
0.302235 0.836271 0.489128
0.458885 0.820706 0.475349
0.594461 0.807385 0.462654
0.705394 0.797375 0.463081
0.795666 0.791257 0.468071
0.871992 0.786908 0.488136
0.000000 0.956619 0.517403
0.000000 0.945769 0.510262
0.121721 0.929122 0.495125
0.292790 0.911574 0.478172
0.447028 0.896040 0.463066
0.579705 0.883177 0.448905
0.691264 0.872877 0.444663
0.783719 0.865858 0.448188
0.866682 0.860548 0.452811
0.000000 0.015244 0.736110
0.000000 0.000046 0.753704
0.143435 0.000000 0.774121
0.370748 0.000000 0.771984
0.558907 0.000000 0.744640
0.695354 0.000000 0.723598
0.796170 0.000000 0.717342
0.879667 0.000000 0.716258
0.954467 0.000000 0.716838
0.000000 0.137118 0.710475
0.000000 0.130938 0.730358
0.143389 0.112352 0.754696
0.367468 0.086549 0.768597
0.564187 0.072068 0.747845
0.699596 0.073152 0.727764
0.798016 0.082490 0.721996
0.878782 0.095781 0.720913
0.950591 0.110658 0.721355
0.000000 0.278782 0.680583
0.000000 0.277958 0.689174
0.129351 0.265019 0.706722
0.332860 0.245167 0.731579
0.540978 0.225834 0.728328
0.680858 0.225406 0.708339
0.778149 0.234394 0.702083
0.856596 0.247074 0.700191
0.925460 0.260838 0.699718
0.000000 0.420554 0.675868
0.000000 0.421073 0.674311
0.128435 0.413855 0.668147
0.310704 0.400839 0.680049
0.504173 0.381918 0.699702
0.656123 0.375448 0.682872
0.751507 0.382849 0.674937
0.826200 0.394125 0.671809
0.892164 0.406043 0.671458
0.000000 0.563287 0.669230
0.000000 0.559792 0.670344
0.137911 0.548028 0.664179
0.314641 0.536309 0.654169
0.475685 0.525917 0.654444
0.631724 0.512886 0.658228
0.723278 0.518059 0.648096
0.794064 0.526436 0.646799
0.861570 0.533852 0.649668
0.000000 0.688502 0.659083
0.000000 0.682048 0.659251
0.129549 0.667613 0.653086
0.309728 0.651865 0.645823
0.475105 0.637842 0.639551
0.611475 0.628214 0.635813
0.702419 0.628916 0.635142
0.777554 0.631724 0.637324
0.847318 0.634699 0.639750
0.000000 0.792203 0.654459
0.000000 0.783658 0.652522
0.124544 0.767971 0.644251
0.300969 0.750759 0.634379
0.461860 0.735286 0.625254
0.594965 0.723674 0.617731
0.706600 0.714885 0.617441
0.780118 0.713741 0.637675
0.846433 0.715480 0.638514
0.000000 0.879286 0.652216
0.000000 0.869017 0.647807
0.120195 0.852201 0.636912
0.292988 0.834165 0.624384
0.450584 0.818143 0.612634
0.580865 0.805814 0.603189
0.692241 0.796323 0.597467
0.785031 0.789746 0.600778
0.857877 0.786221 0.623606
0.000000 0.955123 0.645869
0.000000 0.944045 0.639673
0.112169 0.927153 0.627100
0.283146 0.909316 0.612909
0.438697 0.893309 0.599451
0.567452 0.881056 0.589319
0.676402 0.871855 0.581430
0.772274 0.864393 0.581262
0.856825 0.858839 0.585016
0.000000 0.020310 0.842039
0.000000 0.006241 0.860426
0.118608 0.000000 0.883192
0.345312 0.000000 0.891676
0.548104 0.000000 0.871855
0.694835 0.000000 0.849653
0.804044 0.000000 0.836805
0.892088 0.000000 0.833249
0.969833 0.000000 0.832532
0.000000 0.144915 0.816739
0.000000 0.138796 0.836576
0.122469 0.120760 0.860960
0.341268 0.096025 0.880903
0.550378 0.076768 0.871260
0.698405 0.074098 0.850965
0.805875 0.081224 0.838407
0.891524 0.093095 0.834699
0.966522 0.106950 0.833539
0.000000 0.288289 0.783307
0.000000 0.286671 0.794186
0.109972 0.273289 0.813001
0.310658 0.254246 0.838254
0.519982 0.233036 0.848005
0.677562 0.226810 0.831373
0.786206 0.232685 0.818082
0.870787 0.243381 0.813550
0.943984 0.255665 0.811185
0.000000 0.430213 0.773968
0.000000 0.431189 0.771939
0.106722 0.423148 0.771008
0.290929 0.408774 0.786145
0.478096 0.391028 0.808896
0.647654 0.377523 0.805920
0.760281 0.380072 0.791424
0.843778 0.388464 0.785367
0.914916 0.398733 0.781552
0.000000 0.568978 0.772503
0.000000 0.565988 0.771282
0.119127 0.555505 0.762142
0.290455 0.545190 0.751888
0.454597 0.532738 0.760021
0.610666 0.517906 0.776699
0.734417 0.513283 0.765103
0.816510 0.518532 0.757168
0.884276 0.526238 0.752239
0.000000 0.691051 0.766003
0.000000 0.684565 0.765240
0.120180 0.670253 0.758404
0.298116 0.654978 0.749584
0.457893 0.642817 0.739437
0.588052 0.634394 0.738750
0.712917 0.623880 0.743999
0.792203 0.626413 0.733669
0.856306 0.631251 0.730159
0.000000 0.793149 0.760967
0.000000 0.784405 0.758724
0.117556 0.768536 0.750988
0.293645 0.750927 0.741680
0.454887 0.735195 0.733532
0.588022 0.723079 0.727626
0.696101 0.715419 0.724254
0.774945 0.714839 0.722713
0.843488 0.715831 0.723171
0.000000 0.879347 0.756390
0.000000 0.868849 0.752087
0.113100 0.851789 0.742184
0.286122 0.833463 0.731075
0.444007 0.817044 0.721218
0.574731 0.804349 0.713787
0.681819 0.795880 0.708782
0.777264 0.788983 0.708247
0.845808 0.787457 0.724300
0.000000 0.954681 0.748791
0.000000 0.943374 0.743008
0.105196 0.926329 0.731929
0.276234 0.908186 0.719646
0.432044 0.891966 0.708553
0.561440 0.879347 0.699672
0.667430 0.870771 0.693904
0.763027 0.863752 0.689860
0.849622 0.857923 0.692195
0.000000 0.025940 0.932204
0.000000 0.013321 0.951415
0.100206 0.000000 0.975128
0.323827 0.000000 0.989456
0.534707 0.000000 0.977737
0.690593 0.000000 0.956954
0.805127 0.000000 0.942367
0.898665 0.000000 0.933562
0.979690 0.000000 0.930159
0.000000 0.152895 0.906966
0.000000 0.146792 0.926650
0.106844 0.129168 0.951034
0.321630 0.105547 0.973632
0.534386 0.084215 0.973175
0.692638 0.078080 0.955688
0.806378 0.083330 0.941558
0.897856 0.093767 0.932448
0.976410 0.106523 0.928588
0.000000 0.297475 0.871427
0.000000 0.295354 0.883604
0.095338 0.281682 0.903090
0.294545 0.263081 0.928313
0.499565 0.242237 0.944656
0.667887 0.231861 0.935241
0.785412 0.234714 0.921096
0.876997 0.243442 0.910948
0.954574 0.254398 0.906142
0.000000 0.440223 0.857145
0.000000 0.441001 0.856214
0.090501 0.431846 0.859251
0.275837 0.416770 0.876066
0.459525 0.399649 0.899153
0.630350 0.384298 0.906905
0.756802 0.381949 0.894926
0.849989 0.387594 0.883238
0.926986 0.395941 0.877089
0.000000 0.576120 0.857527
0.000000 0.573663 0.854459
0.101335 0.564202 0.843961
0.272099 0.553185 0.837736
0.438025 0.539528 0.849577
0.589029 0.525673 0.868284
0.725368 0.515480 0.868635
0.823117 0.516228 0.855787
0.899535 0.521126 0.848173
0.000000 0.695079 0.854139
0.000000 0.688716 0.852079
0.109438 0.675090 0.843839
0.282994 0.660914 0.832395
0.437369 0.650095 0.821698
0.570031 0.639948 0.827695
0.692607 0.628656 0.841856
0.800336 0.622446 0.832776
0.875257 0.624247 0.822965
0.000000 0.795178 0.850309
0.000000 0.786267 0.847562
0.110567 0.770413 0.839704
0.285420 0.752926 0.830014
0.444358 0.737682 0.820462
0.572610 0.727214 0.811246
0.675975 0.720546 0.810590
0.782559 0.710735 0.815915
0.856153 0.711299 0.804746
0.000000 0.880095 0.845136
0.000000 0.869413 0.840803
0.106996 0.852216 0.831571
0.280003 0.833829 0.821317
0.437766 0.817166 0.812100
0.568872 0.804349 0.805432
0.676051 0.795575 0.801526
0.769116 0.789563 0.798978
0.842695 0.788312 0.796933
0.000000 0.954864 0.836408
0.000000 0.943435 0.830930
0.099275 0.926253 0.820768
0.270481 0.907958 0.809598
0.426657 0.891524 0.799695
0.556359 0.878676 0.792264
0.662699 0.869871 0.787823
0.755673 0.863478 0.784527
0.844175 0.857420 0.783902
0.000000 0.031693 1.000000
0.000000 0.020813 1.000000
0.084764 0.000000 1.000000
0.305180 0.000000 1.000000
0.519722 0.000000 1.000000
0.683268 0.000000 1.000000
0.803250 0.000000 1.000000
0.900130 0.000000 1.000000
0.985412 0.000000 1.000000
0.000000 0.160952 0.989914
0.000000 0.154849 1.000000
0.093553 0.137514 1.000000
0.305547 0.114794 1.000000
0.517525 0.092927 1.000000
0.683360 0.083894 1.000000
0.803372 0.087083 1.000000
0.898741 0.096315 1.000000
0.981720 0.107836 1.000000
0.000000 0.306416 0.952865
0.000000 0.303960 0.965866
0.082826 0.290089 0.985763
0.281041 0.271717 1.000000
0.481315 0.251698 1.000000
0.654108 0.238849 1.000000
0.779797 0.238773 1.000000
0.876860 0.245609 1.000000
0.959762 0.255085 0.994690
0.000000 0.450065 0.934218
0.000000 0.450416 0.934737
0.076738 0.440314 0.940749
0.262730 0.424659 0.958572
0.444083 0.407904 0.981537
0.611032 0.392737 0.995178
0.746334 0.386496 0.989319
0.848081 0.389258 0.977279
0.932067 0.395621 0.966293
0.000000 0.583947 0.934310
0.000000 0.581949 0.929671
0.084916 0.572854 0.919905
0.256626 0.560632 0.918029
0.423316 0.546151 0.931823
0.571542 0.532815 0.950683
0.707118 0.521370 0.959640
0.818097 0.517418 0.950622
0.904631 0.519402 0.938201
0.000000 0.700023 0.933211
0.000000 0.693858 0.929702
0.096712 0.681041 0.919860
0.266148 0.667964 0.906966
0.419608 0.656626 0.900221
0.553841 0.645289 0.909545
0.672679 0.634592 0.924544
0.789258 0.624155 0.927169
0.880598 0.621225 0.913771
0.000000 0.797971 0.930678
0.000000 0.789120 0.927245
0.101808 0.773404 0.918563
0.274266 0.756588 0.907561
0.428733 0.742596 0.895598
0.552804 0.733135 0.886717
0.658686 0.724987 0.891875
0.762234 0.715175 0.904051
0.862867 0.707347 0.896056
0.000000 0.881346 0.925978
0.000000 0.870588 0.921553
0.100298 0.853376 0.912551
0.272602 0.835126 0.902464
0.429206 0.818769 0.892882
0.558251 0.806607 0.884810
0.661143 0.799344 0.877974
0.750347 0.794125 0.878035
0.848981 0.784634 0.883345
0.000000 0.955306 0.917296
0.000000 0.943832 0.912093
0.093492 0.926574 0.902647
0.264637 0.908217 0.892317
0.420813 0.891722 0.883146
0.550637 0.878767 0.876265
0.657267 0.869841 0.872236
0.750439 0.863279 0.869810
0.837049 0.857954 0.867613
