CUBE/5210 Vibrant.cube
# (null)
# 3 columns rgb, 35937 rows
# created by dwsgrading 2017-03-24 09:18:52 +0000
LUT_3D_SIZE 33
0.000000 0.000000 0.001358
0.001419 0.000000 0.000397
0.024552 0.000000 0.000000
0.053010 0.000000 0.000000
0.083803 0.000000 0.000000
0.115236 0.000000 0.000000
0.147448 0.000000 0.000000
0.180148 0.000000 0.000000
0.213718 0.000000 0.000000
0.247822 0.000000 0.000000
0.281788 0.000000 0.000000
0.315801 0.000000 0.000000
0.349767 0.000000 0.000000
0.383688 0.000000 0.000000
0.417319 0.000000 0.000000
0.450309 0.000000 0.000000
0.481941 0.000000 0.000000
0.512169 0.000000 0.000000
0.541115 0.000000 0.000000
0.568856 0.000000 0.000000
0.595132 0.000000 0.000000
0.620096 0.000000 0.000000
0.643824 0.000000 0.000000
0.666667 0.000000 0.000000
0.689021 0.000000 0.000000
0.709453 0.000000 0.000000
0.730388 0.000000 0.000000
0.750637 0.000000 0.000000
0.770336 0.000000 0.000000
0.789700 0.000000 0.000000
0.808759 0.000000 0.000000
0.827665 0.000412 0.000000
0.846174 0.003586 0.000671
0.000000 0.015015 0.000000
0.000000 0.012909 0.000000
0.025620 0.011643 0.000000
0.053895 0.010178 0.000000
0.084977 0.008255 0.000000
0.117037 0.006439 0.000000
0.150057 0.004623 0.000000
0.183444 0.002762 0.000000
0.217639 0.001053 0.000000
0.252277 0.000000 0.000000
0.287205 0.000000 0.000000
0.322377 0.000000 0.000000
0.357305 0.000000 0.000000
0.391913 0.000000 0.000000
0.425605 0.000000 0.000000
0.458595 0.000000 0.000000
0.490166 0.000000 0.000000
0.520470 0.000000 0.000000
0.549187 0.000000 0.000000
0.576577 0.000000 0.000000
0.602716 0.001358 0.000000
0.627741 0.003326 0.000000
0.651377 0.005371 0.000000
0.673915 0.007675 0.000000
0.695628 0.010178 0.000000
0.716854 0.013092 0.000000
0.737346 0.015976 0.000000
0.757351 0.018967 0.000000
0.776913 0.022034 0.000000
0.796246 0.025376 0.002029
0.815137 0.028580 0.005051
0.833753 0.031846 0.008118
0.852186 0.035233 0.011337
0.000000 0.039887 0.000000
0.000000 0.038224 0.000000
0.027283 0.035996 0.000000
0.057740 0.034119 0.000000
0.087724 0.033188 0.000000
0.119814 0.032074 0.000000
0.153475 0.031250 0.000000
0.187823 0.030564 0.000000
0.222950 0.029908 0.000000
0.258320 0.029206 0.000000
0.293584 0.028565 0.000000
0.329091 0.028199 0.000000
0.364187 0.027832 0.000000
0.398840 0.027619 0.000000
0.432654 0.027604 0.000000
0.465644 0.027909 0.000000
0.497093 0.028412 0.000000
0.527108 0.029145 0.000000
0.555749 0.030137 0.000000
0.583185 0.031556 0.000000
0.609171 0.033097 0.000000
0.633875 0.034897 0.000000
0.657374 0.037049 0.000000
0.680003 0.039719 0.000000
0.701625 0.042359 0.000000
0.722576 0.045136 0.000000
0.742931 0.048051 0.001724
0.762951 0.051331 0.004807
0.782406 0.054490 0.007767
0.801495 0.057740 0.010803
0.820294 0.061067 0.013977
0.838849 0.064530 0.017227
0.857084 0.067842 0.020371
0.000000 0.068925 0.000000
0.000000 0.068070 0.000000
0.021103 0.065873 0.000000
0.060487 0.062989 0.000000
0.094682 0.061372 0.000000
0.124819 0.061860 0.000000
0.158007 0.061814 0.000000
0.192096 0.061585 0.000000
0.227008 0.061219 0.000000
0.262531 0.061021 0.000000
0.297826 0.060639 0.000000
0.333150 0.060258 0.000000
0.368231 0.059968 0.000000
0.403113 0.060075 0.000000
0.437034 0.060258 0.000000
0.469871 0.060609 0.000000
0.501183 0.061173 0.000000
0.531167 0.062058 0.000000
0.559823 0.063249 0.000000
0.587060 0.064622 0.000000
0.613001 0.066285 0.000000
0.637842 0.068421 0.000000
0.661250 0.070634 0.000000
0.683619 0.073121 0.000000
0.705180 0.075837 0.001938
0.726238 0.078950 0.004822
0.746548 0.081971 0.007614
0.766339 0.085084 0.010498
0.785718 0.088319 0.013519
0.804837 0.091752 0.016770
0.823514 0.095079 0.019898
0.841917 0.098436 0.023072
0.860182 0.102037 0.026459
0.000000 0.101915 0.000000
0.000000 0.102403 0.000000
0.011933 0.101411 0.000000
0.054994 0.098421 0.000000
0.097673 0.095247 0.000000
0.134020 0.093172 0.000000
0.164065 0.093294 0.000000
0.196292 0.093812 0.000000
0.230533 0.093889 0.000000
0.265339 0.093767 0.000000
0.300313 0.093675 0.000000
0.335622 0.093721 0.000000
0.370642 0.093736 0.000000
0.405219 0.093797 0.000000
0.439017 0.094072 0.000000
0.471962 0.094774 0.000000
0.503258 0.095506 0.000000
0.533150 0.096468 0.000000
0.561669 0.097658 0.000000
0.588998 0.099275 0.000000
0.614908 0.101030 0.000000
0.639551 0.103044 0.000000
0.662989 0.105379 0.000183
0.685512 0.108202 0.002686
0.707027 0.110948 0.005173
0.727886 0.113863 0.007828
0.748302 0.117144 0.010864
0.768063 0.120317 0.013809
0.787396 0.123568 0.016846
0.806363 0.126864 0.019913
0.825132 0.130434 0.023270
0.843458 0.133776 0.026413
0.861540 0.137148 0.029572
0.000000 0.137972 0.000000
0.000000 0.138888 0.000000
0.002884 0.138399 0.000000
0.046479 0.135485 0.000000
0.092134 0.131685 0.000000
0.135470 0.128527 0.000000
0.173983 0.126192 0.000000
0.204791 0.125841 0.000000
0.236332 0.126314 0.000168
0.269764 0.126741 0.000000
0.304234 0.127092 0.000000
0.338918 0.127245 0.000000
0.373541 0.127459 0.000000
0.408087 0.127977 0.000000
0.441764 0.128527 0.000000
0.474250 0.129152 0.000000
0.505348 0.129976 0.000000
0.535286 0.131273 0.000000
0.563714 0.132601 0.000000
0.590829 0.134173 0.000000
0.616648 0.136004 0.000000
0.641382 0.138293 0.001068
0.664714 0.140658 0.003052
0.687022 0.143313 0.005341
0.708675 0.146380 0.008103
0.729488 0.149355 0.010788
0.749706 0.152438 0.013596
0.769406 0.155612 0.016495
0.788815 0.159106 0.019730
0.807721 0.162402 0.022797
0.826307 0.165743 0.025925
0.844709 0.169345 0.029267
0.862745 0.172686 0.032410
0.000000 0.175143 0.000000
0.000000 0.176013 0.000000
0.000000 0.175708 0.000000
0.036912 0.173388 0.000000
0.084443 0.169558 0.000000
0.130312 0.165881 0.000000
0.174578 0.162600 0.000000
0.214069 0.159915 0.000000
0.246540 0.159213 0.000000
0.277745 0.159564 0.000000
0.310109 0.160220 0.001419
0.343832 0.160876 0.001068
0.378012 0.161456 0.000000
0.411933 0.161975 0.000000
0.445182 0.162707 0.000000
0.477592 0.163790 0.000000
0.508415 0.164813 0.000000
0.537911 0.166018 0.000000
0.566110 0.167422 0.000000
0.593225 0.169299 0.000870
0.618906 0.171221 0.002182
0.643351 0.173404 0.003830
0.666758 0.176074 0.006058
0.688945 0.178759 0.008301
0.710323 0.181598 0.010788
0.731121 0.184726 0.013550
0.751339 0.187945 0.016434
0.770962 0.191135 0.019348
0.790143 0.194400 0.022309
0.809110 0.197925 0.025559
0.827604 0.201236 0.028626
0.845792 0.204562 0.031662
0.863859 0.208103 0.034943
0.000000 0.212711 0.000000
0.000000 0.213794 0.000000
0.000000 0.213886 0.000000
0.027481 0.211810 0.000000
0.074861 0.208133 0.000000
0.122896 0.204211 0.000000
0.169451 0.200626 0.000000
0.214115 0.197421 0.000000
0.254871 0.194537 0.000000
0.288579 0.193286 0.000000
0.319722 0.193591 0.000000
0.351431 0.194278 0.001633
0.383963 0.195117 0.002991
0.417227 0.196185 0.002930
0.449928 0.197101 0.002304
0.481559 0.198123 0.001877
0.512123 0.199435 0.001968
0.541375 0.200900 0.002319
0.569299 0.202457 0.002914
0.595972 0.204211 0.003815
0.621622 0.206424 0.005264
0.645853 0.208652 0.006836
0.668925 0.211139 0.008759
0.691081 0.214008 0.011109
0.712383 0.216999 0.013642
0.732967 0.219989 0.016236
0.752972 0.223102 0.018936
0.772625 0.226520 0.021988
0.791699 0.229755 0.024887
0.810422 0.233005 0.027832
0.828931 0.236530 0.031037
0.847028 0.239826 0.034012
0.864881 0.243091 0.036973
0.000000 0.251133 0.000000
0.000000 0.252262 0.000000
0.000000 0.252338 0.000000
0.018219 0.250614 0.000000
0.065034 0.247562 0.000000
0.113817 0.243519 0.000000
0.162203 0.239384 0.000000
0.208927 0.235996 0.000000
0.254307 0.232685 0.000000
0.295796 0.229770 0.000000
0.330571 0.228214 0.000000
0.362005 0.228305 0.000000
0.393072 0.228931 0.000259
0.424552 0.229923 0.003815
0.455909 0.231235 0.005295
0.486763 0.232593 0.005646
0.516625 0.233921 0.005554
0.545327 0.235401 0.005661
0.573053 0.237308 0.006332
0.599405 0.239155 0.007141
0.624582 0.241215 0.008240
0.648722 0.243671 0.009888
0.671626 0.246265 0.011749
0.693477 0.249012 0.013870
0.714611 0.251987 0.016281
0.735119 0.255116 0.018891
0.754986 0.258213 0.021515
0.774350 0.261387 0.024247
0.793423 0.264820 0.027283
0.812009 0.268055 0.030091
0.830259 0.271275 0.032959
0.848341 0.274723 0.036011
0.866056 0.277913 0.038849
0.000000 0.289860 0.000000
0.000000 0.291096 0.000000
0.000000 0.291463 0.000000
0.009247 0.289830 0.000000
0.055161 0.286961 0.000000
0.103990 0.283452 0.000000
0.153780 0.279179 0.000000
0.202045 0.275151 0.000000
0.249027 0.271458 0.000000
0.294789 0.268360 0.000000
0.336492 0.265461 0.000000
0.372427 0.263676 0.000000
0.404105 0.263416 0.000000
0.434638 0.264088 0.000000
0.464439 0.265156 0.003189
0.493736 0.266484 0.006317
0.522530 0.268223 0.008209
0.550362 0.269856 0.009110
0.577340 0.271626 0.009735
0.603464 0.273732 0.010620
0.628305 0.275883 0.011627
0.651987 0.278218 0.012940
0.674662 0.280903 0.014740
0.696345 0.283757 0.016815
0.717220 0.286625 0.019059
0.737453 0.289616 0.021424
0.757259 0.292912 0.024125
0.776440 0.296010 0.026703
0.795209 0.299168 0.029328
0.813779 0.302556 0.032258
0.831876 0.305745 0.034974
0.849714 0.308919 0.037705
0.867414 0.312245 0.040604
0.000000 0.328954 0.000000
0.000000 0.330297 0.000000
0.000000 0.330571 0.000000
0.000900 0.329259 0.000000
0.046342 0.326650 0.000000
0.094270 0.323217 0.000000
0.144472 0.319005 0.000000
0.194415 0.314946 0.000000
0.242954 0.310903 0.000000
0.289937 0.307271 0.000000
0.335317 0.304143 0.000000
0.377356 0.301305 0.000000
0.413870 0.299382 0.000000
0.445716 0.298802 0.000000
0.475013 0.299519 0.000000
0.503212 0.300557 0.000793
0.530602 0.301946 0.005982
0.557443 0.303822 0.009476
0.583307 0.305653 0.011673
0.608347 0.307652 0.013321
0.632685 0.310002 0.014923
0.655985 0.312413 0.016388
0.678264 0.314946 0.017975
0.699718 0.317830 0.019989
0.720348 0.320745 0.022110
0.740337 0.323690 0.024308
0.759793 0.326711 0.026642
0.778912 0.330022 0.029313
0.797498 0.333120 0.031815
0.815732 0.336217 0.034333
0.833783 0.339498 0.037095
0.851438 0.342550 0.039643
0.868864 0.345586 0.042161
0.000000 0.368170 0.000000
0.000000 0.369696 0.000000
0.000000 0.370062 0.000000
0.000000 0.368673 0.000000
0.037583 0.366186 0.000000
0.085100 0.363287 0.000000
0.134997 0.359258 0.000000
0.185565 0.354849 0.000000
0.235691 0.350698 0.000000
0.284001 0.346685 0.000000
0.330571 0.343191 0.000000
0.375738 0.339971 0.000000
0.417670 0.337285 0.000000
0.454353 0.335302 0.000000
0.485542 0.334585 0.000000
0.513878 0.335088 0.000000
0.540444 0.336049 0.000000
0.566110 0.337453 0.003281
0.591180 0.339376 0.008637
0.615244 0.341314 0.012345
0.638498 0.343450 0.015213
0.661036 0.346014 0.017929
0.682628 0.348562 0.020203
0.703426 0.351278 0.022446
0.723644 0.354116 0.024659
0.743481 0.357229 0.027054
0.762692 0.360143 0.029267
0.781476 0.363149 0.031586
0.799954 0.366339 0.034119
0.818006 0.369375 0.036500
0.835752 0.372381 0.038880
0.853346 0.375570 0.041474
0.870573 0.378470 0.043763
0.000000 0.407584 0.000000
0.000000 0.409018 0.000000
0.000000 0.409369 0.000000
0.000000 0.408240 0.000000
0.029603 0.405829 0.000000
0.076356 0.402853 0.000000
0.125933 0.399329 0.000000
0.176654 0.394980 0.000000
0.227573 0.390356 0.000000
0.277195 0.386069 0.000000
0.325017 0.382361 0.000000
0.371328 0.378866 0.000000
0.415854 0.375677 0.000000
0.457099 0.373114 0.000000
0.492699 0.371252 0.000000
0.523476 0.370367 0.000000
0.550958 0.370672 0.000000
0.576181 0.371466 0.000000
0.600305 0.372763 0.000000
0.623713 0.374685 0.005341
0.646143 0.376654 0.010758
0.667735 0.378882 0.015076
0.688701 0.381552 0.018952
0.708766 0.384161 0.022202
0.728283 0.386908 0.025193
0.747433 0.389853 0.028153
0.766201 0.392859 0.030915
0.784558 0.395758 0.033494
0.802670 0.398856 0.036072
0.820462 0.401770 0.038437
0.837980 0.404623 0.040665
0.855299 0.407538 0.042939
0.872480 0.410529 0.045304
0.000000 0.446662 0.000000
0.000000 0.448310 0.000000
0.000000 0.448676 0.000000
0.000000 0.447333 0.000000
0.022293 0.445228 0.000000
0.068620 0.442374 0.000000
0.117342 0.438758 0.000000
0.168002 0.434760 0.000000
0.219455 0.430030 0.000000
0.270008 0.425391 0.000000
0.318776 0.421225 0.000000
0.366186 0.417563 0.000000
0.411780 0.414160 0.000000
0.455161 0.411124 0.000000
0.494392 0.408743 0.000000
0.529015 0.406882 0.000000
0.559182 0.405905 0.000000
0.586023 0.406027 0.000000
0.610315 0.406653 0.000000
0.633066 0.407828 0.000000
0.654978 0.409628 0.000000
0.675898 0.411566 0.006516
0.696025 0.413794 0.012406
0.715587 0.416480 0.017578
0.734462 0.419104 0.021912
0.752911 0.421790 0.025757
0.771130 0.424720 0.029465
0.788891 0.427512 0.032700
0.806378 0.430335 0.035767
0.823743 0.433295 0.038727
0.840864 0.436149 0.041413
0.857755 0.438849 0.043839
0.874601 0.441688 0.046326
0.000000 0.485588 0.000000
0.000000 0.486992 0.000000
0.000000 0.487572 0.000000
0.000000 0.486213 0.000000
0.015671 0.483864 0.000000
0.061860 0.481285 0.000000
0.110048 0.477791 0.000000
0.160021 0.473686 0.000000
0.211627 0.469093 0.000000
0.262974 0.464347 0.000000
0.312581 0.459785 0.000000
0.360769 0.455680 0.000000
0.407248 0.452064 0.000000
0.451484 0.448814 0.000000
0.492393 0.446006 0.000000
0.529976 0.443809 0.000000
0.563333 0.442023 0.000000
0.592721 0.440955 0.000000
0.618997 0.440909 0.000000
0.642573 0.441367 0.000000
0.664363 0.442405 0.000000
0.685039 0.444114 0.000000
0.704540 0.445960 0.000031
0.723415 0.448096 0.007141
0.741848 0.450660 0.013611
0.759747 0.453117 0.019150
0.777264 0.455665 0.024002
0.794614 0.458442 0.028534
0.811551 0.461006 0.032441
0.828290 0.463569 0.035996
0.844999 0.466316 0.039490
0.861433 0.468849 0.042527
0.877714 0.471336 0.045335
0.000000 0.523781 0.000000
0.000000 0.525048 0.000000
0.000000 0.525246 0.000000
0.000000 0.524041 0.000000
0.009918 0.521675 0.000000
0.055573 0.518883 0.000000
0.103517 0.515694 0.000000
0.152911 0.511711 0.000000
0.204120 0.507088 0.000000
0.255848 0.502327 0.000000
0.306218 0.497658 0.000000
0.355108 0.493172 0.000000
0.402335 0.489311 0.000000
0.447074 0.485756 0.000000
0.488701 0.482765 0.000000
0.527596 0.480110 0.000000
0.563333 0.478096 0.000000
0.595346 0.476417 0.000000
0.624048 0.475410 0.000000
0.649653 0.475135 0.000000
0.672633 0.475364 0.000000
0.693675 0.476188 0.000000
0.713420 0.477729 0.000000
0.731960 0.479423 0.000000
0.749813 0.481346 0.000000
0.767285 0.483574 0.007111
0.784344 0.485740 0.013611
0.801053 0.488029 0.019516
0.817639 0.490547 0.024979
0.833936 0.492851 0.029786
0.850050 0.495186 0.034089
0.866056 0.497566 0.038041
0.881895 0.499779 0.041489
0.000000 0.560281 0.000000
0.000000 0.561593 0.000000
0.000000 0.561654 0.000000
0.000000 0.560113 0.000000
0.005005 0.557885 0.000000
0.050370 0.555047 0.000000
0.097688 0.551690 0.000000
0.146792 0.548043 0.000000
0.197604 0.543542 0.000000
0.249104 0.538628 0.000000
0.300069 0.533928 0.000000
0.349584 0.529198 0.000000
0.397284 0.524910 0.000000
0.442603 0.521172 0.000000
0.484703 0.518059 0.000000
0.524147 0.515221 0.000000
0.560952 0.512871 0.000000
0.594705 0.510842 0.000000
0.625360 0.509255 0.000000
0.653071 0.508263 0.000000
0.678065 0.507973 0.000000
0.700465 0.508064 0.000000
0.720958 0.508797 0.000000
0.739956 0.509941 0.000000
0.757900 0.511376 0.000000
0.775143 0.513054 0.000000
0.791943 0.514992 0.000000
0.808209 0.516884 0.006195
0.824369 0.518959 0.013092
0.840223 0.520974 0.019272
0.855894 0.523018 0.024842
0.871473 0.525139 0.029969
0.886946 0.527199 0.034562
0.000000 0.595438 0.000000
0.000000 0.596323 0.000000
0.000000 0.596414 0.000000
0.000000 0.594797 0.000000
0.000793 0.592294 0.000000
0.046143 0.589624 0.000000
0.093050 0.586236 0.000000
0.141375 0.582406 0.000000
0.191943 0.578180 0.000000
0.243259 0.573343 0.000000
0.294224 0.568383 0.000000
0.344427 0.563699 0.000000
0.392645 0.559136 0.000000
0.438239 0.555032 0.000000
0.480735 0.551720 0.000000
0.520455 0.548684 0.000000
0.557641 0.546090 0.000000
0.592416 0.543984 0.000000
0.624338 0.542031 0.000000
0.653498 0.540520 0.000000
0.680201 0.539727 0.000000
0.704295 0.539269 0.000000
0.726116 0.539315 0.000000
0.746212 0.539986 0.000000
0.764797 0.540780 0.000000
0.782376 0.541863 0.000000
0.799298 0.543343 0.000000
0.815534 0.544839 0.000000
0.831357 0.546441 0.000000
0.846967 0.548257 0.004959
0.862226 0.549935 0.012039
0.877440 0.551614 0.018189
0.892561 0.553460 0.024109
0.000000 0.629038 0.000000
0.000000 0.629740 0.000000
0.000000 0.629526 0.000000
0.000000 0.627878 0.000000
0.000000 0.625269 0.000000
0.042481 0.622354 0.000000
0.089326 0.619150 0.000000
0.137270 0.615366 0.000000
0.187060 0.610986 0.000000
0.238209 0.606348 0.000000
0.289097 0.601358 0.000000
0.339406 0.596353 0.000000
0.388327 0.591821 0.000000
0.434302 0.587533 0.000000
0.476844 0.583780 0.000000
0.516915 0.580636 0.000000
0.554208 0.577798 0.000000
0.589197 0.575387 0.000000
0.622049 0.573480 0.000000
0.652216 0.571725 0.000000
0.679957 0.570336 0.000000
0.705440 0.569574 0.000000
0.728634 0.569100 0.000000
0.749844 0.569085 0.000000
0.769650 0.569574 0.000000
0.788067 0.570169 0.000000
0.805463 0.570993 0.000000
0.822110 0.572091 0.000000
0.838056 0.573236 0.000000
0.853574 0.574487 0.000000
0.868849 0.575998 0.000000
0.883757 0.577386 0.003296
0.898543 0.578897 0.010559
0.000000 0.661006 0.000000
0.000000 0.661555 0.000000
0.000000 0.661128 0.000000
0.000000 0.659251 0.000000
0.000000 0.656748 0.000000
0.039872 0.653727 0.000000
0.086168 0.650309 0.000000
0.133867 0.646632 0.000000
0.183200 0.642329 0.000000
0.233783 0.637598 0.000000
0.284764 0.632776 0.000000
0.335180 0.627665 0.000000
0.384100 0.622797 0.000000
0.430518 0.618433 0.000000
0.473350 0.614527 0.000000
0.513451 0.611032 0.000000
0.551049 0.608164 0.000000
0.586114 0.605524 0.000000
0.619058 0.603311 0.000000
0.649882 0.601480 0.000000
0.678401 0.599878 0.000000
0.704738 0.598688 0.000000
0.729030 0.598032 0.000000
0.751324 0.597574 0.000000
0.772183 0.597543 0.000000
0.791592 0.597681 0.000000
0.809857 0.598047 0.000000
0.827207 0.598703 0.000000
0.843732 0.599451 0.000000
0.859556 0.600259 0.000000
0.874952 0.601297 0.000000
0.889876 0.602274 0.000000
0.904524 0.603326 0.000000
0.000000 0.691463 0.000000
0.000000 0.691936 0.000000
0.000000 0.691295 0.000000
0.000000 0.689265 0.000000
0.000000 0.686610 0.000000
0.037949 0.683604 0.000000
0.083925 0.680125 0.000000
0.131289 0.676448 0.000000
0.180102 0.672129 0.000000
0.230228 0.667384 0.000000
0.280842 0.662531 0.000000
0.331365 0.657481 0.000000
0.380514 0.652506 0.000000
0.427131 0.648005 0.000000
0.470069 0.643870 0.000000
0.510277 0.640146 0.000000
0.547967 0.637049 0.000000
0.583124 0.634272 0.000000
0.616114 0.631876 0.000000
0.647211 0.629953 0.000000
0.676127 0.628168 0.000000
0.702998 0.626703 0.000000
0.728008 0.625772 0.000000
0.751141 0.625055 0.000000
0.772747 0.624598 0.000000
0.793225 0.624491 0.000000
0.812360 0.624399 0.000000
0.830427 0.624491 0.000000
0.847715 0.624903 0.000000
0.864164 0.625315 0.000000
0.879942 0.625849 0.000000
0.895262 0.626551 0.000000
0.910048 0.627146 0.000000
0.000000 0.720500 0.000000
0.000000 0.720607 0.000000
0.000000 0.720012 0.000000
0.000000 0.717876 0.000000
0.000000 0.714992 0.000000
0.036713 0.711971 0.000000
0.082368 0.708400 0.000000
0.129183 0.704570 0.000000
0.177844 0.700450 0.000000
0.227573 0.695750 0.000000
0.277714 0.690806 0.000000
0.328176 0.685771 0.000000
0.377401 0.680674 0.000000
0.423880 0.675944 0.000000
0.467201 0.671839 0.000000
0.507546 0.667994 0.000000
0.545113 0.664561 0.000000
0.580407 0.661677 0.000000
0.613382 0.659068 0.000000
0.644373 0.656855 0.000000
0.673609 0.655146 0.000000
0.700816 0.653559 0.000000
0.726192 0.652323 0.000000
0.749874 0.651408 0.000000
0.772107 0.650629 0.000000
0.793149 0.650126 0.000000
0.813138 0.649851 0.000000
0.832074 0.649638 0.000000
0.850080 0.649622 0.000000
0.867155 0.649577 0.000000
0.883513 0.649622 0.000000
0.899321 0.649897 0.000000
0.914549 0.650156 0.000000
0.000000 0.748074 0.000000
0.000000 0.747982 0.000000
0.000000 0.747021 0.000000
0.000000 0.744915 0.000000
0.000000 0.741970 0.000000
0.036301 0.738750 0.000000
0.081910 0.735286 0.000000
0.128344 0.731380 0.000000
0.176410 0.727047 0.000000
0.225864 0.722515 0.000000
0.275715 0.717617 0.000000
0.325841 0.712489 0.000000
0.375219 0.707500 0.000000
0.421653 0.702632 0.000000
0.464820 0.698253 0.000000
0.505272 0.694347 0.000000
0.542916 0.690791 0.000000
0.578119 0.687678 0.000000
0.611185 0.685039 0.000000
0.642115 0.682612 0.000000
0.671275 0.680674 0.000000
0.698558 0.678965 0.000000
0.724132 0.677562 0.000000
0.748211 0.676539 0.000000
0.770855 0.675578 0.000000
0.792325 0.674723 0.000000
0.812818 0.674113 0.000000
0.832258 0.673533 0.000000
0.850874 0.673106 0.000000
0.868772 0.672892 0.000000
0.885801 0.672648 0.000000
0.902174 0.672511 0.000000
0.917922 0.672435 0.000000
0.000000 0.774121 0.000000
0.000000 0.773999 0.000000
0.000000 0.772931 0.000000
0.000000 0.770657 0.000000
0.000000 0.767620 0.000000
0.036652 0.764294 0.000000
0.081895 0.760693 0.000000
0.128206 0.756878 0.000000
0.175952 0.752560 0.000000
0.224994 0.748028 0.000000
0.274464 0.743099 0.000000
0.324285 0.737942 0.000000
0.373480 0.732921 0.000000
0.419898 0.728038 0.000000
0.463004 0.723552 0.000000
0.503502 0.719554 0.000000
0.541070 0.715831 0.000000
0.576165 0.712489 0.000000
0.609201 0.709697 0.000000
0.640070 0.707164 0.000000
0.669078 0.704967 0.000000
0.696422 0.703212 0.000000
0.721996 0.701610 0.000000
0.746075 0.700252 0.000000
0.769009 0.699168 0.000000
0.790829 0.698146 0.000000
0.811688 0.697276 0.000000
0.831647 0.696590 0.000000
0.850752 0.695888 0.000000
0.869139 0.695354 0.000000
0.886809 0.694804 0.000000
0.903761 0.694362 0.000000
0.920150 0.694102 0.000000
0.000000 0.799130 0.000000
0.000000 0.798825 0.000000
0.000000 0.797574 0.000000
0.000000 0.795132 0.000000
0.000000 0.792157 0.000000
0.037461 0.788785 0.000000
0.082338 0.785061 0.000000
0.128374 0.781186 0.000000
0.175738 0.776852 0.000000
0.224247 0.772229 0.000000
0.273610 0.767468 0.000000
0.323217 0.762341 0.000000
0.371984 0.757168 0.000000
0.418372 0.752270 0.000000
0.461311 0.747692 0.000000
0.501610 0.743465 0.000000
0.539315 0.739773 0.000000
0.574380 0.736339 0.000000
0.607263 0.733318 0.000000
0.638010 0.730571 0.000000
0.666865 0.728145 0.000000
0.694087 0.726192 0.000000
0.719646 0.724498 0.000000
0.743801 0.723064 0.000000
0.766903 0.721859 0.000000
0.788891 0.720653 0.000000
0.809979 0.719554 0.000000
0.830289 0.718685 0.000000
0.849790 0.717830 0.000000
0.868620 0.717037 0.000000
0.886793 0.716396 0.000000
0.904326 0.715724 0.000000
0.921294 0.715160 0.000000
0.000000 0.823056 0.000000
0.000000 0.822492 0.000000
0.000000 0.821256 0.000000
0.000000 0.818692 0.000000
0.000000 0.815473 0.000000
0.038315 0.812131 0.000000
0.082979 0.808408 0.000000
0.128603 0.804425 0.000000
0.175860 0.800183 0.000000
0.223957 0.795529 0.000000
0.272786 0.790677 0.000000
0.322148 0.785595 0.000000
0.370687 0.780438 0.000000
0.416846 0.775479 0.000000
0.459754 0.770871 0.000000
0.499916 0.766491 0.000000
0.537408 0.762585 0.000000
0.572351 0.758968 0.000000
0.605081 0.755749 0.000000
0.635874 0.752987 0.000000
0.664698 0.750454 0.000000
0.691752 0.748257 0.000000
0.717266 0.746456 0.000000
0.741360 0.744869 0.000000
0.764431 0.743481 0.000000
0.786648 0.742290 0.000000
0.807935 0.741115 0.000000
0.828504 0.740124 0.000000
0.848295 0.739086 0.000000
0.867460 0.738109 0.000000
0.886061 0.737316 0.000000
0.904021 0.736492 0.000000
0.921431 0.735714 0.000000
0.000000 0.845975 0.000000
0.000000 0.845243 0.000000
0.000000 0.843824 0.000000
0.000000 0.841260 0.000000
0.000000 0.838010 0.000000
0.039353 0.834607 0.000000
0.083696 0.830793 0.000000
0.128985 0.826734 0.000000
0.175921 0.822477 0.000000
0.223728 0.817838 0.000000
0.272160 0.812970 0.000000
0.321279 0.807935 0.000000
0.369360 0.802701 0.000000
0.415076 0.797589 0.000000
0.457877 0.792920 0.000000
0.497948 0.788479 0.000000
0.535317 0.784421 0.000000
0.570306 0.780804 0.000000
0.602945 0.777432 0.000000
0.633616 0.774487 0.000000
0.662364 0.771832 0.000000
0.689357 0.769528 0.000000
0.714885 0.767651 0.000000
0.738949 0.765972 0.000000
0.761975 0.764477 0.000000
0.784222 0.763195 0.000000
0.805615 0.761913 0.000000
