CUBE/5210 Vibrant.cube
# (null)
# 3 columns rgb, 35937 rows
# created by dwsgrading 2017-03-24 09:18:52 +0000
LUT_3D_SIZE 5
0.000000 0.000000 0.001358
0.213718 0.000000 0.000000
0.481941 0.000000 0.000000
0.689021 0.000000 0.000000
0.846174 0.003586 0.000671
0.000000 0.251133 0.000000
0.254307 0.232685 0.000000
0.516625 0.233921 0.005554
0.714611 0.251987 0.016281
0.866056 0.277913 0.038849
0.000000 0.560281 0.000000
0.197604 0.543542 0.000000
0.560952 0.512871 0.000000
0.757900 0.511376 0.000000
0.886946 0.527199 0.034562
0.000000 0.799130 0.000000
0.175738 0.776852 0.000000
0.539315 0.739773 0.000000
0.766903 0.721859 0.000000
0.921294 0.715160 0.000000
0.000000 0.966918 0.000000
0.169711 0.940688 0.000000
0.519646 0.902876 0.000000
0.745861 0.880308 0.000000
0.909270 0.869566 0.000000
0.000000 0.002045 0.280018
0.248966 0.000000 0.265400
0.511803 0.000000 0.223285
0.707820 0.000000 0.227115
0.861204 0.002258 0.248798
0.000000 0.252659 0.241886
0.229160 0.239307 0.243778
0.509026 0.241886 0.241276
0.712306 0.257847 0.255131
0.864790 0.282414 0.278141
0.000000 0.560784 0.186938
0.172656 0.546410 0.183551
0.538796 0.516381 0.186496
0.725750 0.519219 0.260182
0.865736 0.534981 0.277272
0.000000 0.796231 0.175799
0.153399 0.774472 0.162570
0.510231 0.739696 0.136248
0.746105 0.719661 0.149996
0.896361 0.713420 0.205295
0.000000 0.962097 0.178943
0.145235 0.935973 0.153277
0.485359 0.901030 0.111208
0.723445 0.876951 0.110674
0.891112 0.865690 0.121416
0.000000 0.010788 0.604501
0.179141 0.000000 0.635798
0.563394 0.000000 0.585748
0.778393 0.000000 0.568856
0.928084 0.000000 0.573266
0.000000 0.268376 0.555520
0.156237 0.256748 0.574029
0.551934 0.224674 0.573617
0.754955 0.242817 0.558785
0.895064 0.271183 0.566934
0.000000 0.560220 0.534630
0.153323 0.544182 0.533761
0.505089 0.518517 0.524468
0.705516 0.524483 0.527459
0.853742 0.537118 0.538918
0.000000 0.792477 0.521477
0.132921 0.768841 0.510231
0.469871 0.737346 0.486732
0.717845 0.715923 0.483803
0.857053 0.713909 0.532464
0.000000 0.956619 0.517403
0.121721 0.929122 0.495125
0.447028 0.896040 0.463066
0.691264 0.872877 0.444663
0.866682 0.860548 0.452811
0.000000 0.020310 0.842039
0.118608 0.000000 0.883192
0.548104 0.000000 0.871855
0.804044 0.000000 0.836805
0.969833 0.000000 0.832532
0.000000 0.288289 0.783307
0.109972 0.273289 0.813001
0.519982 0.233036 0.848005
0.786206 0.232685 0.818082
0.943984 0.255665 0.811185
0.000000 0.568978 0.772503
0.119127 0.555505 0.762142
0.454597 0.532738 0.760021
0.734417 0.513283 0.765103
0.884276 0.526238 0.752239
0.000000 0.793149 0.760967
0.117556 0.768536 0.750988
0.454887 0.735195 0.733532
0.696101 0.715419 0.724254
0.843488 0.715831 0.723171
0.000000 0.954681 0.748791
0.105196 0.926329 0.731929
0.432044 0.891966 0.708553
0.667430 0.870771 0.693904
0.849622 0.857923 0.692195
0.000000 0.031693 1.000000
0.084764 0.000000 1.000000
0.519722 0.000000 1.000000
0.803250 0.000000 1.000000
0.985412 0.000000 1.000000
0.000000 0.306416 0.952865
0.082826 0.290089 0.985763
0.481315 0.251698 1.000000
0.779797 0.238773 1.000000
0.959762 0.255085 0.994690
0.000000 0.583947 0.934310
0.084916 0.572854 0.919905
0.423316 0.546151 0.931823
0.707118 0.521370 0.959640
0.904631 0.519402 0.938201
0.000000 0.797971 0.930678
0.101808 0.773404 0.918563
0.428733 0.742596 0.895598
0.658686 0.724987 0.891875
0.862867 0.707347 0.896056
0.000000 0.955306 0.917296
0.093492 0.926574 0.902647
0.420813 0.891722 0.883146
0.657267 0.869841 0.872236
0.837049 0.857954 0.867613
