CUBE/Anywhere_LUT_v0.1.cube
TITLE "Generated by Resolve"
LUT_3D_SIZE 9
0 0 0
0.00759899 0 0
0.251514 0 0.0125734
0.468864 0.0123903 0.0563821
0.641306 0.157168 0.127871
0.737514 0.426139 0.278492
0.882856 0.761028 0.66305
0.963287 0.927184 0.893065
0.988739 0.975036 0.963714
0 0.00898756 0
0.00416571 0.00515755 0
0.223438 0.0101625 0.0078584
0.453117 0.0174716 0.0511635
0.637201 0.148241 0.12604
0.729809 0.406363 0.261051
0.875608 0.744976 0.639033
0.960586 0.922057 0.885023
0.987884 0.973739 0.961425
0 0.113405 0
0 0.114778 0
0.0878157 0.120165 0
0.418982 0.0649729 0.0388647
0.633188 0.152728 0.123323
0.723064 0.388815 0.24538
0.868986 0.728847 0.613886
0.957565 0.916991 0.876387
0.987015 0.972107 0.95874
0 0.263905 0.00306706
0 0.262592 0.00129702
0 0.269444 0
0.335332 0.315404 0.00201419
0.626795 0.237858 0.117159
0.719722 0.386587 0.225513
0.860197 0.714656 0.588373
0.954528 0.911208 0.867811
0.986053 0.97023 0.956024
0 0.397574 0.0382696
0 0.395422 0.0344091
0 0.39881 0.0323033
0 0.453315 0.0365454
0.629099 0.56405 0.140459
0.745007 0.48397 0.201541
0.859144 0.708415 0.56173
0.951308 0.904921 0.858564
0.984817 0.968292 0.953429
0 0.551858 0.25893
0 0.547417 0.25095
0 0.544991 0.243397
0 0.550958 0.244221
0.187167 0.617533 0.272236
0.805783 0.732189 0.346975
0.884428 0.762737 0.52343
0.949233 0.900786 0.845655
0.98407 0.966461 0.950347
0.602869 0.790722 0.558801
0.578271 0.784619 0.550378
0.559533 0.777432 0.543374
0.551324 0.773785 0.536828
0.598901 0.780224 0.533074
0.780941 0.822019 0.535637
0.928634 0.877729 0.610285
0.958083 0.913985 0.827497
0.98352 0.965133 0.946532
0.929091 0.929274 0.838407
0.925551 0.927077 0.832532
0.922621 0.92491 0.82742
0.919081 0.92285 0.821653
0.917174 0.921508 0.814267
0.924071 0.922759 0.808515
0.952056 0.933013 0.812192
0.979385 0.950225 0.846433
0.986618 0.96846 0.940734
0.981445 0.970642 0.944121
0.980713 0.970123 0.942412
0.979767 0.969207 0.940246
0.978759 0.968261 0.93814
0.977951 0.967437 0.935882
0.97734 0.966537 0.933959
0.978836 0.967391 0.932845
0.986267 0.971206 0.934279
0.995514 0.979629 0.946532
0.00204471 0.00476081 0.030457
0.0244602 0.00526436 0.0178378
0.258854 0.00144961 0.0136873
0.467918 0.0124208 0.0560464
0.639597 0.156283 0.126925
0.736599 0.423331 0.277043
0.881559 0.758282 0.65893
0.962951 0.925933 0.891432
0.988571 0.974762 0.963287
0 0.0129702 0.0164034
0.00883497 0.00732433 0.00947585
0.231296 0.0118715 0.00910964
0.452903 0.0169528 0.051133
0.635645 0.146883 0.125109
0.727764 0.402457 0.260426
0.874235 0.741802 0.634165
0.959838 0.921324 0.88365
0.987793 0.973251 0.960845
0 0.113375 0.0197757
0 0.113497 0.0147402
0.094255 0.11603 0.00479133
0.419104 0.0618143 0.0391394
0.631357 0.150576 0.122499
0.720821 0.385351 0.243565
0.866499 0.725429 0.610574
0.956954 0.915618 0.874662
0.986893 0.971893 0.958404
0 0.260853 0.012604
0 0.259434 0.0103304
0 0.264897 0.00357061
0.329992 0.31223 0.00178531
0.624781 0.235462 0.115923
0.717388 0.38378 0.224414
0.859281 0.710918 0.584558
0.954025 0.909926 0.865797
0.985779 0.969833 0.955612
0 0.396063 0.0419318
0 0.393194 0.0387884
0 0.396109 0.0360571
0 0.450172 0.0400092
0.62504 0.562066 0.137881
0.743572 0.479713 0.199817
0.857359 0.704082 0.55639
0.950713 0.90396 0.856687
0.984588 0.968017 0.952667
0 0.550286 0.257755
0 0.546548 0.248432
0 0.542611 0.241245
0 0.548943 0.242313
0.179416 0.615976 0.270222
0.804364 0.73048 0.343893
0.883085 0.759869 0.51873
0.948684 0.89926 0.844099
0.983886 0.966018 0.949569
0.593729 0.788388 0.555886
0.569833 0.781765 0.54786
0.549737 0.774441 0.54078
0.542077 0.771237 0.533944
0.590387 0.777859 0.530495
0.776364 0.819471 0.531243
0.927581 0.876478 0.607355
0.95758 0.912612 0.825162
0.983322 0.964553 0.945708
0.927703 0.928466 0.836164
0.924788 0.926299 0.831174
0.921111 0.92401 0.825132
0.917418 0.921996 0.819211
0.91577 0.920867 0.812741
0.922972 0.92166 0.805814
0.950957 0.932311 0.809766
0.979126 0.949798 0.844434
0.986297 0.968002 0.939895
0.981323 0.97052 0.943587
0.980468 0.969833 0.941512
0.979461 0.968963 0.939315
0.978271 0.968002 0.937224
0.977401 0.967163 0.934951
0.977127 0.966155 0.933257
0.978424 0.966812 0.931899
0.985992 0.970718 0.93341
0.995438 0.979492 0.946258
0.0012665 0.0103304 0.212131
0.0331121 0.0102083 0.202213
0.250919 0.000839246 0.16022
0.472557 0.0176242 0.0805982
0.632776 0.159152 0.123156
0.735119 0.420401 0.285451
0.880125 0.755596 0.654932
0.962127 0.925246 0.889921
0.988403 0.974517 0.962737
0 0.0162814 0.198352
0.0236362 0.0154421 0.188983
0.232013 0.00749218 0.150484
0.457435 0.0210422 0.0700847
0.629419 0.14902 0.121691
0.726375 0.400961 0.268772
0.872755 0.738781 0.630182
0.95903 0.920058 0.882414
0.987579 0.97293 0.960388
0 0.10486 0.161471
0 0.10135 0.153292
0.118196 0.098909 0.125124
0.42533 0.0593881 0.0584268
0.626093 0.150835 0.119753
0.718593 0.38294 0.251362
0.864576 0.722271 0.606287
0.955932 0.914427 0.873549
0.986557 0.971389 0.957732
0 0.250751 0.0676432
0 0.24889 0.0642252
0 0.256168 0.0556802
0.322026 0.308446 0.0457008
0.61973 0.233631 0.11339
0.714778 0.379934 0.232517
0.857954 0.707256 0.583215
0.95314 0.908385 0.864225
0.985565 0.969528 0.955139
0 0.396841 0.0664073
0 0.39324 0.0623026
0 0.395514 0.0597391
0 0.44062 0.0661479
0.619196 0.56022 0.134752
0.740673 0.477455 0.203769
0.854765 0.70103 0.554513
0.949783 0.902342 0.854566
0.984527 0.967529 0.952209
0 0.551003 0.262272
0 0.54638 0.253513
0 0.543221 0.245533
0 0.548882 0.246326
0.166293 0.613306 0.274342
0.802228 0.729534 0.34258
0.881071 0.757488 0.516472
0.947692 0.898116 0.841947
0.983673 0.965454 0.94902
0.586236 0.784726 0.553155
0.562554 0.778073 0.546136
0.540719 0.772335 0.538964
0.532555 0.768505 0.532326
0.580911 0.775372 0.529488
0.772442 0.816983 0.528176
0.927199 0.875196 0.603571
0.957 0.911345 0.823484
0.983093 0.964096 0.945113
0.92668 0.927489 0.834165
0.92343 0.925475 0.828779
0.919844 0.923415 0.822843
0.916045 0.921096 0.816785
0.913695 0.920211 0.810529
0.92163 0.92105 0.80351
0.9505 0.931548 0.807126
0.979034 0.949126 0.842298
0.986145 0.967681 0.938704
0.980804 0.970306 0.942702
0.980072 0.969299 0.940749
0.979019 0.968551 0.938567
0.977981 0.967803 0.936431
0.976898 0.966934 0.934264
0.976623 0.965805 0.932265
0.978119 0.966537 0.931029
0.985794 0.970443 0.932525
0.995331 0.979294 0.945388
0 0.0671855 0.397864
0.000350958 0.0647593 0.391211
0.0828412 0.0669413 0.383612
0.450645 0.0499123 0.345922
0.618753 0.16463 0.255543
0.730587 0.424704 0.334127
0.87744 0.754894 0.662211
0.961639 0.924346 0.888762
0.988266 0.974319 0.962478
0 0.063859 0.384375
0 0.0615396 0.37847
0.0759747 0.0623789 0.370245
0.435904 0.0436866 0.333837
0.614038 0.155428 0.244572
0.723201 0.40444 0.316335
0.869871 0.738064 0.636942
0.958526 0.919188 0.880705
0.987076 0.972869 0.960266
0 0.0785992 0.3664
0 0.0760662 0.359747
0.0569772 0.0767376 0.352804
0.415579 0.0635691 0.3205
0.608759 0.155749 0.232792
0.715572 0.38613 0.29926
0.861997 0.72105 0.612268
0.955322 0.913252 0.871733
0.985977 0.971298 0.95761
0 0.242496 0.292927
0 0.239109 0.288243
0 0.246754 0.287846
0.308171 0.294743 0.317754
0.602029 0.224002 0.220279
0.710552 0.382605 0.281147
0.85565 0.705058 0.588006
0.95259 0.907561 0.86276
0.985031 0.969467 0.95462
0 0.409384 0.180987
0 0.405509 0.17612
0 0.406516 0.173846
0 0.439246 0.188235
0.601587 0.560418 0.216114
0.735058 0.477012 0.25568
0.852094 0.698421 0.561929
0.94844 0.900801 0.852949
0.984375 0.967254 0.951659
0 0.55639 0.293324
0 0.55172 0.284001
0 0.548913 0.277043
0 0.554116 0.277424
0.15433 0.608209 0.307088
0.801114 0.732311 0.345296
0.879103 0.755001 0.52517
0.946975 0.89688 0.840253
0.983398 0.965179 0.948516
0.58024 0.783536 0.55671
0.556069 0.776394 0.549264
0.533043 0.770733 0.541848
0.5243 0.766033 0.535943
0.576135 0.773846 0.532921
0.769818 0.816159 0.532036
0.925917 0.874815 0.602304
0.956115 0.910201 0.821561
0.982864 0.963668 0.944732
0.924788 0.926925 0.832837
0.921843 0.924895 0.827405
0.918654 0.922606 0.821347
0.914946 0.920623 0.815778
0.913359 0.918532 0.809506
0.91989 0.920195 0.803128
0.949584 0.930877 0.805081
0.978821 0.948623 0.841886
0.985992 0.967285 0.93814
0.980606 0.970001 0.941802
0.979522 0.96907 0.939834
0.978592 0.968215 0.938033
0.977584 0.9673 0.935622
0.976638 0.966339 0.933349
0.976181 0.96553 0.931289
0.977798 0.966079 0.930007
0.985672 0.97026 0.931731
0.995209 0.97908 0.944533
0.0351568 0.293202 0.569375
0.0354925 0.286671 0.564996
0.0728618 0.281025 0.561349
0.238102 0.290013 0.560754
0.598566 0.307637 0.536522
0.737697 0.466423 0.493339
0.874327 0.757137 0.706462
0.960647 0.923323 0.890669
0.987869 0.974411 0.962249
0.0221256 0.278004 0.559609
0.0223087 0.269963 0.555001
0.0580758 0.266346 0.551904
0.224262 0.275456 0.550652
0.590539 0.290883 0.525444
0.729213 0.447196 0.480171
0.867079 0.741497 0.68397
0.958038 0.917784 0.882673
0.986847 0.972885 0.95993
0.00660716 0.266148 0.55021
0.00820935 0.259617 0.545266
0.0420233 0.255634 0.541833
0.208682 0.264897 0.540383
0.583215 0.280842 0.516655
0.719585 0.429892 0.465904
0.859693 0.724376 0.658824
0.954314 0.912367 0.873869
0.985855 0.971008 0.957229
0 0.27805 0.538735
0 0.271153 0.533928
0.00987259 0.267689 0.529992
0.185245 0.27921 0.53077
0.578225 0.299504 0.511513
0.712642 0.424277 0.454902
0.853574 0.70927 0.633555
0.951064 0.906172 0.864469
0.98497 0.968673 0.954208
0 0.457694 0.496712
0 0.452445 0.491524
0 0.452308 0.488609
0 0.473594 0.501183
0.594247 0.57499 0.578271
0.724132 0.490791 0.453956
0.848905 0.700755 0.608331
0.948043 0.899321 0.854887
0.984207 0.966354 0.951293
0 0.577676 0.417777
0 0.57322 0.411048
0 0.570275 0.405295
0 0.57409 0.405097
0.23418 0.620478 0.44831
0.802029 0.747219 0.461021
0.873274 0.756024 0.581567
0.945571 0.895781 0.842374
0.983108 0.964828 0.948196
0.58613 0.786923 0.587304
0.562234 0.779904 0.578668
0.539467 0.773068 0.570397
0.530678 0.769863 0.563607
0.582025 0.776394 0.560296
0.772839 0.818265 0.560479
0.926207 0.876219 0.611307
0.955062 0.909453 0.824537
0.982559 0.963256 0.944411
0.922362 0.926543 0.835004
0.918898 0.924437 0.829236
0.91577 0.922347 0.823468
0.912215 0.920119 0.818006
0.911162 0.918441 0.811292
0.918318 0.919509 0.804593
0.948928 0.930678 0.806485
0.977798 0.948287 0.841489
0.985504 0.967056 0.937652
0.980194 0.969451 0.941009
0.979232 0.968597 0.939071
0.978439 0.967666 0.937209
0.977371 0.966659 0.935241
0.976501 0.965652 0.933318
0.97583 0.96524 0.930938
0.977584 0.965805 0.929427
0.985428 0.969955 0.931105
0.995148 0.978607 0.943755
0.421851 0.575128 0.721843
0.408469 0.566598 0.716808
0.401373 0.560571 0.711452
0.419364 0.556191 0.709178
0.53434 0.568338 0.7149
0.756542 0.611032 0.725338
0.867979 0.778027 0.798444
0.958938 0.924102 0.902571
0.98761 0.973953 0.96257
0.394232 0.558572 0.711559
0.379767 0.550698 0.706294
0.373526 0.543679 0.701289
0.393225 0.539742 0.699657
0.515435 0.551904 0.704143
0.746639 0.594339 0.713405
0.86128 0.761227 0.782559
0.956024 0.919051 0.895872
0.986648 0.972366 0.960052
0.36585 0.543282 0.701411
0.352514 0.535271 0.697398
0.3467 0.528191 0.691951
0.366659 0.525032 0.689693
0.494575 0.535851 0.693843
0.736965 0.578546 0.702388
0.853956 0.745373 0.767208
0.952941 0.912779 0.888594
0.985565 0.97055 0.95761
0.335225 0.53164 0.692836
0.322484 0.522667 0.687556
0.3178 0.516106 0.683009
0.339864 0.512657 0.680491
0.47483 0.524147 0.68481
0.729213 0.56585 0.693263
0.848203 0.730877 0.75227
0.949615 0.906157 0.8804
0.984466 0.968582 0.954818
0.307164 0.537118 0.686244
0.295109 0.530083 0.679927
0.286412 0.523064 0.675761
0.313191 0.520882 0.674266
0.458808 0.534997 0.681331
0.728634 0.57673 0.693019
0.845029 0.723217 0.738857
0.945983 0.899962 0.871061
0.983307 0.966369 0.951766
0.247898 0.659449 0.678325
0.232303 0.651896 0.671962
0.223713 0.646998 0.667521
0.255665 0.64831 0.667704
0.432212 0.682612 0.695857
0.791669 0.781338 0.776211
0.856031 0.759991 0.746258
0.943771 0.896147 0.860548
0.982513 0.964462 0.948653
0.621515 0.806577 0.717906
0.602029 0.799435 0.706935
0.585031 0.792294 0.696147
0.576059 0.788251 0.687022
0.616693 0.793957 0.688014
0.784649 0.833692 0.70425
0.922271 0.880644 0.71342
0.953292 0.910552 0.844114
0.982162 0.963104 0.944717
0.920043 0.926604 0.849378
0.916304 0.924544 0.844633
0.912642 0.922118 0.839979
0.909407 0.920272 0.834943
0.908202 0.91841 0.829313
0.914946 0.91928 0.821057
0.946578 0.930571 0.821469
0.976898 0.948684 0.851972
0.985168 0.966827 0.938766
0.979721 0.969284 0.941634
0.978821 0.968414 0.939513
0.977783 0.967483 0.937423
0.976898 0.966506 0.935653
0.975845 0.965499 0.93344
0.975006 0.965042 0.931121
0.977096 0.965286 0.929671
0.984894 0.969772 0.931228
0.99498 0.978515 0.943969
0.793164 0.842817 0.892592
0.784833 0.836423 0.888853
0.777188 0.830243 0.88481
0.772549 0.82501 0.881376
0.774426 0.822431 0.878325
0.816114 0.829618 0.882963
0.900786 0.877226 0.913802
0.955352 0.933318 0.940963
0.986755 0.973877 0.966155
0.77731 0.831128 0.884855
0.769039 0.824369 0.880354
0.760769 0.817746 0.875761
0.75491 0.811856 0.872267
0.757809 0.810117 0.869383
0.803677 0.817594 0.874632
0.894804 0.865599 0.904433
0.952316 0.928893 0.936919
0.985687 0.972519 0.963836
0.760571 0.818418 0.8757
0.751202 0.811109 0.871382
0.742351 0.804196 0.866423
0.736736 0.798505 0.862409
0.741527 0.795789 0.859709
0.790219 0.804532 0.865431
0.888243 0.85362 0.894728
0.948943 0.923949 0.93254
0.984573 0.970443 0.961669
0.742535 0.804776 0.865995
0.733455 0.79733 0.86125
0.724056 0.790234 0.856336
0.717556 0.784085 0.852781
0.725109 0.780804 0.849546
0.77435 0.790768 0.856382
0.882521 0.840543 0.883253
0.945922 0.918029 0.927687
0.983536 0.968383 0.959197
0.724163 0.794415 0.858198
0.714305 0.787091 0.853513
0.706127 0.779141 0.848432
0.701534 0.771344 0.843229
0.706523 0.768093 0.840101
0.762493 0.779248 0.84686
0.875242 0.829358 0.873655
0.942855 0.912291 0.922072
0.982406 0.966308 0.956619
0.71284 0.793545 0.852827
0.702602 0.78645 0.847852
0.691859 0.779004 0.842802
0.684245 0.772152 0.83798
0.691234 0.76939 0.835401
0.753079 0.779278 0.842435
0.873793 0.827893 0.868955
0.940322 0.907378 0.915068
0.98146 0.964446 0.953628
0.751644 0.864591 0.876295
0.740841 0.859571 0.87129
0.730999 0.855467 0.867018
0.72343 0.851255 0.863005
0.731731 0.85127 0.861814
0.786862 0.866285 0.871763
0.906889 0.902358 0.898909
0.946593 0.913939 0.905989
0.980987 0.962737 0.950134
0.910826 0.93254 0.903441
0.906874 0.930663 0.901457
0.902892 0.928832 0.899229
0.899077 0.926909 0.896773
0.895933 0.925429 0.893568
0.904326 0.925261 0.885054
0.938064 0.933944 0.876661
0.972747 0.951644 0.891493
0.983993 0.966918 0.944472
0.978698 0.969543 0.945953
0.977707 0.968582 0.944076
0.976745 0.967773 0.942031
0.975692 0.966873 0.940261
0.974807 0.966003 0.938399
0.974243 0.965408 0.936217
0.975753 0.96582 0.934707
0.983993 0.969909 0.936553
0.994003 0.979004 0.947158
0.930465 0.954589 0.973785
0.928664 0.952499 0.972396
0.92668 0.950515 0.970855
0.924651 0.948699 0.969619
0.923125 0.946761 0.968093
0.923415 0.945678 0.967361
0.931899 0.949935 0.970993
0.954513 0.966583 0.981201
0.984543 0.976852 0.978897
0.92665 0.950561 0.970871
0.924743 0.948699 0.969406
0.922606 0.946715 0.967742
0.920134 0.944366 0.966079
0.919081 0.942672 0.964691
0.919554 0.941375 0.963729
0.928298 0.945556 0.967559
0.951904 0.964508 0.979721
0.983719 0.975021 0.977417
0.922637 0.946715 0.967742
0.920348 0.94464 0.966018
0.917845 0.942245 0.964309
0.915526 0.939956 0.962509
0.913954 0.938033 0.960708
0.914519 0.936782 0.959945
0.92488 0.940764 0.963928
0.949081 0.962219 0.978149
0.982467 0.973159 0.97583
0.917891 0.942321 0.96437
0.915496 0.940002 0.962509
0.912947 0.937896 0.960525
0.910079 0.935485 0.95874
0.908202 0.93315 0.956939
0.909133 0.932357 0.956176
0.920867 0.935576 0.959976
0.947112 0.959228 0.976364
0.980911 0.971481 0.974304
0.913375 0.938018 0.960739
0.910506 0.935531 0.958801
0.907591 0.932815 0.956695
0.904433 0.930556 0.954833
0.902693 0.9281 0.952972
0.903655 0.927153 0.952102
0.916014 0.930983 0.956039
0.944137 0.956252 0.974441
0.979614 0.969573 0.972564
0.908583 0.933471 0.957229
0.905409 0.930938 0.955184
0.902586 0.927855 0.952911
0.89984 0.925155 0.950942
0.897292 0.923018 0.948852
0.898222 0.921538 0.947601
0.912139 0.925856 0.952071
0.942397 0.95314 0.972229
0.978363 0.967788 0.970901
0.905226 0.932982 0.954849
0.902205 0.930251 0.952804
0.898894 0.927703 0.950622
0.89543 0.924819 0.948425
0.893111 0.922454 0.946258
0.894469 0.920851 0.945235
0.909773 0.92491 0.948898
0.942306 0.949706 0.969451
0.977905 0.966247 0.9682
0.92047 0.952346 0.956313
0.917739 0.950896 0.954986
0.915114 0.94934 0.95349
0.912016 0.947616 0.952071
0.909102 0.946303 0.950988
0.910323 0.946181 0.949874
0.925429 0.950317 0.951293
0.962692 0.961517 0.960021
0.979995 0.967727 0.964096
0.973953 0.973251 0.959838
0.972793 0.972335 0.958556
0.971878 0.97145 0.957427
0.970672 0.970504 0.956359
0.969558 0.969909 0.954818
0.969085 0.969284 0.953735
0.97055 0.969482 0.952285
0.978973 0.973388 0.952468
0.991333 0.980957 0.958526
0.97171 0.986465 0.995331
0.970871 0.985916 0.994995
0.970047 0.985382 0.994629
0.969268 0.984894 0.994324
0.968399 0.984314 0.993973
0.967376 0.983993 0.993683
0.967422 0.983627 0.993561
0.971115 0.984787 0.993973
0.982391 0.98967 0.995773
0.970199 0.985489 0.99469
0.969299 0.984909 0.994324
0.968338 0.984283 0.993973
0.967422 0.983658 0.993622
0.966567 0.983124 0.993255
0.965743 0.982818 0.992981
0.965972 0.982376 0.992752
0.969024 0.983551 0.993225
0.981262 0.988785 0.995239
0.968292 0.984253 0.993957
0.967559 0.983719 0.993667
0.966628 0.983169 0.993286
0.965743 0.982574 0.992844
0.964874 0.98204 0.992416
0.963973 0.981292 0.992142
0.964096 0.980972 0.991928
0.967254 0.982208 0.992416
0.979721 0.987961 0.994614
0.966613 0.983154 0.993271
0.965774 0.982605 0.992844
0.964889 0.982055 0.992432
0.964004 0.981476 0.992035
0.96286 0.980713 0.991547
0.96202 0.979767 0.991287
0.962127 0.979477 0.991058
0.96553 0.980774 0.991608
0.978241 0.987045 0.993927
0.96492 0.982071 0.992432
0.963989 0.98146 0.99202
0.962936 0.980774 0.991592
0.961807 0.97998 0.99118
0.960662 0.979217 0.990677
0.959777 0.978332 0.990326
0.959777 0.97792 0.990158
0.963775 0.979355 0.990738
0.977462 0.98587 0.99324
0.962951 0.980789 0.991608
0.961791 0.979995 0.991196
0.960601 0.979202 0.990662
0.959716 0.978424 0.990173
0.958526 0.97763 0.989792
0.957534 0.976715 0.989364
0.957137 0.976226 0.989136
0.961486 0.97792 0.989929
0.976196 0.984771 0.992523
0.961318 0.979187 0.990814
0.960143 0.978393 0.99028
0.958801 0.977584 0.989761
0.957504 0.976761 0.989273
0.95613 0.975906 0.988785
0.955276 0.975219 0.988312
0.95523 0.974609 0.988006
0.959472 0.976242 0.988663
0.975006 0.983368 0.991638
0.961212 0.97763 0.989151
0.960113 0.976883 0.988754
0.958648 0.976059 0.988205
0.957229 0.975372 0.987564
0.956024 0.974502 0.987152
0.954955 0.973846 0.986648
0.955032 0.973358 0.986389
0.959518 0.974838 0.987015
0.975204 0.98146 0.990127
0.971206 0.982727 0.984421
0.970245 0.982315 0.983795
0.969146 0.98172 0.983047
0.968078 0.98117 0.982467
0.967086 0.980362 0.981826
0.96672 0.979721 0.98117
0.967025 0.979675 0.980957
0.971038 0.981018 0.981582
0.985687 0.985565 0.984726
