CUBE/Anywhere_LUT_v0.1.cube
TITLE "Generated by Resolve"
LUT_3D_SIZE 5
0 0 0
0.251514 0 0.0125734
0.641306 0.157168 0.127871
0.882856 0.761028 0.66305
0.988739 0.975036 0.963714
0 0.113405 0
0.0878157 0.120165 0
0.633188 0.152728 0.123323
0.868986 0.728847 0.613886
0.987015 0.972107 0.95874
0 0.397574 0.0382696
0 0.39881 0.0323033
0.629099 0.56405 0.140459
0.859144 0.708415 0.56173
0.984817 0.968292 0.953429
0.602869 0.790722 0.558801
0.559533 0.777432 0.543374
0.598901 0.780224 0.533074
0.928634 0.877729 0.610285
0.98352 0.965133 0.946532
0.981445 0.970642 0.944121
0.979767 0.969207 0.940246
0.977951 0.967437 0.935882
0.978836 0.967391 0.932845
0.995514 0.979629 0.946532
0.0012665 0.0103304 0.212131
0.250919 0.000839246 0.16022
0.632776 0.159152 0.123156
0.880125 0.755596 0.654932
0.988403 0.974517 0.962737
0 0.10486 0.161471
0.118196 0.098909 0.125124
0.626093 0.150835 0.119753
0.864576 0.722271 0.606287
0.986557 0.971389 0.957732
0 0.396841 0.0664073
0 0.395514 0.0597391
0.619196 0.56022 0.134752
0.854765 0.70103 0.554513
0.984527 0.967529 0.952209
0.586236 0.784726 0.553155
0.540719 0.772335 0.538964
0.580911 0.775372 0.529488
0.927199 0.875196 0.603571
0.983093 0.964096 0.945113
0.980804 0.970306 0.942702
0.979019 0.968551 0.938567
0.976898 0.966934 0.934264
0.978119 0.966537 0.931029
0.995331 0.979294 0.945388
0.0351568 0.293202 0.569375
0.0728618 0.281025 0.561349
0.598566 0.307637 0.536522
0.874327 0.757137 0.706462
0.987869 0.974411 0.962249
0.00660716 0.266148 0.55021
0.0420233 0.255634 0.541833
0.583215 0.280842 0.516655
0.859693 0.724376 0.658824
0.985855 0.971008 0.957229
0 0.457694 0.496712
0 0.452308 0.488609
0.594247 0.57499 0.578271
0.848905 0.700755 0.608331
0.984207 0.966354 0.951293
0.58613 0.786923 0.587304
0.539467 0.773068 0.570397
0.582025 0.776394 0.560296
0.926207 0.876219 0.611307
0.982559 0.963256 0.944411
0.980194 0.969451 0.941009
0.978439 0.967666 0.937209
0.976501 0.965652 0.933318
0.977584 0.965805 0.929427
0.995148 0.978607 0.943755
0.793164 0.842817 0.892592
0.777188 0.830243 0.88481
0.774426 0.822431 0.878325
0.900786 0.877226 0.913802
0.986755 0.973877 0.966155
0.760571 0.818418 0.8757
0.742351 0.804196 0.866423
0.741527 0.795789 0.859709
0.888243 0.85362 0.894728
0.984573 0.970443 0.961669
0.724163 0.794415 0.858198
0.706127 0.779141 0.848432
0.706523 0.768093 0.840101
0.875242 0.829358 0.873655
0.982406 0.966308 0.956619
0.751644 0.864591 0.876295
0.730999 0.855467 0.867018
0.731731 0.85127 0.861814
0.906889 0.902358 0.898909
0.980987 0.962737 0.950134
0.978698 0.969543 0.945953
0.976745 0.967773 0.942031
0.974807 0.966003 0.938399
0.975753 0.96582 0.934707
0.994003 0.979004 0.947158
0.97171 0.986465 0.995331
0.970047 0.985382 0.994629
0.968399 0.984314 0.993973
0.967422 0.983627 0.993561
0.982391 0.98967 0.995773
0.968292 0.984253 0.993957
0.966628 0.983169 0.993286
0.964874 0.98204 0.992416
0.964096 0.980972 0.991928
0.979721 0.987961 0.994614
0.96492 0.982071 0.992432
0.962936 0.980774 0.991592
0.960662 0.979217 0.990677
0.959777 0.97792 0.990158
0.977462 0.98587 0.99324
0.961318 0.979187 0.990814
0.958801 0.977584 0.989761
0.95613 0.975906 0.988785
0.95523 0.974609 0.988006
0.975006 0.983368 0.991638
0.971206 0.982727 0.984421
0.969146 0.98172 0.983047
0.967086 0.980362 0.981826
0.967025 0.979675 0.980957
0.985687 0.985565 0.984726
