CUBE/Anywhere_LUT_v0.1.cube
TITLE "Generated by Resolve"
LUT_3D_SIZE 33
0 0 0
0 0 0
0 0 0
0 0 0
0.00759899 0 0
0.0434882 0.00874342 0.00520333
0.101259 0.0137331 0.00923171
0.183291 0.00125124 0.00683604
0.251514 0 0.0125734
0.312398 0 0.0222782
0.367193 0 0.0311131
0.418524 0.0016022 0.0419776
0.468864 0.0123903 0.0563821
0.523003 0.0295567 0.0762951
0.571633 0.0534218 0.0973526
0.619684 0.103487 0.118441
0.641306 0.157168 0.127871
0.658137 0.213672 0.135363
0.67393 0.274189 0.163241
0.70219 0.34316 0.215244
0.737514 0.426139 0.278492
0.775845 0.513207 0.357259
0.813733 0.593042 0.446342
0.849317 0.688258 0.559075
0.882856 0.761028 0.66305
0.907652 0.82208 0.748226
0.931029 0.867979 0.810162
0.950454 0.903609 0.856336
0.963287 0.927184 0.893065
0.972412 0.944503 0.918868
0.97995 0.957732 0.938537
0.984695 0.967819 0.952758
0.988739 0.975036 0.963714
0 0 0
0 0 0
0 0 0
0 0 0
0.00588998 0 0
0.0407111 0.00816358 0.00488289
0.09691 0.0137179 0.00907912
0.177874 0.002533 0.00715648
0.247578 0 0.0120089
0.308949 0 0.0217288
0.364446 0 0.0306096
0.415198 0.00149538 0.0411994
0.465583 0.0116884 0.055436
0.520119 0.0282444 0.0749218
0.568505 0.0512703 0.095964
0.617792 0.10013 0.117571
0.640146 0.154147 0.127184
0.657374 0.210803 0.135134
0.673396 0.270817 0.160555
0.69987 0.337682 0.211307
0.735927 0.420874 0.274342
0.772793 0.507912 0.351827
0.811429 0.588052 0.440238
0.846586 0.683207 0.552239
0.881636 0.756878 0.656077
0.906401 0.818372 0.743618
0.930236 0.865827 0.80737
0.949233 0.901686 0.853651
0.9626 0.92604 0.890974
0.971786 0.944091 0.917418
0.979522 0.957061 0.937728
0.984512 0.967483 0.95198
0.988571 0.974762 0.963302
0 0 0
0 0 0
0 0 0
0 0 0
0.00419623 0 0
0.037232 0.00833143 0.00448615
0.0899977 0.0149996 0.00875868
0.170169 0.00616464 0.00698863
0.241337 0.000915541 0.010956
0.302861 0.00131228 0.0204471
0.359518 0.000579843 0.029633
0.41088 0.00375372 0.0398871
0.461585 0.0124971 0.054139
0.516732 0.0280613 0.0736553
0.565347 0.0501869 0.0946517
0.61503 0.0987259 0.116289
0.639246 0.151781 0.127077
0.656321 0.206577 0.134813
0.672602 0.266468 0.157656
0.698131 0.333532 0.208667
0.734112 0.416083 0.269718
0.770336 0.502266 0.346548
0.809354 0.583932 0.43534
0.844556 0.67715 0.544549
0.879393 0.753048 0.650446
0.905028 0.81474 0.740322
0.928588 0.863279 0.804288
0.948226 0.899168 0.851026
0.962142 0.92459 0.889082
0.97116 0.943145 0.915602
0.979019 0.956237 0.936248
0.984161 0.966934 0.951308
0.988281 0.974334 0.962493
0 0 0
0 0 0
0 0 0
0 0 0
0.00321965 0 0
0.0339971 0.0089723 0.00411994
0.0819867 0.0168002 0.00839246
0.160098 0.0109255 0.00675975
0.232929 0.005066 0.00956741
0.294789 0.00529488 0.0191806
0.352926 0.0037995 0.0284123
0.405463 0.00616464 0.0382239
0.45745 0.0147402 0.0526894
0.512352 0.0298924 0.0719615
0.562692 0.0502785 0.0934615
0.612345 0.097322 0.115129
0.638636 0.150072 0.126528
0.655497 0.204166 0.134188
0.672557 0.263325 0.154711
0.69575 0.328374 0.205127
0.731456 0.411368 0.265827
0.768383 0.497383 0.342184
0.807675 0.57847 0.429435
0.842512 0.670542 0.536889
0.877607 0.749569 0.645609
0.902983 0.81181 0.735729
0.927108 0.860853 0.800351
0.947051 0.897444 0.848768
0.961379 0.923415 0.886915
0.970336 0.942275 0.914473
0.978866 0.95552 0.935363
0.983886 0.966217 0.950317
0.988083 0.97406 0.961852
0 0.00898756 0
0 0.00883497 0
0 0 0
0 0 0
0.00416571 0.00515755 0
0.0295415 0.0139467 0.00427253
0.0727092 0.0208896 0.00776684
0.148684 0.0168917 0.00624094
0.223438 0.0101625 0.0078584
0.28603 0.00993362 0.0175021
0.345678 0.00814832 0.0269932
0.399161 0.0103914 0.0365606
0.453117 0.0174716 0.0511635
0.508736 0.0316472 0.0704204
0.56054 0.0509957 0.0922866
0.609201 0.0954299 0.113497
0.637201 0.148241 0.12604
0.655024 0.20116 0.1337
0.671443 0.260319 0.152193
0.694102 0.325185 0.202014
0.729809 0.406363 0.261051
0.765728 0.49189 0.336599
0.805707 0.574243 0.42472
0.839307 0.667124 0.530526
0.875608 0.744976 0.639033
0.901289 0.808026 0.730404
0.926223 0.858824 0.796963
0.945876 0.895399 0.845991
0.960586 0.922057 0.885023
0.969848 0.941512 0.913252
0.978469 0.954864 0.934401
0.983642 0.965805 0.949783
0.987884 0.973739 0.961425
0 0.0181125 0
0 0.0175784 0
0 0.0160525 0
0 0.0162051 0
0.000259403 0.0201267 0.00184634
0.022797 0.0269017 0.0047303
0.0584115 0.0332036 0.0061799
0.126894 0.0319829 0.00421149
0.207538 0.0216526 0.00512703
0.274525 0.0169985 0.0154269
0.33576 0.0149386 0.0251164
0.39173 0.0155795 0.0344396
0.447837 0.0209506 0.0492714
0.50457 0.0344244 0.0684825
0.557031 0.0531777 0.0908064
0.605844 0.093843 0.112108
0.6365 0.147387 0.125475
0.653758 0.199115 0.13341
0.670069 0.25774 0.149828
0.692119 0.320867 0.19852
0.728573 0.401328 0.256687
0.764477 0.487205 0.33135
0.803281 0.569619 0.418936
0.837003 0.661463 0.523125
0.874357 0.741054 0.632547
0.900343 0.804547 0.726223
0.92491 0.855589 0.793698
0.944976 0.893202 0.843259
0.959976 0.920928 0.883177
0.969116 0.940444 0.911482
0.978027 0.953796 0.932998
0.983322 0.965209 0.949081
0.987701 0.973114 0.960678
0 0.0416419 0.000671397
0 0.0409247 0.000564584
0 0.0401923 0.00102235
0 0.0404974 0.00198367
0 0.0425879 0.00297551
0.00982681 0.0470588 0.00369268
0.0420081 0.0518654 0.00311284
0.0990005 0.0537575 0
0.176593 0.046479 0.000518807
0.252049 0.0357214 0.0113222
0.321752 0.0263676 0.0223087
0.3823 0.024094 0.031754
0.440726 0.0283207 0.0468452
0.500069 0.0406348 0.066453
0.553689 0.056672 0.0888685
0.602914 0.0954452 0.110231
0.635309 0.147021 0.124727
0.652415 0.199451 0.132372
0.669581 0.254994 0.147005
0.691051 0.316686 0.194461
0.72639 0.397024 0.252735
0.763012 0.482521 0.326589
0.800824 0.564355 0.413016
0.835019 0.656413 0.516182
0.872511 0.736507 0.625422
0.898787 0.800778 0.720241
0.923369 0.853437 0.790112
0.943664 0.891203 0.840299
0.959228 0.919707 0.880858
0.96875 0.939391 0.909865
0.977615 0.953017 0.93196
0.983063 0.964462 0.948043
0.987488 0.972808 0.959976
0 0.0721447 0.000289921
0 0.0711528 0.000381476
0 0.0707408 0.000411994
0 0.0708934 0.000366217
0 0.0717021 6.10361e-05
0 0.0746471 0
0.0170291 0.0804913 0
0.0624094 0.0852522 0
0.13695 0.0819104 0
0.212787 0.0738842 0.00424201
0.292165 0.0571603 0.0161593
0.36643 0.0413519 0.0278935
0.431846 0.0395819 0.0436561
0.495186 0.0479896 0.0643015
0.550134 0.0640726 0.0871748
0.599817 0.0998856 0.108629
0.634409 0.147967 0.124422
0.651911 0.19678 0.13225
0.668574 0.253941 0.145251
0.689708 0.315847 0.19115
0.724498 0.392737 0.248753
0.760723 0.47747 0.321477
0.798642 0.560281 0.407538
0.832792 0.650263 0.508461
0.870863 0.732616 0.618601
0.897642 0.79762 0.715572
0.921843 0.850813 0.78613
0.94287 0.888518 0.83769
0.958358 0.918273 0.878889
0.968215 0.938552 0.908736
0.977218 0.952285 0.930983
0.982696 0.963897 0.947356
0.987289 0.972488 0.959503
0 0.113405 0
0 0.111925 0
0 0.112032 0
0 0.113329 0
0 0.114778 0
0 0.117525 0
0 0.120409 0
0.0221408 0.121492 0
0.0878157 0.120165 0
0.16762 0.11545 0
0.250767 0.105028 0.00775158
0.337804 0.0848096 0.0208286
0.418982 0.0649729 0.0388647
0.489067 0.0635386 0.0614633
0.546502 0.0748455 0.0851148
0.59736 0.106813 0.106874
0.633188 0.152728 0.123323
0.651377 0.198199 0.131777
0.667872 0.25359 0.144656
0.688731 0.31313 0.186862
0.723064 0.388815 0.24538
0.758404 0.474052 0.317571
0.796368 0.556832 0.402121
0.830625 0.643565 0.50161
0.868986 0.728847 0.613886
0.895659 0.794446 0.709926
0.920577 0.848264 0.78262
0.941909 0.886503 0.83505
0.957565 0.916991 0.876387
0.967727 0.937148 0.906889
0.976822 0.951659 0.929778
0.982467 0.963439 0.946777
0.987015 0.972107 0.95874
0 0.156344 0
0 0.155016 0
0 0.154391 0
0 0.154208 0
0 0.15436 0
0 0.154726 0
0 0.155871 0
0 0.157412 0
0.0305486 0.157534 0
0.115099 0.155062 0
0.208499 0.15053 0
0.306111 0.140139 0.012253
0.402411 0.120745 0.0317693
0.481987 0.0965133 0.0574502
0.542351 0.0954147 0.0823835
0.5944 0.118364 0.105333
0.632517 0.15758 0.12285
0.649516 0.202426 0.130556
0.667933 0.254047 0.143145
0.687602 0.31249 0.182116
0.71989 0.386435 0.240467
0.756024 0.4692 0.312062
0.79469 0.552148 0.39762
0.829419 0.637705 0.49604
0.866392 0.724788 0.60737
0.893965 0.79173 0.705196
0.919234 0.84593 0.77908
0.940551 0.884184 0.832166
0.956786 0.915221 0.874174
0.967346 0.93611 0.90547
0.976272 0.950622 0.928405
0.982055 0.962737 0.945785
0.986709 0.971603 0.958022
0 0.193622 0.000564584
0 0.192569 0.000320439
0 0.19173 0
0 0.191455 0
0 0.191348 0
0 0.191455 0
0 0.19147 0
0 0.192477 0
0 0.193271 0
0.0486763 0.195148 0
0.163958 0.198398 0
0.277943 0.195392 0.00354009
0.39321 0.185779 0.0252842
0.474556 0.161273 0.0512093
0.537514 0.133974 0.0778973
0.591745 0.139483 0.103273
0.630915 0.17084 0.121706
0.649439 0.209216 0.130526
0.668132 0.257801 0.141726
0.687892 0.313054 0.177279
0.720439 0.384665 0.235019
0.754665 0.467323 0.306538
0.791745 0.548943 0.392325
0.828244 0.633066 0.489754
0.864271 0.72105 0.602289
0.892866 0.788739 0.699992
0.917556 0.842496 0.775479
0.939132 0.882063 0.829358
0.955825 0.914092 0.871977
0.966949 0.934966 0.90399
0.975814 0.949935 0.927169
0.981811 0.96202 0.944945
0.98645 0.971222 0.957549
0 0.229664 0.00354009
0 0.228779 0.00350958
0 0.227802 0.00326543
0 0.227832 0.00205997
0 0.227863 0.00106813
0 0.227436 0
0 0.228046 0
0 0.229389 0
0 0.233616 0
0 0.24062 0
0.10927 0.249332 0
0.246998 0.253483 0
0.372183 0.249409 0.0153964
0.46714 0.236286 0.0433967
0.535302 0.209277 0.0726329
0.590341 0.183841 0.100435
0.628946 0.19205 0.11989
0.649836 0.220493 0.130449
0.669337 0.26389 0.141283
0.688182 0.315251 0.171923
0.71957 0.384192 0.230625
0.753506 0.465751 0.301106
0.790082 0.546944 0.386069
0.825864 0.628443 0.482719
0.862242 0.718212 0.59382
0.891234 0.78555 0.695338
0.916259 0.840177 0.771695
0.938827 0.880491 0.827192
0.95523 0.912642 0.870085
0.966522 0.93402 0.902602
0.975402 0.949172 0.926192
0.981674 0.961486 0.944213
0.986236 0.970947 0.956847
0 0.263905 0.00306706
0 0.263127 0.00297551
0 0.262303 0.0028687
0 0.262776 0.0019379
0 0.262592 0.00129702
0 0.262516 0.000259403
0 0.263416 0
0 0.264836 0
0 0.269444 0
0 0.279667 0
0.0181125 0.294286 0
0.185687 0.307927 0
0.335332 0.315404 0.00201419
0.452323 0.314 0.0329595
0.532021 0.297185 0.0648508
0.585565 0.265995 0.0936294
0.626795 0.237858 0.117159
0.650568 0.242802 0.130053
0.670848 0.276814 0.141329
0.689235 0.321431 0.166598
0.719722 0.386587 0.225513
0.752346 0.464851 0.296407
0.789868 0.545434 0.37911
0.82472 0.62533 0.475364
0.860197 0.714656 0.588373
0.889967 0.782132 0.690333
0.914504 0.837095 0.767361
0.937652 0.87863 0.824323
0.954528 0.911208 0.867811
0.966094 0.932555 0.900771
0.97496 0.948104 0.924804
0.981201 0.961074 0.943374
0.986053 0.97023 0.956024
0 0.292943 0.00332647
0 0.292134 0.00331121
0 0.291417 0.00321965
0 0.291356 0.00283818
0 0.291539 0.00236515
0 0.292393 0.00155642
0 0.29427 0.000411994
0 0.297414 0
0 0.30312 0
0 0.313939 0
0 0.333623 0
0.0794232 0.356664 0
0.2701 0.375662 0
0.417456 0.38735 0.0172732
0.515404 0.382498 0.0519112
0.577234 0.357259 0.0846876
0.624079 0.323674 0.112886
0.652293 0.291142 0.129381
0.673548 0.298787 0.142275
0.693431 0.333486 0.162219
0.720623 0.392538 0.218036
0.753063 0.466712 0.290272
0.789105 0.544152 0.374243
0.823346 0.621592 0.468956
0.859739 0.71252 0.582773
0.88893 0.778759 0.68394
0.912917 0.83418 0.763516
0.936339 0.8766 0.820996
0.953689 0.909773 0.865263
0.965408 0.931456 0.899184
0.974319 0.947478 0.923491
0.980896 0.960082 0.942031
0.985656 0.969757 0.95552
0 0.325322 0.00880446
0 0.324453 0.00836194
0 0.323339 0.00827039
0 0.324559 0.0077821
0 0.32459 0.00755322
0 0.32546 0.0069276
0 0.327367 0.00602731
0 0.331334 0.00497444
0 0.336446 0.00415045
0 0.345937 0.00276188
0 0.364569 0.00102235
0 0.393439 0
0.151247 0.421988 0
0.335119 0.442359 0.00300603
0.482094 0.451438 0.0391089
0.568704 0.44033 0.0774395
0.63003 0.417777 0.114397
0.662898 0.379538 0.135225
0.682185 0.347662 0.147616
0.699062 0.356832 0.160189
0.723369 0.405966 0.210407
0.753918 0.472297 0.282368
0.789624 0.546914 0.368246
0.823819 0.619608 0.462409
0.85742 0.709957 0.577295
0.887327 0.775738 0.677424
0.912215 0.831708 0.759915
0.934752 0.875532 0.818906
0.952972 0.907881 0.863355
0.964706 0.930724 0.897093
0.973693 0.947234 0.922362
0.980575 0.959579 0.941329
0.985458 0.969406 0.954803
0 0.359442 0.018967
0 0.357916 0.018555
0 0.356863 0.0181735
0 0.35787 0.0175937
0 0.357488 0.0171054
0 0.357641 0.0166323
0 0.359045 0.0159762
0 0.3617 0.0150759
0 0.365347 0.014725
0 0.373053 0.0140536
0 0.384695 0.0140993
0 0.406561 0.0145113
0 0.44567 0.0134127
0.220478 0.481315 0.0162966
0.414603 0.499748 0.0364843
0.558938 0.509514 0.0854047
0.635248 0.50013 0.121263
0.681956 0.476844 0.149187
0.704067 0.438483 0.162844
0.71191 0.410101 0.167056
0.729168 0.429801 0.201694
0.756252 0.485344 0.276097
0.790036 0.552895 0.361685
0.82385 0.622003 0.455177
0.858091 0.709636 0.570291
0.88809 0.773556 0.671321
0.911025 0.828855 0.754528
0.933455 0.873686 0.816022
0.952178 0.906661 0.861021
0.963989 0.929503 0.895171
0.973129 0.946395 0.920974
0.980163 0.959243 0.940459
0.98526 0.968826 0.95407
0 0.397574 0.0382696
0 0.396262 0.0372015
0 0.395392 0.0365301
0 0.395422 0.0356146
0 0.395422 0.0344091
0 0.395132 0.033753
0 0.396353 0.0334173
0 0.396612 0.0327764
0 0.39881 0.0323033
0 0.401633 0.0320439
0 0.407507 0.0316167
0 0.420539 0.0326848
0 0.453315 0.0365454
0.0121614 0.496666 0.0424964
0.300969 0.529732 0.0505531
0.498863 0.552361 0.0932021
0.629099 0.56405 0.140459
0.694286 0.557458 0.165957
0.727398 0.539712 0.185199
0.7364 0.505257 0.188632
0.745007 0.48397 0.201541
0.762356 0.509041 0.266514
0.79382 0.56318 0.354208
0.826398 0.626795 0.449897
0.859144 0.708415 0.56173
0.887541 0.772625 0.664561
0.910719 0.82797 0.751812
0.932631 0.871427 0.812726
0.951308 0.904921 0.858564
0.96347 0.928786 0.893568
0.972534 0.945403 0.919417
0.979782 0.958373 0.939178
0.984817 0.968292 0.953429
0 0.424598 0.0695506
0 0.423926 0.0682536
0 0.423377 0.0669871
0 0.423438 0.0663615
0 0.423011 0.065568
0 0.422965 0.0644541
0 0.423239 0.0634318
0 0.424445 0.0623941
0 0.425528 0.0613413
0 0.42771 0.0612955
0 0.430838 0.0608377
0 0.436393 0.062974
0 0.451972 0.0664225
0 0.488548 0.074403
0.103334 0.535866 0.0913252
0.385565 0.576974 0.1084
0.570962 0.600778 0.154086
0.684581 0.612436 0.196918
0.734554 0.610513 0.210605
0.755642 0.594049 0.214847
0.769818 0.572824 0.222202
0.778332 0.55874 0.259129
0.802792 0.583352 0.345434
0.829541 0.638437 0.442527
0.860258 0.71162 0.552773
0.887572 0.771527 0.657649
0.910185 0.826185 0.745556
0.932448 0.870176 0.807691
0.950713 0.90309 0.856321
0.963149 0.927626 0.891752
0.97203 0.944595 0.918135
0.979446 0.958022 0.938247
0.984588 0.968017 0.952667
0 0.456184 0.119158
0 0.454658 0.117113
0 0.453605 0.115511
0 0.453376 0.113344
0 0.45243 0.112581
0 0.451972 0.110933
0 0.451728 0.109911
0 0.452293 0.109071
0 0.45359 0.10811
0 0.456077 0.108461
0 0.461112 0.108766
0 0.469261 0.110338
0 0.481788 0.114885
0 0.497932 0.122286
0 0.53431 0.136339
0.249348 0.588891 0.157305
0.478294 0.620417 0.170947
0.625574 0.642405 0.210101
0.726513 0.660624 0.249744
0.770825 0.657099 0.257572
0.792691 0.645411 0.257252
0.80647 0.632563 0.268391
0.81912 0.627359 0.336248
0.838239 0.66006 0.43592
0.8645 0.719356 0.545861
0.888014 0.773983 0.650126
0.910277 0.825574 0.73962
0.932113 0.869749 0.803479
0.949981 0.902007 0.852583
0.963027 0.927016 0.889464
0.971771 0.943999 0.916823
0.979126 0.957351 0.937423
0.984421 0.967376 0.951812
0 0.507729 0.185885
0 0.506111 0.183993
0 0.504494 0.181552
0 0.503395 0.178988
0 0.502556 0.176898
0 0.501366 0.175708
0 0.500237 0.172946
0 0.499626 0.171893
0 0.499901 0.170596
0 0.500984 0.170031
0 0.504128 0.170825
0 0.508202 0.171756
0 0.515114 0.175845
0 0.525887 0.18233
0 0.547906 0.191882
0.0544747 0.589151 0.208026
0.350484 0.625132 0.219669
0.542214 0.657298 0.228428
0.681636 0.682033 0.264149
0.771282 0.698039 0.299336
0.809171 0.697795 0.306462
0.827283 0.693904 0.30663
0.84242 0.691524 0.337392
0.854185 0.70103 0.430701
0.870741 0.734539 0.534997
0.890349 0.780362 0.641474
0.909957 0.827451 0.733654
0.932143 0.868132 0.799146
0.949508 0.901305 0.848569
0.962341 0.92575 0.887663
0.971099 0.942809 0.915022
0.978775 0.956786 0.936233
0.984009 0.966628 0.951278
0 0.551858 0.25893
0 0.550774 0.257145
0 0.549401 0.254871
0 0.548272 0.252796
0 0.547417 0.25095
0 0.546365 0.248737
0 0.546029 0.246433
0 0.545113 0.244404
0 0.544991 0.243397
0 0.544808 0.242054
0 0.545632 0.242664
0 0.547387 0.242847
0 0.550958 0.244221
0 0.55697 0.248402
0 0.568399 0.253895
0 0.589593 0.262211
0.187167 0.617533 0.272236
0.426719 0.657664 0.277913
0.612619 0.693324 0.280934
0.733364 0.717144 0.314778
0.805783 0.732189 0.346975
0.840177 0.739208 0.360983
0.857908 0.743603 0.372213
0.872816 0.752804 0.429923
0.884428 0.762737 0.52343
0.8972 0.79057 0.629114
0.912673 0.830289 0.727367
0.932998 0.868879 0.795911
0.949233 0.900786 0.845655
0.962203 0.924834 0.884947
0.970596 0.942397 0.913466
0.978668 0.956161 0.934737
0.98407 0.966461 0.950347
0 0.592889 0.332662
0 0.591653 0.330831
0 0.590127 0.328176
0 0.588663 0.325811
0 0.588235 0.323949
0 0.586969 0.32166
0 0.584939 0.320043
0 0.584009 0.318151
0 0.584237 0.31635
0 0.583474 0.314778
0 0.583627 0.314397
0 0.584161 0.313695
0 0.586755 0.313634
0 0.590631 0.314946
0 0.598901 0.318853
0 0.610788 0.324453
0.131197 0.628244 0.330465
0.340124 0.660929 0.335103
0.540948 0.700923 0.339025
0.68603 0.73196 0.34464
0.787747 0.756527 0.376852
0.841306 0.772015 0.406775
0.869047 0.781628 0.42388
0.888045 0.790692 0.447272
0.899397 0.799832 0.51838
0.907744 0.812131 0.619806
0.917235 0.837491 0.720806
0.934096 0.870436 0.790753
0.94995 0.901213 0.841581
0.962051 0.924987 0.882689
0.970642 0.942367 0.911665
0.978622 0.955444 0.933791
0.983948 0.966018 0.949584
0.0291752 0.654444 0.413993
0.0158694 0.652491 0.411658
0 0.650172 0.409094
0 0.64683 0.406592
0 0.644923 0.404181
0 0.642618 0.401709
0 0.641215 0.398917
0 0.639582 0.396475
0 0.637522 0.394369
0 0.635325 0.39237
0 0.634394 0.390784
0 0.633936 0.390555
0 0.63563 0.389914
0 0.638071 0.390295
0.0464179 0.644266 0.391928
0.154559 0.654688 0.394965
0.257984 0.671534 0.399115
0.368551 0.691218 0.403815
0.512642 0.719814 0.41088
0.662303 0.751003 0.418448
0.772152 0.776898 0.420401
0.838849 0.798184 0.450233
0.877958 0.813169 0.474952
0.896971 0.822629 0.492164
0.910811 0.832532 0.531441
0.91902 0.841199 0.616983
0.925826 0.851942 0.70985
0.93666 0.876326 0.784726
0.951202 0.903105 0.838026
0.962142 0.925689 0.880064
0.970932 0.94255 0.910369
0.978347 0.955245 0.932464
0.983581 0.965347 0.948379
0.390723 0.731838 0.49369
0.383551 0.730587 0.491722
0.37615 0.727962 0.489891
0.366979 0.725978 0.487129
0.360006 0.724025 0.484504
0.352453 0.722087 0.482277
0.34374 0.719417 0.480064
0.338354 0.717632 0.478798
0.336156 0.71722 0.476631
0.327443 0.715358 0.474006
0.325917 0.714458 0.472511
0.330114 0.71397 0.471305
0.33135 0.713909 0.469123
0.344854 0.714748 0.469093
0.368338 0.717494 0.469413
0.396231 0.721736 0.469795
0.439384 0.730159 0.47277
0.498299 0.740536 0.476661
0.575952 0.755169 0.481285
0.67509 0.774319 0.483436
0.766079 0.797101 0.48069
0.832761 0.818006 0.491417
0.881209 0.838087 0.522896
0.904143 0.847852 0.5411
0.92108 0.85742 0.566003
0.930831 0.866178 0.623194
0.936751 0.874769 0.702739
0.943709 0.886732 0.776638
0.953826 0.906645 0.833463
0.962905 0.926146 0.876463
0.970962 0.942138 0.907179
0.977951 0.95494 0.930556
0.983749 0.965423 0.947463
0.602869 0.790722 0.558801
0.596445 0.789166 0.555917
0.591119 0.787381 0.554833
0.58349 0.785794 0.552285
0.578271 0.784619 0.550378
0.572519 0.782437 0.548775
0.570153 0.779553 0.546456
0.563226 0.778515 0.544472
0.559533 0.777432 0.543374
0.555459 0.775357 0.541665
0.550469 0.774365 0.539956
0.550851 0.77499 0.538323
0.551324 0.773785 0.536828
0.552392 0.773297 0.5355
0.559792 0.774701 0.535027
0.575357 0.77641 0.533639
0.598901 0.780224 0.533074
0.629038 0.786206 0.532967
0.671702 0.793057 0.53196
0.720455 0.805386 0.530266
0.780941 0.822019 0.535637
0.841688 0.840681 0.550881
0.886717 0.858824 0.573541
0.912947 0.870451 0.595483
0.928634 0.877729 0.610285
0.940749 0.88661 0.639323
0.948577 0.894133 0.702983
0.952743 0.903014 0.771038
0.958083 0.913985 0.827497
0.964843 0.928328 0.872892
0.97145 0.942794 0.905196
0.978164 0.954894 0.928985
0.98352 0.965133 0.946532
0.749599 0.841443 0.639735
0.744442 0.840406 0.635355
0.741405 0.838346 0.633051
0.737392 0.837324 0.630228
0.733486 0.835126 0.626871
0.729046 0.833906 0.624369
0.726116 0.832853 0.621515
0.720882 0.830747 0.617945
0.715587 0.829709 0.614969
0.713939 0.827985 0.611948
0.712337 0.826825 0.609186
0.708537 0.82536 0.606577
0.707866 0.825116 0.602853
0.710048 0.824659 0.600259
0.711162 0.824094 0.598291
0.715206 0.825299 0.595407
0.723903 0.82742 0.593469
0.739513 0.828901 0.592676
0.759701 0.834073 0.593545
0.785367 0.841337 0.59852
0.818784 0.851255 0.609751
0.860456 0.865064 0.625895
0.89807 0.878523 0.634318
0.921233 0.888273 0.643961
0.936629 0.895903 0.659266
0.948257 0.903349 0.674784
0.956542 0.91046 0.715999
0.961639 0.917128 0.77203
0.965774 0.924773 0.823804
0.968444 0.933303 0.867964
0.97293 0.945144 0.902693
0.978668 0.955627 0.927214
0.983825 0.96492 0.944976
0.85153 0.885847 0.7337
0.847913 0.884352 0.73077
0.845701 0.88304 0.728634
0.843381 0.882185 0.726833
0.839918 0.880735 0.72311
0.837201 0.879408 0.720821
0.83534 0.878492 0.719051
0.831617 0.877012 0.71548
0.828992 0.875746 0.713039
0.826902 0.874754 0.711131
0.823636 0.873091 0.708217
0.822858 0.872679 0.705516
0.821469 0.871458 0.703166
0.819577 0.870558 0.700725
0.818906 0.870726 0.698741
0.820798 0.870237 0.695583
0.824628 0.870085 0.691966
0.829877 0.871138 0.690684
0.838651 0.873625 0.687251
0.851453 0.876326 0.686259
0.868238 0.881239 0.685985
0.888426 0.888258 0.69099
0.909682 0.89691 0.694133
0.927718 0.904036 0.699535
0.942077 0.910536 0.708797
0.953933 0.917861 0.723033
0.963104 0.923308 0.738689
0.967941 0.928695 0.780377
0.97171 0.93431 0.824445
0.973556 0.941497 0.865965
0.97554 0.948684 0.898939
0.979812 0.956741 0.924804
0.983749 0.965255 0.943832
0.899474 0.910948 0.791379
0.897566 0.910384 0.789288
0.896559 0.909682 0.788479
0.895598 0.908858 0.787076
0.89424 0.908217 0.785107
0.892821 0.907469 0.783673
0.891508 0.90721 0.782132
0.890242 0.906172 0.780163
0.889342 0.905364 0.778683
