CUBE/MM_dzien.cube
TITLE "Michal Herman"
LUT_3D_SIZE 5
0 0.017792 0.0192721
0.191272 0.000671397 0.00547799
0.500664 0 0
0.742473 0 0
0.944717 0 0
0 0.180606 0
0.155856 0.183185 0
0.48481 0.161944 0
0.758709 0.156878 0
0.982696 0.174517 0
0 0.462608 0
0.108217 0.493034 0
0.450034 0.491585 0
0.750301 0.493751 0
0.981826 0.512963 0.022858
0 0.756832 0
0.134951 0.787564 0.00834669
0.452949 0.786068 0.0143435
0.743496 0.774258 0.000869764
0.957046 0.773022 0.00527962
0 1 0.0151675
0.157794 1 0.0441138
0.443961 1 0.0267491
0.729046 0.981308 0
0.941222 0.978134 0
0 0.0111086 0.211398
0.18529 0 0.198306
0.500496 0 0.151003
0.743587 0 0.117952
0.948074 0 0.105226
0 0.179904 0.170062
0.15198 0.188434 0.178958
0.501244 0.165927 0.157061
0.771435 0.16553 0.156725
0.995651 0.185306 0.176181
0 0.472465 0.105089
0.114321 0.50605 0.137148
0.462257 0.50428 0.140124
0.766537 0.504952 0.15491
0.997818 0.523537 0.184161
0 0.7673 0.130434
0.144549 0.799054 0.167285
0.456535 0.796735 0.162478
0.749584 0.780789 0.147127
0.964157 0.777279 0.150027
0 1 0.168978
0.161044 1 0.184894
0.44358 1 0.165667
0.73164 0.987427 0.139803
0.946593 0.983749 0.14023
0 0 0.540352
0.163119 0 0.533196
0.482292 0 0.493004
0.733745 0 0.457084
0.941802 0 0.441779
0 0.167926 0.507942
0.150713 0.177844 0.526848
0.494453 0.161227 0.511055
0.773007 0.162997 0.496513
0.998611 0.184329 0.505364
0 0.469963 0.448707
0.115068 0.503868 0.484001
0.45127 0.506447 0.489937
0.776059 0.503029 0.48336
1 0.521569 0.501793
0 0.76733 0.457465
0.141253 0.798642 0.486152
0.442054 0.797009 0.469337
0.74461 0.776806 0.439963
0.962722 0.770474 0.445045
0 1 0.475181
0.151064 1 0.484504
0.429541 1 0.460365
0.72224 0.984451 0.425956
0.942199 0.979812 0.423865
0 0 0.788373
0.148455 0 0.783429
0.464988 0 0.755459
0.72462 0 0.732601
0.9364 0 0.725948
0 0.16083 0.772
0.148196 0.174929 0.787808
0.482689 0.164508 0.783841
0.770245 0.164889 0.781537
0.998917 0.185214 0.791318
0 0.469368 0.740459
0.125673 0.501976 0.774685
0.46273 0.504463 0.787701
0.775631 0.502724 0.791058
1 0.518822 0.798047
0 0.766918 0.753979
0.141772 0.795407 0.782528
0.435401 0.791074 0.778363
0.729809 0.770016 0.760433
0.962325 0.760159 0.747143
0 0.996201 0.76524
0.142031 1 0.776745
0.416449 1 0.761379
0.706737 0.979568 0.73109
0.934829 0.973449 0.722805
0 0 0.995117
0.139437 0 0.991348
0.453742 0 0.966781
0.719173 0 0.947662
0.934142 0 0.944274
0 0.159503 0.984192
0.151003 0.177462 1
0.481193 0.171832 1
0.770123 0.173175 1
1 0.193088 1
0 0.474235 0.961746
0.139269 0.50692 0.995651
0.470954 0.511345 1
0.773571 0.511055 1
1 0.523186 1
0 0.770901 0.974929
0.150378 0.796353 1
0.445121 0.788251 0.999527
0.733593 0.766049 0.98645
0.957977 0.757519 0.9794
0 0.99411 0.979599
0.143557 1 0.993271
0.419043 0.997284 0.982879
0.705531 0.977096 0.963043
0.926879 0.972457 0.962982
