CUBE/MM_dzien.cube
TITLE "Michal Herman"
LUT_3D_SIZE 9
0 0.017792 0.0192721
0.08365 0.0108492 0.0140993
0.191272 0.000671397 0.00547799
0.340978 0 0
0.500664 0 0
0.637736 0 0
0.742473 0 0
0.841245 0 0
0.944717 0 0
0 0.090074 0.00585946
0.0666056 0.0877546 0.0055848
0.176104 0.0805524 0.00233463
0.326909 0.064744 0
0.491814 0.0458076 0
0.637201 0.0296941 0
0.750134 0.0252232 0
0.854704 0.0263218 0
0.963973 0.029221 0
0 0.180606 0
0.0443122 0.184192 0
0.155856 0.183185 0
0.311513 0.173846 0
0.48481 0.161944 0
0.637995 0.153613 0
0.758709 0.156878 0
0.869154 0.165515 0
0.982696 0.174517 0
0 0.305425 0
0.00662242 0.318364 0
0.126986 0.325093 0
0.28687 0.324117 0
0.469673 0.318441 0
0.631922 0.31426 0
0.759319 0.319661 0
0.872129 0.329381 0.00450141
0.987442 0.339284 0.0206455
0 0.462608 0
0 0.48275 0
0.108217 0.493034 0
0.265766 0.495521 0
0.450034 0.491585 0
0.617746 0.488334 0
0.750301 0.493751 0
0.865522 0.503868 0.00639353
0.981826 0.512963 0.022858
0 0.616648 0
0 0.636408 0
0.102892 0.647288 0
0.257053 0.65211 0
0.440116 0.65008 0
0.608972 0.646616 0
0.742382 0.649012 0
0.85481 0.654871 0.000198367
0.966751 0.658503 0.00996414
0 0.756832 0
0.0204318 0.775723 0
0.134951 0.787564 0.00834669
0.279286 0.791211 0.0189364
0.452949 0.786068 0.0143435
0.614023 0.777935 0.0041352
0.743496 0.774258 0.000869764
0.849683 0.774472 0.00497444
0.957046 0.773022 0.00527962
0 0.888579 0
0.0584878 0.902159 0.0264439
0.15964 0.910353 0.0422217
0.292409 0.909514 0.0438087
0.456321 0.899443 0.0317693
0.611154 0.886625 0.0146181
0.738582 0.878737 0.00418097
0.842618 0.876493 0.00340276
0.94905 0.874022 0.00195315
0 1 0.0151675
0.0643015 1 0.0348363
0.157794 1 0.0441138
0.283619 1 0.0415503
0.443961 1 0.0267491
0.599207 0.988708 0.00859083
0.729046 0.981308 0
0.834165 0.979828 0
0.941222 0.978134 0
0 0.0149386 0.103044
0.0814221 0.0093843 0.0978866
0.192203 0 0.0855879
0.342718 0 0.0654917
0.502556 0 0.041062
0.63978 0 0.0157168
0.744671 0 0.00387579
0.843931 0 0
0.947997 0 0
0 0.0891737 0.0865949
0.0617533 0.0888075 0.0857557
0.182727 0.0793622 0.0772564
0.333181 0.0641337 0.0624704
0.496941 0.0461738 0.0449836
0.64126 0.0314183 0.0306096
0.753643 0.0283055 0.0276036
0.858305 0.030518 0.0298009
0.967849 0.0345006 0.033753
0 0.181704 0.0617685
0.0424353 0.187518 0.0641489
0.158389 0.186587 0.0651408
0.319783 0.176394 0.0616922
0.493278 0.165087 0.053666
0.645457 0.157855 0.048188
0.765667 0.162127 0.0544442
0.876219 0.171389 0.0656443
0.989807 0.180835 0.0766308
0 0.309407 0.0215763
0.010544 0.323781 0.0372168
0.129641 0.332174 0.0481422
0.293187 0.330938 0.0531014
0.478706 0.32459 0.053193
0.640742 0.320302 0.0538491
0.76759 0.325811 0.0640269
0.880552 0.335973 0.0782635
0.996155 0.346487 0.0920272
0 0.469368 0
0 0.489662 0.0207218
0.112779 0.500496 0.0376898
0.270253 0.503014 0.0452125
0.457176 0.498711 0.0460059
0.625803 0.495064 0.0476692
0.758801 0.500328 0.059678
0.874311 0.510414 0.076524
0.990555 0.519356 0.0909133
0 0.623087 0
0 0.643 0.0184787
0.109071 0.65449 0.0386816
0.261936 0.659785 0.0487526
0.445792 0.657359 0.0492866
0.615122 0.653071 0.0480507
0.74905 0.654627 0.054963
0.861463 0.6598 0.0663005
0.973236 0.662898 0.0740673
0 0.763119 0.0285496
0.0295262 0.781689 0.0569467
0.141054 0.794247 0.0751049
0.283391 0.798047 0.0813001
0.456413 0.792294 0.0753338
0.617426 0.783123 0.0654002
0.747494 0.778439 0.0620432
0.854261 0.778042 0.064744
0.961364 0.77612 0.0651102
0 0.893339 0.0693675
0.0647593 0.907179 0.0892653
0.163943 0.91548 0.100877
0.294591 0.914565 0.100435
0.457786 0.904143 0.0877546
0.61268 0.890761 0.071397
0.74107 0.882231 0.0621042
0.845777 0.879789 0.0616159
0.952834 0.877287 0.0610971
0 1 0.0800031
0.0684977 1 0.0936599
0.160723 1 0.100328
0.285145 1 0.0968032
0.445121 1 0.082414
0.60061 0.993042 0.0659342
0.73135 0.985122 0.0569009
0.837156 0.983536 0.0572366
0.944732 0.98175 0.0575418
0 0.0111086 0.211398
0.0736706 0.00672923 0.20943
0.18529 0 0.198306
0.338628 0 0.175875
0.500496 0 0.151003
0.638285 0 0.129229
0.743587 0 0.117952
0.843412 0 0.110842
0.948074 0 0.105226
0 0.0853742 0.19678
0.0632792 0.0844282 0.201984
0.178622 0.0770886 0.194507
0.334203 0.0619364 0.171878
0.499092 0.0447547 0.151965
0.643305 0.0309606 0.137972
0.755611 0.0289769 0.13492
0.860685 0.0322881 0.136492
0.970657 0.0373236 0.139773
0 0.179904 0.170062
0.0430152 0.18645 0.176501
0.15198 0.188434 0.178958
0.3299 0.17554 0.166461
0.501244 0.165927 0.157061
0.65185 0.160143 0.151415
0.771435 0.16553 0.156725
0.882063 0.175479 0.166506
0.995651 0.185306 0.176181
0 0.310552 0.130755
0.0134279 0.326528 0.143664
0.127916 0.337804 0.149248
0.29688 0.336233 0.149248
0.488106 0.328191 0.151278
0.649287 0.323964 0.152865
0.774975 0.329793 0.162356
0.887938 0.340581 0.175723
1 0.351507 0.188571
0 0.472465 0.105089
0 0.493828 0.126253
0.114321 0.50605 0.137148
0.270512 0.509422 0.140307
0.462257 0.50428 0.140124
0.633249 0.499825 0.142794
0.766537 0.504952 0.15491
0.881971 0.514855 0.170855
0.997818 0.523537 0.184161
0 0.626398 0.0980697
0 0.647303 0.122438
0.112718 0.659998 0.13669
0.26334 0.666117 0.14313
0.448264 0.663279 0.141299
0.61941 0.657832 0.139162
0.754314 0.658335 0.145388
0.866789 0.662745 0.155886
0.978225 0.665171 0.162936
0 0.7673 0.130434
0.0356451 0.786114 0.15288
0.144549 0.799054 0.167285
0.284169 0.802976 0.170596
0.456535 0.796735 0.162478
0.618326 0.786557 0.151263
0.749584 0.780789 0.147127
0.85684 0.77969 0.149508
0.964157 0.777279 0.150027
0 0.896391 0.162661
0.0682231 0.910201 0.179004
0.165408 0.918456 0.187793
0.293721 0.917601 0.185367
0.456123 0.906966 0.17142
0.611627 0.893141 0.154498
0.741543 0.884077 0.14493
0.847242 0.881422 0.144549
0.955169 0.878935 0.144686
0 1 0.168978
0.0699779 1 0.180102
0.161044 1 0.184894
0.283955 1 0.180392
0.44358 1 0.165667
0.599832 0.995956 0.149554
0.73164 0.987427 0.139803
0.838346 0.985672 0.139834
0.946593 0.983749 0.14023
0 0.00320439 0.370199
0.0659342 0 0.369192
0.174105 0 0.35996
0.327733 0 0.337819
0.49279 0 0.311254
0.633097 0 0.287678
0.739544 0 0.274815
0.840208 0 0.266621
0.945663 0 0.260471
0 0.078584 0.354513
0.0573587 0.0784009 0.359533
0.166323 0.0730297 0.356771
0.323964 0.0576486 0.337118
0.494423 0.0402838 0.313649
0.64152 0.0269932 0.296468
0.755001 0.0259861 0.290837
0.860807 0.0304417 0.290303
0.971359 0.0365454 0.291966
0 0.17438 0.329244
0.0433051 0.180697 0.340276
0.154467 0.182315 0.350744
0.324132 0.172549 0.341527
0.502358 0.163287 0.320211
0.654002 0.158724 0.308446
0.773754 0.165179 0.310094
0.884672 0.175769 0.317143
0.998306 0.185962 0.324651
0 0.30779 0.289281
0.0157168 0.324086 0.305348
0.128557 0.336095 0.317372
0.287007 0.33785 0.320958
0.497612 0.32578 0.307652
0.655497 0.322972 0.304601
0.779583 0.329763 0.311177
0.892393 0.341299 0.322499
1 0.352712 0.3337
0 0.472251 0.260853
0 0.493874 0.281025
0.113695 0.506981 0.290349
0.263554 0.512978 0.287282
0.463004 0.506874 0.278767
0.639445 0.500572 0.283894
0.772198 0.505714 0.296757
0.887083 0.515587 0.311879
1 0.52401 0.323949
0 0.627024 0.249256
0 0.648447 0.271122
0.113115 0.662028 0.282414
0.259892 0.669398 0.284169
0.444816 0.666728 0.275914
0.620417 0.659632 0.270985
0.757168 0.658717 0.277668
0.869657 0.662242 0.288472
0.980621 0.664012 0.295308
0 0.768475 0.275273
0.0374151 0.787335 0.294697
0.144152 0.800412 0.305745
0.280568 0.804685 0.305104
0.451637 0.798367 0.292302
0.615167 0.787289 0.277333
0.748653 0.780224 0.271763
0.856825 0.778302 0.274464
0.964492 0.775387 0.275776
0 0.8963 0.300725
0.0674144 0.909957 0.314244
0.162921 0.91812 0.319966
0.288808 0.917494 0.314473
0.450217 0.906996 0.297276
0.60679 0.892973 0.277562
0.738857 0.88336 0.266285
0.846036 0.880461 0.265888
0.955276 0.878065 0.267216
0 1 0.302068
0.0673381 1 0.310933
0.15761 1 0.313451
0.279103 1 0.306874
0.4383 1 0.29015
0.595285 0.996063 0.271916
0.728771 0.987259 0.260334
0.836667 0.985306 0.25948
0.94583 0.983185 0.259953
0 0 0.540352
0.0569772 0 0.539559
0.163119 0 0.533196
0.315145 0 0.516014
0.482292 0 0.493004
0.625727 0 0.47039
0.733745 0 0.457084
0.835416 0 0.448402
0.941802 0 0.441779
0 0.0709392 0.526833
0.0499886 0.0714275 0.530617
0.156481 0.0672618 0.529549
0.311391 0.0529183 0.517098
0.485451 0.0354314 0.49897
0.637049 0.0219272 0.483391
0.752865 0.0213474 0.477119
0.859449 0.0268864 0.475059
0.970611 0.0338903 0.475349
0 0.167926 0.507942
0.0403754 0.174792 0.51841
0.150713 0.177844 0.526848
0.31136 0.17116 0.524468
0.494453 0.161227 0.511055
0.651316 0.156222 0.4981
0.773007 0.162997 0.496513
0.884657 0.173968 0.500481
0.998611 0.184329 0.505364
0 0.303502 0.475212
0.0170291 0.319844 0.493233
0.132616 0.33135 0.508888
0.293339 0.332158 0.519402
0.492561 0.323049 0.513787
0.656367 0.319539 0.499153
0.781064 0.327199 0.498741
0.894163 0.339452 0.50544
1 0.351293 0.513252
0 0.469963 0.448707
0 0.491234 0.470802
0.115068 0.503868 0.484001
0.262562 0.510033 0.490654
0.45127 0.506447 0.489937
0.64622 0.496483 0.477256
0.776059 0.503029 0.48336
0.889906 0.513252 0.493507
1 0.521569 0.501793
0 0.625635 0.435142
0 0.647089 0.458167
0.112657 0.660777 0.470848
0.255558 0.668727 0.473976
0.434333 0.667597 0.461738
0.617563 0.658686 0.446983
0.758511 0.655558 0.454704
0.870665 0.658427 0.464652
0.980819 0.659724 0.46978
0 0.76733 0.457465
0.0361944 0.785916 0.476173
0.141253 0.798642 0.486152
0.274342 0.802976 0.484627
0.442054 0.797009 0.469337
0.606851 0.785534 0.448707
0.74461 0.776806 0.439963
0.85478 0.773785 0.443122
0.962722 0.770474 0.445045
0 0.893736 0.477592
0.0632944 0.906966 0.489494
0.157397 0.914763 0.493767
0.280888 0.914275 0.487465
0.440391 0.904082 0.469062
0.597681 0.890227 0.446555
0.732525 0.880079 0.432166
0.842008 0.876783 0.431205
0.952605 0.873991 0.433173
0 1 0.475181
0.0612955 1 0.482918
0.151064 1 0.484504
0.271183 1 0.477546
0.429541 1 0.460365
0.587015 0.993469 0.440162
0.72224 0.984451 0.425956
0.831724 0.982238 0.42356
0.942199 0.979812 0.423865
0 0 0.682139
0.0488594 0 0.681437
0.153979 0 0.676493
0.304189 0 0.662974
0.472053 0 0.644938
0.618372 0 0.627573
0.728023 0 0.618128
0.830686 0 0.61239
0.938018 0 0.608148
0 0.06421 0.672114
0.0435187 0.0654459 0.674983
0.149172 0.062211 0.674434
0.301701 0.0491035 0.665873
0.476661 0.0321202 0.653559
0.632425 0.0182345 0.643915
0.750393 0.0179141 0.64036
0.85803 0.0241398 0.639551
0.969573 0.0319371 0.639902
0 0.162615 0.659388
0.0374456 0.170336 0.668605
0.147707 0.174655 0.675761
0.304402 0.170077 0.675196
0.486152 0.161196 0.668284
0.646464 0.155596 0.660426
0.77084 0.161898 0.660243
0.883574 0.172778 0.66389
0.998047 0.182971 0.667842
0 0.300191 0.635966
0.018555 0.316915 0.652796
0.135378 0.328801 0.66714
0.293629 0.331014 0.675181
0.482856 0.324666 0.674723
0.65098 0.318975 0.667918
0.779858 0.32575 0.667384
0.894362 0.338048 0.672038
1 0.349981 0.677791
0 0.468071 0.617426
0.000350958 0.488823 0.63772
0.118746 0.501076 0.651667
0.269627 0.50634 0.66157
0.458701 0.502129 0.666728
0.642283 0.49456 0.66363
0.777111 0.500267 0.660166
0.891203 0.510536 0.663859
1 0.518654 0.667994
0 0.624369 0.607706
0 0.645579 0.628931
0.114443 0.658885 0.642298
0.257313 0.666056 0.649561
0.43241 0.664271 0.648096
0.606119 0.656565 0.643397
0.761532 0.649973 0.633646
0.871641 0.653269 0.636164
0.980575 0.654521 0.637018
0 0.765942 0.626719
0.0352178 0.783963 0.64361
0.139269 0.795956 0.653758
0.27039 0.79971 0.654475
0.434043 0.793667 0.643137
0.594491 0.783139 0.622629
0.738979 0.772686 0.606363
0.85301 0.768032 0.61004
0.961166 0.764492 0.61149
0 0.890684 0.642298
0.0590066 0.903304 0.653071
0.152163 0.910552 0.657511
0.273808 0.909865 0.652689
0.430854 0.899916 0.636698
0.586831 0.886748 0.615412
0.723827 0.876493 0.598245
0.837201 0.872572 0.595605
0.949905 0.869032 0.597894
0 0.99852 0.638392
0.0549783 1 0.645396
0.144564 1 0.647242
0.26363 1 0.641611
0.42092 1 0.626749
0.577707 0.990158 0.607797
0.713954 0.98114 0.592737
0.82533 0.978683 0.588159
0.937819 0.975799 0.587823
0 0 0.788373
0.0439307 0 0.787808
0.148455 0 0.783429
0.297169 0 0.771435
0.464988 0 0.755459
0.613443 0 0.740169
0.72462 0 0.732601
0.828138 0 0.728664
0.9364 0 0.725948
0 0.0607767 0.780758
0.040528 0.0627298 0.783383
0.145769 0.0603647 0.783123
0.296635 0.0485237 0.776242
0.471229 0.032517 0.766552
0.62887 0.0190433 0.759609
0.748684 0.0190738 0.758297
0.857023 0.0259556 0.759014
0.969604 0.0340581 0.760845
0 0.16083 0.772
0.0379492 0.169451 0.780865
0.148196 0.174929 0.787808
0.302892 0.172045 0.788144
0.482689 0.164508 0.783841
0.6439 0.159075 0.779263
0.770245 0.164889 0.781537
0.883864 0.175433 0.786709
0.998917 0.185214 0.791318
0 0.300572 0.754345
0.0236515 0.317693 0.770764
0.140414 0.330312 0.784543
0.296818 0.333516 0.791577
0.480797 0.328695 0.791836
0.647471 0.323201 0.789151
0.779156 0.329046 0.792325
0.895293 0.340826 0.798703
1 0.352377 0.804868
0 0.469368 0.740459
0.00732433 0.489372 0.760235
0.125673 0.501976 0.774685
0.277668 0.507317 0.784176
0.46273 0.504463 0.787701
0.63714 0.499184 0.788205
0.775631 0.502724 0.791058
0.892103 0.51162 0.795209
1 0.518822 0.798047
0 0.625925 0.733928
0.00328069 0.646586 0.755444
0.120806 0.659678 0.770001
0.265019 0.665965 0.778729
0.441489 0.662821 0.779873
0.61323 0.654185 0.77882
0.758755 0.648829 0.777584
0.87248 0.650889 0.77351
0.981399 0.651743 0.770123
0 0.766918 0.753979
0.0384833 0.784146 0.771237
0.141772 0.795407 0.782528
0.272663 0.798154 0.785321
0.435401 0.791074 0.778363
0.592432 0.779797 0.767422
0.729809 0.770016 0.760433
0.855482 0.762921 0.750668
0.962325 0.760159 0.747143
0 0.889723 0.769131
0.0585794 0.901671 0.780499
0.151095 0.908293 0.786221
0.271992 0.907134 0.783658
0.427466 0.896986 0.771282
0.580682 0.88423 0.754788
0.714687 0.874952 0.738643
0.833631 0.870466 0.73109
0.950332 0.865339 0.733455
0 0.996201 0.76524
0.0525521 1 0.773297
0.142031 1 0.776745
0.260594 1 0.773465
0.416449 1 0.761379
0.571649 0.988251 0.745296
0.706737 0.979568 0.73109
0.819089 0.977111 0.724392
0.934829 0.973449 0.722805
0 0 0.890288
0.0395361 0 0.890043
0.143893 0 0.885954
0.291493 0 0.874769
0.459129 0 0.859464
0.609339 0 0.845167
0.721859 0 0.838453
0.8262 0 0.835325
0.935378 0 0.83328
0 0.0580911 0.883497
0.0382544 0.0607309 0.88632
0.143481 0.0591897 0.886488
0.293278 0.0485237 0.880613
0.467414 0.0336614 0.872251
0.625879 0.0211032 0.865873
0.747326 0.0216678 0.865705
0.856275 0.0292668 0.866987
0.969818 0.0377508 0.869383
0 0.160143 0.876631
0.0392157 0.169604 0.885725
0.149615 0.176181 0.89305
0.303181 0.17467 0.894179
0.481498 0.168353 0.891066
0.64268 0.163485 0.887816
0.770153 0.169146 0.89099
0.884291 0.179507 0.896651
1 0.189136 0.901335
0 0.302266 0.862028
0.0293278 0.319783 0.878416
0.145693 0.333059 0.89218
0.300679 0.336934 0.899001
0.481346 0.332937 0.899413
0.646265 0.328252 0.898024
0.778912 0.333989 0.902708
0.895979 0.345495 0.910063
1 0.356649 0.916243
0 0.471901 0.849592
0.0157015 0.491081 0.869001
0.132952 0.504402 0.884077
0.284977 0.510033 0.89337
0.467094 0.508003 0.896468
0.636713 0.503944 0.897337
0.774197 0.507149 0.902129
0.891585 0.5149 0.907576
1 0.520943 0.909819
0 0.628763 0.843946
0.0126192 0.648539 0.865263
0.12845 0.661814 0.880522
0.27332 0.66743 0.889189
0.449012 0.663722 0.889998
0.6159 0.655558 0.887739
0.754162 0.651362 0.888289
0.869429 0.651759 0.887694
0.980667 0.651331 0.882856
0 0.76907 0.86331
0.0437324 0.785473 0.880247
0.146395 0.796048 0.891691
0.277745 0.797803 0.894835
0.440879 0.789639 0.88893
0.59826 0.777188 0.880217
0.733715 0.767163 0.876631
0.851682 0.761471 0.87332
0.962737 0.758083 0.86302
0 0.889967 0.876356
0.0605173 0.901228 0.887648
0.152728 0.907332 0.893767
0.273945 0.905623 0.892088
0.429603 0.895048 0.881605
0.582467 0.881987 0.868711
0.714366 0.872847 0.860059
0.82707 0.86949 0.86009
0.955093 0.862333 0.85005
0 0.99527 0.871168
0.0529641 1 0.879606
0.142641 1 0.883864
0.261601 1 0.88188
0.416907 0.998947 0.871336
0.570932 0.98735 0.857603
0.703883 0.979141 0.845273
0.813107 0.977813 0.837476
0.933288 0.973449 0.830518
0 0 0.995117
0.0348211 0 0.995254
0.139437 0 0.991348
0.286244 0 0.980819
0.453742 0 0.966781
0.605463 0 0.95346
0.719173 0 0.947662
0.82417 0 0.945495
0.934142 0 0.944274
0 0.0552682 0.989303
0.0357977 0.0586252 0.992355
0.14136 0.0578927 0.992889
0.290562 0.0483253 0.987884
0.464393 0.0345617 0.980606
0.623545 0.0230411 0.975525
0.745922 0.0243229 0.976135
0.855528 0.032517 0.978454
0.969711 0.0413672 0.98146
0 0.159503 0.984192
0.0402533 0.169833 0.993576
0.151003 0.177462 1
0.303914 0.177111 1
0.481193 0.171832 1
0.642069 0.167529 0.998535
0.770123 0.173175 1
0.884276 0.183368 1
1 0.193088 1
0 0.304021 0.972396
0.034287 0.32195 0.988708
0.150271 0.33576 1
0.304143 0.340108 1
0.482551 0.336645 1
0.646189 0.332815 1
0.778973 0.338704 1
0.896117 0.350149 1
1 0.360922 1
0 0.474235 0.961746
0.022446 0.493095 0.980377
0.139269 0.50692 0.995651
0.29102 0.51284 1
0.470954 0.511345 1
0.637583 0.507897 1
0.773571 0.511055 1
0.890166 0.518151 1
1 0.523186 1
0 0.63154 0.957092
0.0204776 0.650584 0.977447
0.135119 0.663874 0.992813
0.280003 0.668971 1
0.4542 0.664851 1
0.617655 0.656794 0.997879
0.752087 0.652918 0.998199
0.865156 0.652918 0.999542
0.977096 0.651469 0.996109
0 0.770901 0.974929
0.048249 0.786465 0.991348
0.150378 0.796353 1
0.282109 0.797223 1
0.445121 0.788251 0.999527
0.601541 0.775372 0.990753
0.733593 0.766049 0.98645
0.844724 0.761837 0.985733
0.957977 0.757519 0.9794
0 0.889799 0.985916
0.0620279 0.90045 0.99704
0.154223 0.906035 1
0.276219 0.903761 1
0.432624 0.89276 0.992676
0.58616 0.879332 0.981628
0.718593 0.870054 0.976181
0.830381 0.86659 0.979202
0.951003 0.86099 0.976013
0 0.99411 0.979599
0.0533455 1 0.988342
0.143557 1 0.993271
0.263645 1 0.992401
0.419043 0.997284 0.982879
0.573037 0.985473 0.971176
0.705531 0.977096 0.963043
0.813062 0.975631 0.962203
0.926879 0.972457 0.962982
