CUBE/MM_dzien.cube
TITLE "Michal Herman"
LUT_3D_SIZE 33
0 0.017792 0.0192721
0.0209812 0.0144198 0.0169985
0.0413977 0.0132753 0.0161898
0.0620432 0.0121614 0.0152438
0.08365 0.0108492 0.0140993
0.106737 0.00921645 0.0126192
0.13193 0.00709545 0.0107424
0.160159 0.00419623 0.00849927
0.191272 0.000671397 0.00547799
0.225116 0 0.000946059
0.261875 0 0
0.300832 0 0
0.340978 0 0
0.381155 0 0
0.420645 0 0
0.461082 0 0
0.500664 0 0
0.538308 0 0
0.574228 0 0
0.607004 0 0
0.637736 0 0
0.666392 0 0
0.693034 0 0
0.718196 0 0
0.742473 0 0
0.766506 0 0
0.790936 0 0
0.816129 0 0
0.841245 0 0
0.866621 0 0
0.892622 0 0
0.918547 0 0
0.944717 0 0
0 0.035172 0.014023
0.012314 0.033402 0.011841
0.0360876 0.0313726 0.0121462
0.0581521 0.0299535 0.0122835
0.0803693 0.0286107 0.0118257
0.103685 0.0270695 0.0108339
0.128801 0.0251621 0.00923171
0.156405 0.0226902 0.00680552
0.186908 0.0195621 0.00393683
0.220615 0.0156863 0
0.257694 0.0109255 0
0.298009 0.00529488 0
0.338918 0.000167849 0
0.379797 0 0
0.419776 0 0
0.460624 0 0
0.500633 0 0
0.53872 0 0
0.575113 0 0
0.608377 0 0
0.639612 0 0
0.668727 0 0
0.695796 0 0
0.72134 0 0
0.745968 0 0
0.770291 0 0
0.794995 0 0
0.820523 0 0
0.84596 0 0
0.871687 0 0
0.898054 0 0
0.924315 0 0
0.950866 0 0
0 0.0526894 0.0114137
0.00680552 0.0518654 0.00996414
0.0298772 0.05037 0.00936904
0.0530404 0.0488289 0.00956741
0.0761883 0.0473945 0.00956741
0.100069 0.0458686 0.00906386
0.125444 0.0440681 0.00788891
0.153124 0.0417639 0.00585946
0.183551 0.0388647 0.00337224
0.21706 0.0352941 0
0.253697 0.0309453 0
0.292912 0.0260166 0
0.333776 0.0206912 0
0.37525 0.0151827 0
0.41677 0.00939956 0
0.458503 0.00421149 0
0.499245 0 0
0.537972 0 0
0.574975 0 0
0.60882 0 0
0.640635 0 0
0.670283 0 0
0.697871 0 0
0.723842 0 0
0.748867 0 0
0.773571 0 0
0.798596 0 0
0.824491 0 0
0.850309 0 0
0.876387 0 0
0.90312 0 0
0.929763 0 0
0.95668 0 0
0 0.0709239 0.00885023
0.00270085 0.0706951 0.00820935
0.024918 0.0696727 0.00749218
0.0478218 0.068452 0.00743114
0.0714122 0.0671244 0.0075227
0.0958114 0.0656748 0.00732433
0.121569 0.0639811 0.00654612
0.149462 0.0618296 0.00492866
0.180011 0.0591287 0.00288396
0.213535 0.0558022 0
0.250156 0.0517433 0
0.289357 0.0471199 0
0.330175 0.0421607 0
0.37145 0.0371099 0
0.411963 0.032105 0
0.453559 0.0268864 0
0.494713 0.0214847 0
0.53463 0.0159609 0
0.57319 0.0107118 0
0.607889 0.0068513 0
0.640482 0.0033875 0
0.670848 0.000793469 0
0.699031 0 0
0.725536 0 0
0.751019 0 0
0.776104 0 0
0.801511 0 0
0.827787 0 0
0.853971 0 0
0.880796 0 0
0.907546 0 0
0.934554 0 0
0.961852 0 0
0 0.090074 0.00585946
0 0.090425 0.00605783
0.0206912 0.089601 0.00546273
0.0431067 0.0887922 0.00543221
0.0666056 0.0877546 0.0055848
0.0912184 0.0865034 0.0055848
0.117266 0.0849775 0.00514229
0.145388 0.0830396 0.00393683
0.176104 0.0805524 0.00233463
0.209766 0.0775006 0
0.246494 0.0737163 0
0.285863 0.069398 0
0.326909 0.064744 0
0.36849 0.0600137 0
0.409186 0.0554208 0
0.450767 0.05066 0
0.491814 0.0458076 0
0.531151 0.0410315 0
0.56907 0.0366064 0
0.604105 0.0327459 0
0.637201 0.0296941 0
0.668193 0.027451 0
0.697047 0.0260471 0
0.724147 0.0253758 0
0.750134 0.0252232 0
0.775647 0.0254215 0
0.801404 0.0257115 0
0.828122 0.0258946 0
0.854704 0.0263218 0
0.88191 0.0268864 0
0.90901 0.0275273 0
0.93637 0.0283207 0
0.963973 0.029221 0
0 0.110369 0.00224308
0 0.111116 0.00343328
0.0163882 0.110567 0.00329595
0.0385443 0.110109 0.00347906
0.0618448 0.109422 0.00326543
0.0864576 0.108476 0.00354009
0.112642 0.107225 0.00344854
0.140917 0.105562 0.00318914
0.171832 0.103365 0.00155642
0.205646 0.100603 0
0.242557 0.0971542 0
0.2822 0.0931563 0
0.323629 0.088838 0
0.365652 0.0844587 0
0.406775 0.0802625 0
0.448631 0.0759594 0
0.489982 0.0715953 0
0.52961 0.0673228 0
0.567773 0.0634165 0
0.603082 0.0600748 0
0.636469 0.057557 0
0.66772 0.0558633 0
0.696864 0.0550088 0
0.724254 0.0548714 0
0.750546 0.0552682 0
0.776364 0.0560159 0
0.80238 0.0569009 0
0.829343 0.0576791 0
0.856214 0.0587015 0
0.883741 0.0598306 0
0.911162 0.0610666 0
0.938857 0.0623789 0
0.966796 0.063798 0
0 0.132021 0
0 0.133196 0
0.0113527 0.132967 0
0.0336461 0.132784 0
0.0568551 0.132448 0.000411994
0.0813916 0.131838 0.00128176
0.107637 0.130938 0.00169375
0.136019 0.129641 0.00143435
0.167102 0.12781 0.000106813
0.201083 0.125383 0
0.238209 0.122332 0
0.278202 0.11873 0
0.320104 0.114809 0
0.362707 0.110842 0
0.404425 0.107042 0
0.446677 0.103212 0
0.488457 0.0993057 0
0.528511 0.0955367 0
0.567102 0.0921035 0
0.602899 0.0892348 0
0.636805 0.0871748 0
0.668589 0.0859693 0
0.698268 0.0855879 0
0.726162 0.0859693 0
0.752926 0.0868696 0
0.779171 0.0881514 0
0.805585 0.0895705 0
0.832929 0.090898 0
0.860197 0.0924239 0
0.888075 0.0940414 0
0.915846 0.0957198 0
0.943862 0.0974746 0
0.972122 0.0992905 0
0 0.155337 0
0 0.156939 0
0.00460822 0.157259 0
0.0277256 0.157244 0
0.0511025 0.157259 0
0.0757458 0.157076 0
0.102083 0.156588 0
0.130556 0.155718 0
0.161791 0.154314 0
0.196002 0.152346 0
0.233387 0.149737 0
0.273762 0.146578 0
0.316152 0.143069 0
0.35938 0.139513 0
0.401785 0.136141 0
0.444526 0.132784 0
0.48687 0.129366 0
0.527428 0.12604 0
0.566537 0.123079 0
0.602945 0.120684 0
0.637476 0.119112 0
0.669886 0.118379 0
0.700175 0.118502 0
0.728634 0.119356 0
0.755901 0.120745 0
0.782605 0.122499 0
0.8094 0.124376 0
0.837095 0.126131 0
0.865064 0.128069 0
0.892882 0.130053 0
0.920958 0.132082 0
0.949248 0.134142 0
0.977737 0.136233 0
0 0.180606 0
0 0.18265 0
0 0.183764 0
0.0204471 0.18381 0
0.0443122 0.184192 0
0.0692454 0.184466 0
0.0957961 0.184466 0
0.124453 0.184085 0
0.155856 0.183185 0
0.190265 0.181689 0
0.227863 0.179568 0
0.268589 0.176883 0
0.311513 0.173846 0
0.355398 0.170703 0
0.398566 0.167758 0
0.441825 0.164889 0
0.48481 0.161944 0
0.525994 0.159136 0
0.565728 0.156649 0
0.602792 0.154726 0
0.637995 0.153613 0
0.671046 0.153323 0
0.701961 0.153841 0
0.730968 0.155093 0
0.758709 0.156878 0
0.785809 0.158984 0
0.812924 0.161212 0
0.840909 0.163287 0
0.869154 0.165515 0
0.897246 0.167758 0
0.925536 0.170016 0
0.954025 0.172259 0
0.982696 0.174517 0
0 0.208072 0
0 0.21062 0
0 0.21236 0
0.0115358 0.212879 0
0.0363622 0.213565 0
0.0617685 0.214252 0
0.0886549 0.21474 0
0.117556 0.214878 0
0.149157 0.214511 0
0.18378 0.21355 0
0.221622 0.211963 0
0.262684 0.209781 0
0.306096 0.207248 0
0.350652 0.204578 0
0.394644 0.202075 0
0.438468 0.19971 0
0.48217 0.197284 0
0.524041 0.194934 0
0.564416 0.192889 0
0.602121 0.191379 0
0.63798 0.1906 0
0.671626 0.190646 0
0.703105 0.19147 0
0.732616 0.193011 0
0.760784 0.195056 0
0.788235 0.197421 0
0.81561 0.199893 0
0.843824 0.202182 0
0.872282 0.204578 0
0.900542 0.206958 0
0.928985 0.209323 0.00196841
0.95758 0.211643 0.00535592
0.986328 0.213901 0.0087892
0 0.23798 0
0 0.241093 0
0 0.243442 0
1.5259e-05 0.244999 0
0.0271458 0.245686 0
0.0532692 0.246815 0
0.0805982 0.247807 0
0.109834 0.248478 0
0.141695 0.248661 0
0.176547 0.248264 0
0.214649 0.247242 0
0.256016 0.245563 0
0.299901 0.243503 0
0.345098 0.241291 0
0.389929 0.2392 0
0.434287 0.237263 0
0.478706 0.235233 0
0.521202 0.233265 0
0.562219 0.231556 0
0.600504 0.23032 0
0.636942 0.229816 0
0.671168 0.230076 0
0.703166 0.231098 0
0.733104 0.232807 0
0.761639 0.235019 0
0.789364 0.237537 0
0.816938 0.240131 0
0.845045 0.242603 0
0.873854 0.244984 0.000900282
0.902205 0.247379 0.00462348
0.930694 0.249714 0.00848402
0.959289 0.251972 0.0124208
0.988052 0.254185 0.0154726
0 0.270573 0
0 0.274281 0
0 0.277256 0
0 0.279591 0
0.0171511 0.280705 0
0.0443122 0.2822 0
0.0722362 0.283711 0
0.1019 0.284947 0
0.134051 0.285725 0
0.169177 0.285908 0
0.207492 0.285466 0
0.249104 0.284367 0
0.293355 0.28278 0
0.33904 0.28098 0
0.384573 0.27924 0
0.429389 0.277653 0
0.474434 0.275944 0
0.51751 0.274235 0
0.559091 0.272755 0
0.597894 0.271687 0
0.634852 0.271321 0
0.669551 0.271687 0
0.701976 0.272801 0
0.732296 0.274586 0
0.76109 0.276875 0
0.788998 0.279423 0
0.816678 0.282048 0
0.8448 0.284504 6.10361e-05
0.873671 0.286824 0.00386053
0.902007 0.289097 0.00799573
0.93048 0.291341 0.0114443
0.959182 0.293645 0.0151675
0.988113 0.295979 0.0187686
0 0.305425 0
0 0.309712 0
0 0.313313 0
0 0.31632 0
0.00662242 0.318364 0
0.0358129 0.319997 0
0.0644388 0.321996 0
0.0945449 0.323766 0
0.126986 0.325093 0
0.16228 0.325841 0
0.200717 0.325917 0
0.24242 0.325292 0
0.28687 0.324117 0
0.332906 0.322683 0
0.378973 0.321218 0
0.424125 0.319905 0
0.469673 0.318441 0
0.513252 0.31693 0
0.555291 0.315572 0
0.594537 0.314595 0
0.631922 0.31426 0
0.666987 0.314641 0
0.699763 0.315724 0
0.730343 0.317449 0
0.759319 0.319661 0
0.78732 0.322118 0
0.815015 0.324636 0
0.843122 0.327047 0.000442512
0.872129 0.329381 0.00450141
0.900633 0.331807 0.00923171
0.929381 0.334264 0.0128176
0.958312 0.336782 0.0168002
0.987442 0.339284 0.0206455
0 0.342168 0
0 0.347082 0
0 0.351278 0
0 0.35494 0
0 0.3579 0
0.0287022 0.359747 0
0.0579995 0.362142 0
0.0884718 0.364355 0
0.12108 0.366155 0
0.156466 0.367346 0
0.194888 0.367864 0
0.236561 0.367636 0
0.281041 0.366796 0
0.32723 0.365637 0
0.373678 0.364385 0
0.419028 0.363256 0
0.464897 0.361929 0
0.508858 0.360525 0
0.551186 0.359228 0
0.590814 0.358221 0
0.628489 0.357809 0
0.663813 0.358068 0
0.696803 0.358999 0
0.727581 0.360586 0
0.756741 0.362722 0
0.78497 0.365255 0
0.812879 0.367941 0
0.841199 0.370581 0.000366217
0.870436 0.373083 0.00485237
0.899153 0.375677 0.00926223
0.928069 0.378286 0.0136873
0.957168 0.38088 0.0178531
0.986419 0.38349 0.0218509
0 0.380682 0
0 0.386145 0
0 0.39086 0
0 0.395026 0
0 0.39855 0
0.0233921 0.400763 0
0.0532845 0.403449 0
0.0840467 0.405997 0
0.116747 0.408148 0
0.152087 0.409674 0
0.190417 0.410513 0
0.231922 0.410574 0
0.276295 0.41001 0
0.322469 0.409003 0
0.3691 0.407874 0
0.414542 0.406836 0
0.460487 0.405554 0
0.504707 0.404135 0
0.547173 0.402777 0
0.58706 0.401663 0
0.624949 0.401114 0
0.660578 0.401343 0
0.693965 0.402335 0
0.725155 0.404059 0
0.754665 0.406378 0
0.783169 0.409033 0
0.811292 0.411856 0
0.839719 0.414603 0.00105287
0.869093 0.417166 0.00613413
0.897948 0.419837 0.0104219
0.92697 0.422492 0.0148928
0.956161 0.425132 0.0191196
0.985473 0.427741 0.0231479
0 0.420981 0
0 0.426886 0
0 0.431998 0
0 0.436561 0
0 0.440497 0
0.0182956 0.443107 0
0.0488289 0.445914 0
0.0797894 0.448707 0
0.112505 0.451057 0
0.147768 0.452781 0
0.185885 0.453788 0
0.227161 0.454032 0
0.271305 0.453574 0
0.317357 0.452659 0
0.363973 0.451499 0
0.409461 0.450401 0
0.455375 0.449073 0
0.499886 0.447639 0
0.542626 0.446342 0
0.583032 0.44538 0
0.621378 0.444984 0
0.657465 0.445335 0
0.691279 0.446433 0
0.72285 0.448234 0
0.752682 0.450584 0
0.781415 0.4533 0
0.809689 0.456138 0
0.838193 0.4589 0.00164797
0.867658 0.461418 0.00698863
0.896605 0.464012 0.0112154
0.925673 0.466575 0.015671
0.954864 0.469062 0.0198672
0.984176 0.471489 0.0238346
0 0.462608 0
0 0.468772 0
0 0.474052 0
0 0.478737 0
0 0.48275 0
0.0132296 0.485512 0
0.0445258 0.48809 0
0.0755932 0.490761 0
0.108217 0.493034 0
0.143267 0.494743 0
0.181109 0.49575 0
0.222004 0.495979 0
0.265766 0.495521 0
0.311559 0.494606 0
0.35819 0.493553 0
0.403906 0.492607 0
0.450034 0.491585 0
0.495064 0.490455 0
0.53814 0.489387 0
0.579034 0.488609 0
0.617746 0.488334 0
0.6542 0.488716 0
0.688334 0.489784 0
0.720241 0.491524 0
0.750301 0.493751 0
0.779187 0.4963 0
0.807538 0.49897 0
0.836042 0.501549 0.00109865
0.865522 0.503868 0.00639353
0.894453 0.506249 0.0105898
0.923476 0.508568 0.0149691
0.952605 0.510811 0.0190433
0.981826 0.512963 0.022858
0 0.503441 0
0 0.509514 0
0 0.514733 0
0 0.519341 0
0 0.523323 0
0.00819409 0.526345 0
0.0406195 0.528511 0
0.0716564 0.531044 0
0.104097 0.533227 0
0.138796 0.534829 0
0.176303 0.535836 0
0.216953 0.536202 0
0.260578 0.535943 0
0.306416 0.535302 0
0.353201 0.534493 0
0.399176 0.533745 0
0.445365 0.532921 0
0.490776 0.53196 0
0.534127 0.531029 0
0.575372 0.530327 0
0.614328 0.530068 0
0.651041 0.530434 0
0.685435 0.531426 0
0.71754 0.533043 0
0.747753 0.535134 0
0.776715 0.537545 0
0.805051 0.540047 0
0.833478 0.542458 0
0.862898 0.54461 0.00476081
0.891707 0.546761 0.00894179
0.920592 0.548837 0.0131228
0.949569 0.550805 0.0169375
0.978607 0.552682 0.0204776
0 0.54284 0
0 0.548867 0
0 0.554055 0
0 0.558648 0
0 0.562631 0
0.00488289 0.565713 0
0.0375067 0.567575 0
0.068513 0.56997 0
0.100893 0.572137 0
0.135592 0.573846 0
0.173053 0.575021 0
0.213596 0.575586 0
0.257099 0.575555 0
0.302846 0.575097 0
0.34963 0.574456 0
0.395743 0.573861 0
0.441871 0.573175 0
0.487449 0.57232 0
0.530953 0.571481 0
0.572427 0.570794 0
0.611475 0.570504 0
0.648371 0.570764 0
0.682887 0.571588 0
0.715114 0.572976 0
0.745357 0.574823 0
0.774273 0.576944 0
0.802533 0.579171 0
0.830777 0.581308 0
0.860044 0.583169 0.0028687
0.888609 0.58497 0.00715648
0.917281 0.586694 0.0106661
0.945983 0.588296 0.0140383
0.974731 0.589746 0.0170596
0 0.580789 0
0 0.586557 0
0 0.591455 0
0 0.595819 0
0 0.59971 0
0.0039826 0.602853 0
0.0368353 0.604868 0
0.0679789 0.607477 0
0.100359 0.609873 0
0.134951 0.611841 0
0.172244 0.61326 0
0.212528 0.614023 0
0.255787 0.614176 0
0.30135 0.61387 0
0.347997 0.613306 0
0.394064 0.612741 0
0.439994 0.612116 0
0.485527 0.611246 0
0.529 0.610361 0
0.570565 0.609598 0
0.609583 0.609171 0
0.64651 0.609262 0
0.681071 0.609918 0
0.713298 0.611093 0
0.743465 0.612711 0
0.772244 0.614603 0
0.800275 0.616571 0
0.828244 0.618433 0
0.857206 0.619989 0.00122072
0.885466 0.621439 0.00512703
0.913787 0.622797 0.00790417
0.942168 0.624018 0.0107881
0.970565 0.625101 0.0133059
0 0.616648 0
0 0.622644 0
0 0.627756 0
0 0.632349 0
0 0.636408 0
0.00704967 0.639658 0
0.0397345 0.641901 0
0.0707103 0.644709 0
0.102892 0.647288 0
0.137255 0.649424 0
0.174228 0.65098 0
0.21416 0.651865 0
0.257053 0.65211 0
0.302281 0.651865 0
0.348653 0.651331 0
0.394522 0.650752 0
0.440116 0.65008 0
0.48539 0.649165 0
0.528634 0.648157 0
0.570062 0.647257 0
0.608972 0.646616 0
0.645823 0.646479 0
0.680293 0.646845 0
0.712398 0.647715 0
0.742382 0.649012 0
0.770916 0.650553 0
0.798627 0.652171 0
0.8262 0.653666 0
0.85481 0.654871 0.000198367
0.882719 0.655985 0.00317388
0.910674 0.656947 0.00621042
0.938689 0.657801 0.00796521
0.966751 0.658503 0.00996414
0 0.652277 0
0 0.658488 0
0 0.663752 0
0 0.668467 0
0 0.672587 0
0.0143587 0.675624 0
0.0458381 0.678279 0
0.0764172 0.681239 0
0.108217 0.68394 0
0.142184 0.686168 0
0.178729 0.6878 0
0.218173 0.688746 0
0.260594 0.689006 0
0.305379 0.688746 0
0.351339 0.688167 0
0.396826 0.687465 0
0.441978 0.686702 0
0.486778 0.685634 0
0.529625 0.684443 0
0.570733 0.683299 0
0.609461 0.682383 0
0.646097 0.681895 0
0.680354 0.681895 0
0.712245 0.682383 0
0.741985 0.683299 0
0.770199 0.684443 0
0.797574 0.685695 0
0.824765 0.686839 0
0.852995 0.687694 0.000137331
0.880552 0.688457 0.00239567
0.908156 0.689082 0.00459297
0.93579 0.689555 0.0065156
0.9635 0.689906 0.00743114
0 0.687587 0
0 0.693919 0
0 0.69926 0
0 0.70396 0
0 0.708049 0
0.0248264 0.710765 0
0.0546731 0.713817 0
0.0846571 0.716884 0
0.115969 0.719646 0
0.149386 0.721874 0
0.185382 0.723491 0
0.224231 0.724422 0
0.266072 0.72462 0
0.310262 0.724254 0
0.355673 0.723522 0
0.400641 0.722652 0
0.445228 0.721675 0
0.489342 0.720394 0
0.53167 0.718914 0
0.572305 0.717449 0
0.610697 0.716167 0
0.647089 0.715297 0
0.681086 0.714916 0
0.712734 0.715007 0
0.742199 0.715526 0
0.770108 0.716304 0
0.797131 0.717189 0
0.823926 0.717983 0
0.851408 0.718471 0.00103761
0.878965 0.718898 0.00267033
0.906203 0.719173 0.00408942
0.933486 0.719295 0.00535592
0.96083 0.719295 0.00616464
0 0.722454 0
0 0.728801 0
0 0.734096 0
0 0.738705 0
0.00576791 0.742535 0
0.0365454 0.745205 0
0.0652934 0.748425 0
0.0945907 0.751492 0
0.125277 0.754208 0
0.158053 0.756359 0
0.193362 0.757855 0.00328069
0.231479 0.758633 0.00595102
0.272618 0.758663 0.00762951
0.316121 0.758099 0.00793469
0.360861 0.757137 0.00738537
0.405173 0.755978 0.00642405
0.449119 0.754726 0.00512703
0.492454 0.75317 0.00308232
0.534218 0.751385 0.000885023
0.574319 0.749584 0
0.612421 0.747951 0
0.648524 0.7467 0
0.682277 0.745937 0
0.71368 0.745632 0
0.742885 0.745769 0
0.770489 0.746181 0
0.797162 0.746685 3.0518e-05
0.823575 0.747127 0.00167849
0.85066 0.74728 0.00280766
0.877836 0.747356 0.00381476
0.904738 0.747295 0.00462348
0.931701 0.747112 0.00515755
0.958755 0.746838 0.00535592
0 0.756832 0
0 0.763104 0
0 0.768246 0
0 0.772625 0
0.0204318 0.775723 0
0.0487068 0.778851 0
0.076463 0.782055 0
0.105013 0.785031 0.00277714
0.134951 0.787564 0.00834669
0.166949 0.789502 0.0129549
0.201511 0.790814 0.0163119
0.238895 0.791409 0.0182803
0.279286 0.791211 0.0189364
0.322042 0.790387 0.0185702
0.366049 0.78912 0.0174716
0.409659 0.78764 0.0160067
0.452949 0.786068 0.0143435
0.49546 0.784146 0.0120851
0.536629 0.78204 0.0093843
0.576211 0.779889 0.00706493
0.614023 0.777935 0.0041352
0.649882 0.776333 0.00196841
0.683391 0.775189 0.000793469
0.714565 0.774502 0.000442512
0.743496 0.774258 0.000869764
0.770825 0.774304 0.00180056
0.797147 0.774441 0.00299077
0.823194 0.774563 0.00415045
0.849683 0.774472 0.00497444
0.876829 0.774212 0.0053254
0.903471 0.773907 0.00555428
0.930205 0.77351 0.00553903
0.957046 0.773022 0.00527962
0 0.790677 0
0 0.79678 0
0 0.801678 0
0.00497444 0.805692 0
0.0335699 0.808423 0
0.0602121 0.811612 0.00370794
0.0870375 0.814664 0.0101625
0.114733 0.817365 0.016144
0.143908 0.819684 0.0210269
0.175204 0.821439 0.0247196
0.209003 0.822507 0.0272526
0.245579 0.822828 0.0285801
0.285206 0.822354 0.0287022
0.327214 0.821241 0.0278325
0.370535 0.819669 0.0262455
0.413458 0.817853 0.0242771
0.456107 0.815961 0.0221408
0.497887 0.813718 0.01944
0.538506 0.811261 0.0163272
0.5776 0.808774 0.0130617
0.615045 0.806424 0.0099031
0.650645 0.80444 0.00723278
0.683894 0.802899 0.00590524
0.714839 0.801862 0.00471504
0.743572 0.801266 0.0043946
0.770657 0.800992 0.00485237
0.796765 0.800855 0.00556954
0.822553 0.800748 0.00622568
0.848753 0.800443 0.00648508
0.875731 0.799985 0.00640879
0.902174 0.799496 0.0062562
0.928756 0.798947 0.0059205
0.955459 0.798306 0.00538643
0 0.823987 0
0 0.829816 0
0 0.834333 0
0.0180514 0.837583 0.00296025
0.0444495 0.840452 0.00921645
0.0698863 0.843412 0.0159304
0.0958572 0.846204 0.0217899
0.122835 0.848722 0.0267338
0.151293 0.850782 0.0307622
0.181842 0.852247 0.0337987
0.214893 0.85304 0.0357671
0.250721 0.853071 0.0365911
0.289616 0.852308 0.0362402
0.330907 0.850889 0.0348974
0.373556 0.848997 0.0328527
0.415885 0.84686 0.0304112
0.457938 0.844633 0.0277867
0.499092 0.842069 0.0246281
0.539223 0.839277 0.0210575
0.57789 0.836439 0.017319
0.615015 0.833722 0.0136873
0.65037 0.831388 0.0105592
0.683467 0.829557 0.00816358
0.71426 0.828199 0.00714122
0.742855 0.827329 0.00645457
0.769818 0.826825 0.00636301
0.795758 0.826505 0.00662242
0.821378 0.826215 0.0069276
0.847379 0.825772 0.00694286
0.874235 0.825162 0.00660716
0.900572 0.824567 0.0062562
0.927062 0.823911 0.00573739
0.953704 0.823224 0.00500496
0 0.856718 0
0 0.862181 0
0.00189212 0.866636 0.00621042
0.0276646 0.869245 0.0123751
0.0522469 0.872038 0.0189059
0.0768597 0.874815 0.0247044
0.102098 0.877379 0.0296635
0.128389 0.879591 0.0338903
0.156161 0.881376 0.0373236
