CUBE/PATI_night.cube
TITLE "Generated by Resolve"
LUT_3D_SIZE 5
0.0352178 0.0446784 0.0466926
0.145144 0.0724193 0.0418097
0.513832 0.124941 0.0139925
0.818524 0.481224 0.260975
0.998901 0.891371 0.70869
0.0154116 0.0784924 0.0598306
0.0691844 0.109728 0.0696422
0.511925 0.146624 0.0142519
0.818173 0.480613 0.260395
0.998901 0.891371 0.70869
0.0429694 0.477821 0.110918
0.042771 0.47567 0.109819
0.626825 0.589426 0.0803998
0.872831 0.569589 0.27718
0.998901 0.891371 0.70869
0.0656291 0.706203 0.472053
0.0656291 0.706188 0.471748
0.0655985 0.70602 0.469673
0.952667 0.889311 0.576944
1 0.918975 0.738094
0.787411 0.982147 0.849332
0.787411 0.982147 0.849332
0.787457 0.982132 0.849317
0.787945 0.982116 0.849073
1 0.99324 0.877668
0.0398871 0.0529183 0.109957
0.124468 0.068513 0.10988
0.535317 0.104723 0.0645609
0.818524 0.481224 0.260975
0.998901 0.891371 0.70869
0.00968948 0.093492 0.131258
0.0538643 0.108904 0.124865
0.538857 0.127871 0.0652018
0.818357 0.480919 0.260685
0.998901 0.891371 0.70869
0.0438849 0.479286 0.224002
0.0437018 0.477226 0.222873
0.597391 0.582635 0.0836194
0.87155 0.570748 0.286946
0.998901 0.891371 0.70869
0.065568 0.705043 0.479759
0.065568 0.705058 0.479606
0.0655222 0.70486 0.477317
0.950774 0.891295 0.588067
1 0.91902 0.73814
0.78703 0.982162 0.849531
0.78703 0.982162 0.849531
0.787076 0.982162 0.8495
0.787549 0.982132 0.849271
1 0.99324 0.877714
0.0990158 0.0753948 0.499184
0.160998 0.0842145 0.491997
0.506889 0.0299535 0.414939
0.818067 0.461265 0.436301
0.998901 0.891371 0.70869
0.0586404 0.123064 0.489815
0.131945 0.139254 0.504723
0.518425 0.049424 0.424933
0.818219 0.461204 0.437659
0.998901 0.891371 0.70869
0.044892 0.473991 0.4598
0.04477 0.472633 0.459648
0.510872 0.634592 0.583429
0.851728 0.556435 0.482002
0.998901 0.891371 0.70869
0.0656443 0.701137 0.550744
0.0656291 0.701076 0.550576
0.0655985 0.700771 0.549233
0.939239 0.906294 0.67248
1 0.919249 0.741787
0.784253 0.98233 0.850935
0.784253 0.98233 0.850935
0.784298 0.982315 0.850904
0.78471 0.9823 0.850706
1 0.993255 0.87805
0.316228 0.656306 0.756588
0.384787 0.66894 0.764828
0.635416 0.68043 0.789731
0.853758 0.589441 0.798352
0.984207 0.895918 0.82623
0.314092 0.657221 0.756741
0.383001 0.669718 0.764965
0.635691 0.682338 0.790585
0.853635 0.58938 0.798383
0.984207 0.895933 0.826322
0.120745 0.669734 0.743023
0.201205 0.684245 0.754833
0.598688 0.732708 0.80293
0.874098 0.636439 0.811307
0.984192 0.896132 0.826947
0.0690929 0.73048 0.692653
0.0690776 0.730358 0.692531
0.0690013 0.729656 0.691814
0.914977 0.938231 0.869261
0.989227 0.914137 0.842237
0.770489 0.986984 0.87219
0.770489 0.986984 0.87219
0.770489 0.986969 0.872145
0.770535 0.986877 0.871778
0.999817 0.993606 0.883665
0.961517 0.971084 0.983276
0.962402 0.970886 0.983352
0.969024 0.968856 0.983963
0.981567 0.936339 0.985336
0.986831 0.868559 0.958251
0.961532 0.971115 0.983291
0.962417 0.970901 0.983352
0.96907 0.968917 0.983978
0.981598 0.936385 0.985351
0.986831 0.868605 0.958267
0.961547 0.971298 0.983322
0.962448 0.971084 0.983398
0.969039 0.969085 0.983978
0.981628 0.936477 0.985382
0.986831 0.868605 0.958267
0.945068 0.979355 0.983108
0.945602 0.979248 0.983139
0.95375 0.977981 0.983719
0.98262 0.9514 0.986252
0.987747 0.880369 0.958892
0.865064 0.992798 0.989624
0.865064 0.992798 0.989624
0.865064 0.992798 0.989624
0.865064 0.992798 0.989624
0.980209 0.990768 0.916976
