CUBE/PATI_night.cube
TITLE "Generated by Resolve"
LUT_3D_SIZE 9
0.0352178 0.0446784 0.0466926
0.0403143 0.0471046 0.0495155
0.145144 0.0724193 0.0418097
0.344182 0.0879225 0.00709545
0.513832 0.124941 0.0139925
0.644175 0.217411 0.0564736
0.818524 0.481224 0.260975
0.952392 0.75256 0.545373
0.998901 0.891371 0.70869
0.0292058 0.0503853 0.0506142
0.0319219 0.0505226 0.0508125
0.121416 0.0717937 0.0473945
0.329412 0.0910811 0.00917067
0.512963 0.124681 0.0139315
0.643915 0.217075 0.0562753
0.818357 0.480919 0.260685
0.952392 0.75256 0.545373
0.998901 0.891371 0.70869
0.0154116 0.0784924 0.0598306
0.0150454 0.0817426 0.0603952
0.0691844 0.109728 0.0696422
0.302632 0.141421 0.0336156
0.511925 0.146624 0.0142519
0.643519 0.216571 0.0559701
0.818173 0.480613 0.260395
0.952316 0.752361 0.545144
0.998901 0.891371 0.70869
0.0175631 0.190906 0.100862
0.0174411 0.189593 0.10013
0.0206912 0.227375 0.0870985
0.230121 0.305989 0.0414893
0.608408 0.334752 0.0437476
0.683467 0.28838 0.0482948
0.817823 0.479988 0.2598
0.952224 0.752163 0.54493
0.998901 0.891371 0.70869
0.0429694 0.477821 0.110918
0.0428779 0.47689 0.110567
0.042771 0.47567 0.109819
0.0466468 0.525139 0.0442054
0.626825 0.589426 0.0803998
0.896254 0.607156 0.0990005
0.872831 0.569589 0.27718
0.95198 0.751583 0.544259
0.998901 0.891371 0.70869
0.0619059 0.682124 0.237659
0.0619059 0.682109 0.237171
0.0618906 0.682078 0.236286
0.0618753 0.682063 0.233677
0.104311 0.692805 0.213169
0.871748 0.772808 0.175372
0.982483 0.794858 0.338781
0.975677 0.798093 0.560052
0.998901 0.891371 0.70869
0.0656291 0.706203 0.472053
0.0656291 0.706172 0.471855
0.0656291 0.706188 0.471748
0.0656138 0.706127 0.471214
0.0655985 0.70602 0.469673
0.495674 0.789792 0.513085
0.952667 0.889311 0.576944
1 0.918273 0.65861
1 0.918975 0.738094
0.252369 0.796613 0.671489
0.252369 0.796613 0.671489
0.251728 0.79646 0.67129
0.251865 0.79646 0.67126
0.251072 0.796155 0.67071
0.249195 0.795407 0.669337
0.728359 0.910582 0.731228
0.989288 0.975753 0.786114
1 0.98555 0.846479
0.787411 0.982147 0.849332
0.787411 0.982147 0.849332
0.787411 0.982147 0.849332
0.787442 0.982147 0.849317
0.787457 0.982132 0.849317
0.787579 0.982132 0.849256
0.787945 0.982116 0.849073
0.925048 0.993881 0.864652
1 0.99324 0.877668
0.0361791 0.0469215 0.0556802
0.0392157 0.0476539 0.0556344
0.143786 0.0721141 0.0480659
0.363882 0.0897841 0.0123598
0.52282 0.118563 0.0183566
0.644129 0.216983 0.0571756
0.818524 0.481224 0.260975
0.952392 0.75256 0.545373
0.998901 0.891371 0.70869
0.0308537 0.0498817 0.0562753
0.0328832 0.0498665 0.0562753
0.129259 0.071931 0.0511635
0.350393 0.0931868 0.0145724
0.523064 0.117723 0.0188754
0.643793 0.216022 0.0579995
0.818357 0.480919 0.260685
0.952392 0.75256 0.545373
0.998901 0.891371 0.70869
0.0146334 0.0799115 0.0671397
0.0147707 0.0823072 0.066865
0.0685283 0.106294 0.0737011
0.29897 0.136263 0.0377356
0.521675 0.138537 0.0185092
0.64329 0.214511 0.0593423
0.818357 0.480919 0.260685
0.952316 0.752361 0.545144
0.998901 0.891371 0.70869
0.0179599 0.194354 0.11545
0.0178073 0.192767 0.114076
0.020676 0.2262 0.100084
0.231205 0.298787 0.0534676
0.605325 0.332235 0.0442206
0.683375 0.286641 0.057557
0.817823 0.479988 0.2598
0.952224 0.752163 0.54493
0.998901 0.891371 0.70869
0.043183 0.476646 0.156603
0.0431067 0.4757 0.156161
0.0429541 0.474128 0.155398
0.0460822 0.517815 0.0548867
0.615747 0.586603 0.0791485
0.892683 0.608423 0.0992599
0.873304 0.570245 0.277119
0.95198 0.751583 0.544259
0.998901 0.891371 0.70869
0.061738 0.678691 0.256168
0.061738 0.678691 0.25565
0.0617227 0.678721 0.255009
0.0617075 0.678691 0.252628
0.0967727 0.690578 0.237064
0.864439 0.775891 0.221958
0.979568 0.797787 0.362509
0.975723 0.798184 0.560067
0.998901 0.891371 0.70869
0.0655985 0.70573 0.474998
0.0655985 0.705745 0.474937
0.0655985 0.705715 0.474693
0.0655985 0.705699 0.474311
0.065568 0.705577 0.472847
0.491859 0.789822 0.516594
0.951965 0.890105 0.581186
1 0.918532 0.66096
1 0.91899 0.738125
0.250034 0.796551 0.672145
0.250034 0.796551 0.672145
0.249393 0.796399 0.671946
0.249531 0.796399 0.671916
0.2486 0.796094 0.671412
0.24686 0.795346 0.670008
0.727718 0.910582 0.731899
0.989075 0.975845 0.786984
1 0.98555 0.846708
0.787259 0.982147 0.849409
0.787259 0.982147 0.849409
0.787274 0.982147 0.849409
0.787274 0.982147 0.849409
0.78732 0.982147 0.849378
0.787442 0.982147 0.849317
0.787808 0.982116 0.849134
0.924941 0.993866 0.864683
1 0.99324 0.877699
0.0398871 0.0529183 0.109957
0.0435035 0.0537118 0.108446
0.124468 0.068513 0.10988
0.369985 0.0834363 0.0731518
0.535317 0.104723 0.0645609
0.643229 0.202396 0.0835737
0.818524 0.481224 0.260975
0.952392 0.75256 0.545373
0.998901 0.891371 0.70869
0.0351873 0.0563363 0.11313
0.0393683 0.0562295 0.11133
0.122484 0.070161 0.110307
0.368551 0.0879988 0.0762036
0.534981 0.103853 0.0671855
0.642924 0.201266 0.0846876
0.818524 0.481224 0.260975
0.952392 0.75256 0.545373
0.998901 0.891371 0.70869
0.00968948 0.093492 0.131258
0.010071 0.0954147 0.13019
0.0538643 0.108904 0.124865
0.325994 0.133593 0.0911574
0.538857 0.127871 0.0652018
0.642588 0.199817 0.0863508
0.818357 0.480919 0.260685
0.952316 0.752361 0.545144
0.998901 0.891371 0.70869
0.0204013 0.217243 0.181369
0.020264 0.215717 0.180148
0.0229953 0.247105 0.171115
0.228946 0.306584 0.142
0.589746 0.326726 0.0832837
0.681682 0.276616 0.0932174
0.817823 0.479988 0.2598
0.952224 0.752163 0.54493
0.998901 0.891371 0.70869
0.0438849 0.479286 0.224002
0.0438087 0.478416 0.223682
0.0437018 0.477226 0.222873
0.0464637 0.514031 0.152987
0.597391 0.582635 0.0836194
0.885496 0.610025 0.102358
0.87155 0.570748 0.286946
0.95198 0.751583 0.544259
0.998901 0.891371 0.70869
0.0614481 0.673213 0.284764
0.0614328 0.673198 0.284291
0.0614328 0.673243 0.283589
0.0614176 0.673182 0.281376
0.0857099 0.687343 0.272236
0.8533 0.780407 0.288808
0.97583 0.801724 0.391501
0.975814 0.798367 0.560113
0.998901 0.891371 0.70869
0.065568 0.705043 0.479759
0.065568 0.705043 0.479683
0.065568 0.705058 0.479606
0.0655528 0.704997 0.47895
0.0655222 0.70486 0.477317
0.485893 0.789731 0.521355
0.950774 0.891295 0.588067
1 0.918914 0.664469
1 0.91902 0.73814
0.246448 0.79646 0.673167
0.246525 0.796475 0.673136
0.246525 0.796475 0.673136
0.246021 0.796323 0.672892
0.245014 0.796002 0.672419
0.243076 0.795254 0.671061
0.726741 0.910582 0.732921
0.988846 0.975891 0.788067
1 0.98555 0.847074
0.78703 0.982162 0.849531
0.78703 0.982162 0.849531
0.78703 0.982162 0.849531
0.787045 0.982162 0.849515
0.787076 0.982162 0.8495
0.787182 0.982162 0.849454
0.787549 0.982132 0.849271
0.924941 0.993881 0.864775
1 0.99324 0.877714
0.0527504 0.0424201 0.276051
0.0566873 0.0443885 0.268498
0.112398 0.057084 0.256733
0.33254 0.0595407 0.229541
0.536995 0.0629129 0.214237
0.645197 0.160769 0.190799
0.811429 0.470359 0.30042
0.952392 0.75256 0.545373
0.998901 0.891371 0.70869
0.0484016 0.0478523 0.282673
0.0522927 0.0493324 0.275792
0.111879 0.0623331 0.262531
0.336141 0.0630198 0.235431
0.536126 0.0622721 0.215564
0.64509 0.160098 0.192309
0.811337 0.470161 0.300999
0.952392 0.75256 0.545373
0.998901 0.891371 0.70869
0.0208896 0.0936751 0.285893
0.0231937 0.0955062 0.292165
0.0720226 0.115129 0.288396
0.345937 0.106645 0.27126
0.549187 0.0891432 0.223194
0.645014 0.159304 0.194446
0.810987 0.469474 0.301793
0.952316 0.752361 0.545144
0.998901 0.891371 0.70869
0.023682 0.245701 0.314626
0.0235447 0.244175 0.313817
0.026276 0.273808 0.329137
0.185031 0.323018 0.338872
0.591363 0.307179 0.272465
0.68246 0.241749 0.220417
0.809934 0.46743 0.304128
0.952224 0.752163 0.54493
0.998901 0.891371 0.70869
0.0453803 0.486152 0.359625
0.0453193 0.485451 0.359335
0.0452277 0.484504 0.358907
0.0484779 0.521721 0.351568
0.55108 0.605753 0.359747
0.840055 0.626795 0.336187
0.857298 0.565454 0.343709
0.95198 0.751583 0.544259
0.998901 0.891371 0.70869
0.0606699 0.657877 0.369955
0.0606699 0.657832 0.369757
0.0606546 0.657816 0.369329
0.0606241 0.657557 0.368139
0.0670024 0.682643 0.371832
0.82649 0.793729 0.420737
0.967147 0.811627 0.457557
0.975052 0.798566 0.564187
0.998901 0.891371 0.70869
0.065507 0.703243 0.496605
0.065507 0.703212 0.496422
0.065507 0.703212 0.496361
0.0654917 0.703136 0.495903
0.0654765 0.702953 0.494621
0.466468 0.79028 0.538582
0.946792 0.895232 0.610193
1 0.919905 0.674556
1 0.919097 0.738247
0.236103 0.796216 0.676081
0.236103 0.796216 0.676081
0.236103 0.796216 0.676081
0.235554 0.796063 0.675853
0.235264 0.795911 0.675547
0.232929 0.795148 0.674296
0.724208 0.910658 0.735943
0.988174 0.976043 0.791394
1 0.98555 0.848188
0.786297 0.982208 0.849897
0.786328 0.982208 0.849882
0.786328 0.982208 0.849882
0.786328 0.982208 0.849882
0.786374 0.982208 0.849867
0.78648 0.982193 0.849805
0.786816 0.982177 0.849638
0.924651 0.993866 0.865049
1 0.99324 0.877791
0.0990158 0.0753948 0.499184
0.113512 0.0767224 0.499672
0.160998 0.0842145 0.491997
0.324758 0.086305 0.467765
0.506889 0.0299535 0.414939
0.666712 0.155306 0.412634
0.818067 0.461265 0.436301
0.943603 0.745876 0.570153
0.998901 0.891371 0.70869
0.0918898 0.0834821 0.499016
0.107378 0.0844434 0.502205
0.159304 0.0929732 0.496284
0.329397 0.0926223 0.471565
0.50869 0.0310521 0.417395
0.666575 0.155001 0.41326
0.818173 0.461357 0.436851
0.943572 0.745861 0.570245
0.998901 0.891371 0.70869
0.0586404 0.123064 0.489815
0.0710918 0.125658 0.502159
0.131945 0.139254 0.504723
0.339406 0.13846 0.484321
0.518425 0.049424 0.424933
0.666087 0.154116 0.414069
0.818219 0.461204 0.437659
0.943511 0.745815 0.570443
0.998901 0.891371 0.70869
0.0263371 0.267826 0.446616
0.0265507 0.270008 0.450523
0.0296788 0.300404 0.4869
0.240375 0.340032 0.526741
0.589639 0.264546 0.492424
0.708492 0.252491 0.441886
0.818341 0.460822 0.440177
0.943236 0.745449 0.570855
0.998901 0.891371 0.70869
0.044892 0.473991 0.4598
0.0448615 0.47361 0.459693
0.04477 0.472633 0.459648
0.0496834 0.524712 0.508797
0.510872 0.634592 0.583429
0.813001 0.618585 0.547967
0.851728 0.556435 0.482002
0.942321 0.744213 0.572412
0.998901 0.891371 0.70869
0.0593881 0.634958 0.488502
0.0593729 0.634852 0.488472
0.0593729 0.634775 0.488334
0.0593271 0.634318 0.487831
0.0649119 0.693553 0.539742
0.804257 0.826444 0.611154
0.951324 0.831937 0.593194
0.964584 0.792706 0.598001
0.998901 0.891371 0.70869
0.0656443 0.701137 0.550744
0.0656443 0.701137 0.550744
0.0656291 0.701076 0.550576
0.0656291 0.70103 0.550256
0.0655985 0.700771 0.549233
0.407187 0.797055 0.60058
0.939239 0.906294 0.67248
1 0.922713 0.702403
1 0.919249 0.741787
0.209644 0.797406 0.687984
0.208881 0.797238 0.687816
0.208988 0.797238 0.687785
0.209125 0.797238 0.687724
0.207919 0.796918 0.687297
0.205249 0.796109 0.686046
0.715908 0.91133 0.746075
0.986236 0.976364 0.801312
1 0.985519 0.851469
0.784253 0.98233 0.850935
0.784253 0.98233 0.850935
0.784253 0.98233 0.850935
0.784253 0.98233 0.850935
0.784298 0.982315 0.850904
0.78439 0.982315 0.850858
0.78471 0.9823 0.850706
0.923995 0.993881 0.865934
1 0.993255 0.87805
0.0517128 0.348074 0.617746
0.0706645 0.355749 0.625284
0.13785 0.370779 0.638148
0.376043 0.396872 0.658228
0.590707 0.335348 0.653834
0.697139 0.272557 0.618891
0.849241 0.511101 0.648005
0.942611 0.747341 0.671763
0.994064 0.888899 0.740185
0.0504158 0.349798 0.617807
0.0695201 0.357229 0.62536
0.133928 0.372457 0.638239
0.376333 0.399268 0.658839
0.591974 0.33724 0.65481
0.697139 0.27277 0.61912
0.849104 0.510857 0.648157
0.942626 0.747372 0.671901
0.994049 0.888899 0.740215
0.0432746 0.356008 0.615763
0.0587167 0.363897 0.623728
0.117784 0.379171 0.637079
0.372091 0.407599 0.659571
0.593774 0.342687 0.656413
0.701366 0.281697 0.623682
0.848966 0.510628 0.648325
0.942657 0.747448 0.672206
0.994034 0.888899 0.740307
0.0382086 0.390509 0.602762
0.0390326 0.398413 0.611292
0.0458686 0.415488 0.628122
0.314961 0.456306 0.662821
0.607431 0.405158 0.670207
0.720913 0.333623 0.63769
0.848707 0.510277 0.649195
0.942687 0.747448 0.672892
0.994003 0.888884 0.740536
0.0473487 0.495064 0.563195
0.0473182 0.494743 0.563333
0.047776 0.499443 0.569162
0.0537575 0.553155 0.631113
0.549371 0.628702 0.719676
0.814023 0.573632 0.700542
0.880262 0.590997 0.675151
0.942779 0.747463 0.674922
0.993881 0.888838 0.741268
0.0578012 0.612467 0.557839
0.0577859 0.612375 0.557824
0.0577707 0.612116 0.557717
0.0577249 0.611643 0.557504
0.0667735 0.703304 0.663737
0.777768 0.849439 0.767163
0.927413 0.830594 0.74638
0.954589 0.79379 0.699977
0.993469 0.888716 0.74374
0.0670176 0.710979 0.634775
0.0670176 0.710887 0.634699
0.0670176 0.710887 0.634699
0.0670024 0.710735 0.634485
0.0669566 0.710369 0.633951
0.342092 0.820172 0.718196
0.927581 0.92752 0.787945
0.996963 0.93051 0.773007
0.999771 0.916808 0.772396
0.164736 0.810864 0.728115
0.164019 0.810727 0.728008
0.164019 0.810727 0.728008
0.164157 0.810697 0.727932
0.163012 0.810361 0.72755
0.160174 0.809461 0.726513
0.699672 0.918502 0.781094
0.981933 0.977722 0.826612
1 0.985382 0.860533
0.778408 0.983032 0.855283
0.778408 0.983032 0.855283
0.778408 0.983032 0.855283
0.778424 0.983017 0.855268
0.778454 0.983017 0.855253
0.778531 0.983017 0.855192
0.778805 0.982971 0.854978
0.922103 0.993881 0.868727
1 0.993347 0.879057
0.316228 0.656306 0.756588
0.344808 0.661402 0.759991
0.384787 0.66894 0.764828
0.478691 0.685176 0.775357
0.635416 0.68043 0.789731
0.786587 0.600992 0.784497
0.853758 0.589441 0.798352
0.96289 0.768582 0.811109
0.984207 0.895918 0.82623
0.315206 0.656535 0.756588
0.344091 0.661723 0.760052
0.384436 0.669352 0.764935
0.478706 0.685863 0.775616
0.635752 0.681117 0.790082
0.786816 0.601419 0.78471
0.853697 0.589349 0.798321
0.96289 0.768582 0.811109
0.984207 0.895933 0.826322
0.314092 0.657221 0.756741
0.342443 0.662089 0.760067
0.383001 0.669718 0.764965
0.478264 0.686519 0.775814
0.635691 0.682338 0.790585
0.787335 0.602472 0.785138
0.853635 0.58938 0.798383
0.96289 0.768566 0.811215
0.984207 0.895933 0.826322
0.292226 0.659754 0.75581
0.32343 0.664988 0.759457
0.366445 0.672831 0.764675
0.468223 0.690593 0.776287
0.631968 0.689906 0.793133
0.78909 0.607263 0.786618
0.858091 0.599023 0.803479
0.96286 0.768383 0.811307
0.984207 0.895994 0.826505
0.120745 0.669734 0.743023
0.141833 0.674418 0.746868
0.201205 0.684245 0.754833
0.375662 0.710018 0.774502
0.598688 0.732708 0.80293
0.804822 0.665522 0.80293
0.874098 0.636439 0.811307
0.962737 0.767773 0.811826
0.984192 0.896132 0.826947
0.0677501 0.690837 0.697017
0.0677806 0.690837 0.697124
0.0677958 0.690837 0.69723
0.0689708 0.697505 0.70425
0.200473 0.773709 0.771496
0.786374 0.840269 0.843107
0.927153 0.806332 0.824628
0.96875 0.816068 0.824063
0.984161 0.896544 0.828305
0.0690929 0.73048 0.692653
0.0690776 0.730358 0.692531
0.0690776 0.730358 0.692531
0.0690623 0.730175 0.692363
0.0690013 0.729656 0.691814
0.335546 0.851225 0.800443
0.914977 0.938231 0.869261
0.981033 0.924193 0.859205
0.989227 0.914137 0.842237
0.137545 0.864652 0.810529
0.137545 0.864652 0.810529
0.137072 0.864546 0.810468
0.137072 0.864546 0.810468
0.136248 0.86424 0.810224
0.134096 0.863432 0.809567
0.709743 0.945647 0.850217
0.972732 0.980804 0.875807
1 0.982086 0.882445
0.770489 0.986984 0.87219
0.770489 0.986984 0.87219
0.770489 0.986984 0.87219
0.770489 0.986984 0.87219
0.770489 0.986969 0.872145
0.770504 0.986938 0.872053
0.770535 0.986877 0.871778
0.920607 0.99411 0.879576
0.999817 0.993606 0.883665
0.714382 0.877607 0.882811
0.717861 0.877928 0.883375
0.723522 0.878416 0.884352
0.740185 0.879744 0.887434
0.783017 0.881224 0.89633
0.863462 0.866041 0.901686
0.917769 0.804105 0.887221
0.96231 0.773938 0.90309
0.98584 0.889494 0.897032
0.714687 0.877791 0.882948
0.718227 0.878111 0.883543
0.723796 0.878584 0.884504
0.740215 0.879789 0.887465
0.783123 0.881285 0.896376
0.863523 0.866117 0.901732
0.917845 0.804166 0.887251
0.96231 0.773938 0.90309
0.98584 0.889494 0.897032
0.714687 0.877882 0.882994
0.718288 0.878202 0.883589
0.723766 0.878676 0.884535
0.740475 0.880003 0.887633
0.783246 0.881392 0.896437
0.863676 0.866224 0.901793
0.917937 0.804471 0.887388
0.962249 0.773922 0.903059
0.98584 0.889494 0.897032
0.714473 0.878111 0.883055
0.718257 0.878447 0.883696
0.723613 0.878904 0.884596
0.740307 0.880247 0.887694
0.783551 0.881788 0.896681
0.864073 0.866972 0.902205
0.91812 0.804913 0.887526
0.962188 0.773907 0.903029
0.98584 0.889494 0.897032
0.711147 0.879774 0.883238
0.714778 0.880079 0.883818
0.720333 0.880568 0.884733
0.737179 0.881987 0.887724
0.78143 0.88397 0.896712
0.864302 0.870832 0.903914
0.919234 0.807523 0.888228
0.965423 0.779202 0.90721
0.985855 0.889418 0.897124
0.669978 0.88864 0.882506
0.671901 0.888655 0.882612
0.679057 0.88896 0.883268
0.701534 0.891081 0.886244
0.759854 0.896651 0.895888
0.860151 0.895338 0.913115
0.929412 0.839643 0.897871
0.971222 0.802853 0.907073
0.98587 0.88925 0.897353
0.295506 0.888136 0.865995
0.295506 0.888136 0.865995
0.296529 0.888182 0.866041
0.297566 0.888228 0.866072
0.330953 0.892393 0.86891
0.708095 0.934295 0.908278
0.92961 0.93492 0.92137
0.975326 0.895674 0.903853
0.987076 0.909331 0.903593
0.121355 0.935454 0.910048
0.121141 0.935332 0.909972
0.121141 0.935332 0.909972
0.121141 0.935332 0.909972
0.120806 0.935134 0.90985
0.119844 0.934508 0.909392
0.761501 0.978958 0.926116
0.96527 0.977539 0.914992
0.994217 0.95816 0.915282
0.819211 0.991165 0.93724
0.819211 0.991165 0.93724
0.819211 0.991165 0.93724
0.819211 0.991165 0.93724
0.819135 0.991165 0.937133
0.819043 0.991165 0.937041
0.818784 0.99115 0.936751
0.945739 0.995239 0.915877
0.990585 0.993744 0.896696
0.961517 0.971084 0.983276
0.961868 0.971008 0.983307
0.962402 0.970886 0.983352
0.964034 0.970474 0.98349
0.969024 0.968856 0.983963
0.978256 0.962524 0.985092
0.981567 0.936339 0.985336
0.978256 0.880522 0.970855
0.986831 0.868559 0.958251
0.961517 0.971099 0.983291
0.961868 0.971008 0.983307
0.962386 0.970886 0.983352
0.964034 0.970474 0.98349
0.969024 0.968872 0.983963
0.978256 0.962524 0.985092
0.981582 0.93637 0.985351
0.978256 0.880522 0.970855
0.986831 0.868559 0.958251
0.961532 0.971115 0.983291
0.961883 0.971023 0.983322
0.962417 0.970901 0.983352
0.964034 0.970489 0.98349
0.96907 0.968917 0.983978
0.978271 0.962539 0.985107
0.981598 0.936385 0.985351
0.978271 0.880522 0.970855
0.986831 0.868605 0.958267
0.961517 0.971145 0.983291
0.961883 0.971054 0.983322
0.962432 0.970932 0.983368
0.96405 0.970535 0.983505
0.96907 0.968963 0.983978
0.978286 0.962554 0.985107
0.981598 0.936385 0.985367
0.978286 0.880552 0.970901
0.986831 0.868605 0.958267
0.961547 0.971298 0.983322
0.961837 0.971237 0.983352
0.962448 0.971084 0.983398
0.964187 0.970657 0.983536
0.969039 0.969085 0.983978
0.978363 0.962707 0.985122
0.981628 0.936477 0.985382
0.978363 0.880705 0.971069
0.986831 0.868605 0.958267
0.960723 0.972061 0.983368
0.960998 0.972 0.983383
0.961608 0.971847 0.983429
0.963317 0.971435 0.983566
0.968444 0.96994 0.984009
0.978164 0.963729 0.985107
0.981949 0.937469 0.985611
0.978546 0.881239 0.971466
0.987198 0.872206 0.959762
0.945068 0.979355 0.983108
0.945068 0.979355 0.983108
0.945602 0.979248 0.983139
0.947204 0.978973 0.983246
0.95375 0.977981 0.983719
0.969894 0.973999 0.985
0.98262 0.9514 0.986252
0.979828 0.891249 0.973892
0.987747 0.880369 0.958892
0.852232 0.989731 0.984268
0.852232 0.989731 0.984268
0.852232 0.989731 0.984268
0.852415 0.989715 0.984268
0.852598 0.9897 0.984268
0.864897 0.989624 0.984421
0.946075 0.990936 0.986328
0.978988 0.954467 0.969345
0.991852 0.914687 0.951263
0.865064 0.992798 0.989624
0.865064 0.992798 0.989624
0.865064 0.992798 0.989624
0.865064 0.992798 0.989624
0.865064 0.992798 0.989624
0.865064 0.992798 0.989624
0.865064 0.992798 0.989624
0.980957 0.996094 0.977569
0.980209 0.990768 0.916976
