CUBE/PATI_night.cube
TITLE "Generated by Resolve"
LUT_3D_SIZE 33
0.0352178 0.0446784 0.0466926
0.0352331 0.0446937 0.0466926
0.0354467 0.0447547 0.0467536
0.0363928 0.0453498 0.0476234
0.0403143 0.0471046 0.0495155
0.0516976 0.0500496 0.0501106
0.0731823 0.055375 0.049134
0.106706 0.0637522 0.0464179
0.145144 0.0724193 0.0418097
0.194705 0.079057 0.0296788
0.247898 0.0828717 0.0173342
0.298268 0.0852827 0.0105287
0.344182 0.0879225 0.00709545
0.386084 0.0932784 0.00712596
0.427604 0.101518 0.00859083
0.470771 0.112367 0.0111086
0.513832 0.124941 0.0139925
0.552285 0.138872 0.0173495
0.583993 0.155779 0.0231479
0.612909 0.180468 0.0352789
0.644175 0.217411 0.0564736
0.681163 0.268009 0.0883345
0.724453 0.330892 0.132372
0.771725 0.403357 0.190433
0.818524 0.481224 0.260975
0.860594 0.55845 0.336706
0.89688 0.630732 0.411246
0.927581 0.695872 0.481453
0.952392 0.75256 0.545373
0.971618 0.800061 0.59971
0.98587 0.83827 0.640116
0.995132 0.871717 0.679576
0.998901 0.891371 0.70869
0.0349584 0.044892 0.0470283
0.0349889 0.0448768 0.0469825
0.0351873 0.0449226 0.047013
0.0361791 0.0453803 0.0476081
0.0394293 0.0470893 0.0497292
0.0508278 0.0498817 0.0503395
0.0734264 0.0555276 0.0491188
0.106493 0.0638437 0.0465705
0.144381 0.0723125 0.0419318
0.192859 0.078996 0.0302739
0.245838 0.0829328 0.0178836
0.297093 0.0852216 0.0106813
0.343542 0.087892 0.00715648
0.385748 0.0932021 0.00714122
0.4271 0.101411 0.00857557
0.47042 0.112276 0.0110781
0.513664 0.124895 0.0139773
0.552132 0.138811 0.0173342
0.583871 0.155718 0.0231327
0.612802 0.180362 0.0352331
0.644053 0.217243 0.0563668
0.680995 0.267796 0.0881971
0.724269 0.330632 0.132174
0.771725 0.403357 0.190433
0.818524 0.481224 0.260975
0.860594 0.55845 0.336706
0.89688 0.630732 0.411246
0.927474 0.695644 0.481209
0.952392 0.75256 0.545373
0.971618 0.800061 0.59971
0.98587 0.83827 0.640116
0.995132 0.871717 0.679576
0.998901 0.891371 0.70869
0.0345006 0.0456855 0.0480201
0.0345312 0.0455634 0.0478828
0.034638 0.0455024 0.0478065
0.035462 0.0456855 0.0480049
0.0381476 0.0470283 0.0498054
0.0498512 0.0498817 0.0504463
0.0720226 0.0554971 0.0493477
0.104082 0.0635691 0.046952
0.141375 0.0720226 0.0425269
0.188907 0.078996 0.0316014
0.242252 0.0832837 0.0189212
0.293355 0.085893 0.0113375
0.341253 0.0883192 0.00743114
0.385412 0.0931258 0.00715648
0.426795 0.10135 0.00856031
0.470069 0.112184 0.0110628
0.513481 0.124834 0.0139773
0.55198 0.138766 0.017319
0.583871 0.155718 0.0231327
0.61268 0.18024 0.035172
0.644053 0.217243 0.0563668
0.680995 0.267796 0.0881971
0.724269 0.330632 0.132174
0.771725 0.403357 0.190433
0.818524 0.481224 0.260975
0.860594 0.55845 0.336706
0.89688 0.630732 0.411246
0.927474 0.695644 0.481209
0.952392 0.75256 0.545373
0.971618 0.800061 0.59971
0.98587 0.83827 0.640116
0.995132 0.871717 0.679576
0.998901 0.891371 0.70869
0.0336156 0.0475471 0.0499428
0.033814 0.0473793 0.0498512
0.033753 0.0473335 0.0497292
0.0339666 0.0473487 0.0496529
0.0360571 0.0479438 0.0500801
0.0458839 0.0503395 0.0507515
0.0663462 0.0555276 0.0504921
0.0968032 0.0631113 0.0483101
0.133608 0.0715496 0.0441901
0.180636 0.0789654 0.0342718
0.235203 0.0838026 0.0209201
0.286656 0.0868544 0.0126497
0.33637 0.0894484 0.00807202
0.382147 0.0941482 0.00730907
0.426657 0.101259 0.00857557
0.469886 0.112139 0.0110475
0.513146 0.124743 0.0139467
0.551843 0.138705 0.0173037
0.583749 0.155642 0.0231022
0.61268 0.18024 0.035172
0.643915 0.217075 0.0562753
0.680995 0.267796 0.0881971
0.724269 0.330632 0.132174
0.771725 0.403357 0.190433
0.818524 0.481224 0.260975
0.860594 0.55845 0.336706
0.89688 0.630732 0.411246
0.927474 0.695644 0.481209
0.952392 0.75256 0.545373
0.971618 0.800061 0.59971
0.98587 0.83827 0.640116
0.995132 0.871717 0.679576
0.998901 0.891371 0.70869
0.0292058 0.0503853 0.0506142
0.0295109 0.0501869 0.0505531
0.0296788 0.0501259 0.0505531
0.0300755 0.0501259 0.0505837
0.0319219 0.0505226 0.0508125
0.0395666 0.0523537 0.0515602
0.0585794 0.0569772 0.0525063
0.0868544 0.0639811 0.0512856
0.121416 0.0717937 0.0473945
0.165454 0.0789349 0.0389868
0.219409 0.0849012 0.0257267
0.275257 0.0885939 0.0152285
0.329412 0.0910811 0.00917067
0.377356 0.0959793 0.00772107
0.423819 0.103075 0.00860609
0.469535 0.112047 0.0110323
0.512963 0.124681 0.0139315
0.55169 0.138643 0.0172885
0.583642 0.155566 0.0230716
0.612573 0.180133 0.035111
0.643915 0.217075 0.0562753
0.680842 0.267567 0.0880598
0.724269 0.330632 0.132174
0.771725 0.403357 0.190433
0.818357 0.480919 0.260685
0.860594 0.55845 0.336706
0.89688 0.630732 0.411246
0.927474 0.695644 0.481209
0.952392 0.75256 0.545373
0.971618 0.800061 0.59971
0.98584 0.838163 0.639994
0.995132 0.871717 0.679576
0.998901 0.891371 0.70869
0.0250401 0.0548562 0.0516213
0.02533 0.0545205 0.051545
0.0255589 0.0543526 0.0515145
0.0259403 0.0543526 0.0515602
0.0274357 0.0547646 0.0518196
0.0330663 0.056199 0.0526741
0.0498207 0.0603037 0.054551
0.0772259 0.0671855 0.0556344
0.108843 0.0744793 0.0524453
0.148714 0.0817884 0.0455177
0.200443 0.0880751 0.0328679
0.260014 0.0918441 0.0194095
0.318563 0.094377 0.0114137
0.371695 0.0986801 0.00851453
0.420401 0.10576 0.00875868
0.468193 0.113909 0.0110018
0.512795 0.124636 0.0139162
0.551537 0.138582 0.0172732
0.58352 0.155489 0.0230411
0.612573 0.180133 0.035111
0.643915 0.217075 0.0562753
0.680842 0.267567 0.0880598
0.724269 0.330632 0.132174
0.771527 0.403052 0.190188
0.818357 0.480919 0.260685
0.860594 0.55845 0.336706
0.89688 0.630732 0.411246
0.927474 0.695644 0.481209
0.952392 0.75256 0.545373
0.971618 0.800061 0.59971
0.98584 0.838163 0.639994
0.995132 0.871717 0.679576
0.998901 0.891371 0.70869
0.021561 0.0610513 0.0532082
0.0217136 0.0607309 0.0531167
0.0218357 0.0606851 0.0531167
0.0221103 0.0608988 0.0532082
0.0230259 0.0616312 0.0535286
0.0265354 0.0632639 0.0543984
0.0396735 0.0670634 0.0564736
0.0685588 0.0741894 0.0599222
0.104265 0.0828565 0.0599985
0.14316 0.0905623 0.0529183
0.188998 0.096025 0.0408026
0.242679 0.0992142 0.0263371
0.30338 0.101152 0.0156558
0.363867 0.104387 0.0105745
0.416526 0.110384 0.00933852
0.465904 0.118471 0.0110475
0.512413 0.125307 0.0138857
0.5514 0.138537 0.017258
0.583398 0.155428 0.0230106
0.612451 0.180026 0.03505
0.643793 0.216907 0.0561685
0.680842 0.267567 0.0880598
0.724086 0.330358 0.131975
0.771527 0.403052 0.190188
0.818357 0.480919 0.260685
0.860594 0.55845 0.336706
0.89688 0.630732 0.411246
0.927474 0.695644 0.481209
0.952316 0.752361 0.545144
0.971618 0.800061 0.59971
0.98584 0.838163 0.639994
0.995132 0.871717 0.679576
0.998901 0.891371 0.70869
0.0184024 0.0687114 0.0558175
0.0185245 0.068452 0.0557259
0.0185702 0.0685588 0.0557259
0.0186007 0.069276 0.0559243
0.0188449 0.0707408 0.0563363
0.0201419 0.0734722 0.0572366
0.0278325 0.0780804 0.0592355
0.0521096 0.0849012 0.062501
0.0932631 0.0945754 0.0664073
0.138979 0.104051 0.0639811
0.188434 0.111803 0.0517739
0.24094 0.11548 0.0357366
0.295048 0.116426 0.0229801
0.353399 0.117586 0.0156252
0.41117 0.120317 0.0112306
0.4636 0.126329 0.0114748
0.511894 0.133333 0.0137484
0.551095 0.138415 0.0172274
0.583276 0.155352 0.0229953
0.612345 0.179904 0.0349889
0.643656 0.216739 0.0560769
0.68069 0.267353 0.0879072
0.724086 0.330358 0.131975
0.771527 0.403052 0.190188
0.818357 0.480919 0.260685
0.860441 0.55816 0.336416
0.89688 0.630732 0.411246
0.927474 0.695644 0.481209
0.952316 0.752361 0.545144
0.971618 0.800061 0.59971
0.98584 0.838163 0.639994
0.995132 0.871717 0.679576
0.998901 0.891371 0.70869
0.0154116 0.0784924 0.0598306
0.0154726 0.0782635 0.0597238
0.0155032 0.0782635 0.059678
0.0153201 0.079408 0.0599069
0.0150454 0.0817426 0.0603952
0.0153353 0.0857404 0.0611734
0.017731 0.0926833 0.0628061
0.0317693 0.0998245 0.0656596
0.0691844 0.109728 0.0696422
0.124651 0.120699 0.0726024
0.183276 0.13077 0.066865
0.244068 0.138521 0.0502327
0.302632 0.141421 0.0336156
0.355032 0.142 0.0234836
0.40798 0.143618 0.017319
0.461677 0.143832 0.0135805
0.511925 0.146624 0.0142519
0.553887 0.149676 0.0168917
0.583047 0.1552 0.0229343
0.612222 0.179797 0.0349279
0.643519 0.216571 0.0559701
0.680522 0.267124 0.0877699
0.723903 0.330098 0.131792
0.771344 0.402747 0.189929
0.818173 0.480613 0.260395
0.860441 0.55816 0.336416
0.89688 0.630732 0.411246
0.927474 0.695644 0.481209
0.952316 0.752361 0.545144
0.971618 0.800061 0.59971
0.98584 0.838163 0.639994
0.995117 0.871611 0.679408
0.998901 0.891371 0.70869
0.0120089 0.0932021 0.0659495
0.0120851 0.0928511 0.0657969
0.0121614 0.092668 0.0656748
0.012253 0.0939498 0.0658579
0.0123598 0.0970474 0.0663615
0.0127565 0.101961 0.0668803
0.013489 0.110079 0.0676585
0.0165713 0.119478 0.0690471
0.0376593 0.129747 0.0724498
0.0903944 0.142473 0.0755627
0.163745 0.154314 0.0758831
0.238758 0.164584 0.0661631
0.310201 0.173053 0.0474708
0.371252 0.176623 0.0330663
0.42118 0.177996 0.0246128
0.468147 0.178531 0.0193179
0.515084 0.174655 0.0167849
0.558572 0.170291 0.0172274
0.588998 0.169055 0.0225223
0.612009 0.179568 0.0348058
0.643397 0.216403 0.0558785
0.680369 0.266911 0.0876173
0.723735 0.329824 0.131594
0.771344 0.402747 0.189929
0.818173 0.480613 0.260395
0.860441 0.55816 0.336416
0.896757 0.630472 0.410971
0.927474 0.695644 0.481209
0.952316 0.752361 0.545144
0.971557 0.799908 0.599542
0.98584 0.838163 0.639994
0.995117 0.871611 0.679408
0.998901 0.891371 0.70869
0.0111391 0.115373 0.0747539
0.0111086 0.114961 0.0745861
0.0110933 0.114656 0.0744335
0.0111391 0.115236 0.0744182
0.0114443 0.118608 0.0748302
0.0120089 0.123537 0.0750896
0.0128634 0.132265 0.0749523
0.013901 0.14432 0.0743267
0.0177157 0.155459 0.0749218
0.0458228 0.169543 0.0766155
0.118807 0.185565 0.0752575
0.216754 0.197116 0.0718242
0.308797 0.207355 0.0598917
0.385916 0.216739 0.0428931
0.446052 0.220645 0.031632
0.492851 0.222583 0.0252384
0.532998 0.221469 0.0209506
0.569848 0.212512 0.0182803
0.60119 0.200107 0.022034
0.620386 0.19617 0.0343938
0.643137 0.216068 0.0556802
0.680217 0.266682 0.08748
0.723552 0.329564 0.131395
0.771145 0.402457 0.189685
0.81799 0.480293 0.260105
0.860288 0.55787 0.336126
0.896757 0.630472 0.410971
0.927367 0.695415 0.480949
0.952316 0.752361 0.545144
0.971557 0.799908 0.599542
0.98584 0.838163 0.639994
0.995117 0.871611 0.679408
0.998901 0.891371 0.70869
0.013611 0.147005 0.0864881
0.0135805 0.146563 0.0863203
0.0135348 0.146136 0.0861677
0.0135195 0.146029 0.0859998
0.0137179 0.148226 0.0859388
0.0142061 0.153643 0.0859236
0.0149081 0.161929 0.0851148
0.0159915 0.174487 0.0827955
0.017258 0.188434 0.0795911
0.0207523 0.202945 0.0779431
0.0599374 0.222141 0.0732738
0.163241 0.240513 0.0621805
0.287724 0.25066 0.0562905
0.392096 0.260243 0.0488746
0.469017 0.269322 0.0402075
0.525917 0.273655 0.0336614
0.568704 0.274754 0.027924
0.600992 0.271427 0.0235142
0.624445 0.256657 0.0214237
0.64126 0.238651 0.0312352
0.653254 0.23476 0.054963
0.679896 0.266239 0.0871901
0.723369 0.32929 0.131197
0.770962 0.402152 0.189425
0.81799 0.480293 0.260105
0.860288 0.55787 0.336126
0.89662 0.630213 0.410681
0.927367 0.695415 0.480949
0.952316 0.752361 0.545144
0.971557 0.799908 0.599542
0.98584 0.838163 0.639994
0.995117 0.871611 0.679408
0.998901 0.891371 0.70869
0.0175631 0.190906 0.100862
0.0175174 0.190494 0.10071
0.0174716 0.189883 0.100511
0.0174258 0.189487 0.100374
0.0174411 0.189593 0.10013
0.0177615 0.193256 0.0995804
0.0184176 0.200809 0.0976577
0.01944 0.212726 0.0937209
0.0206912 0.227375 0.0870985
0.0221561 0.244404 0.0801556
0.0263066 0.263783 0.0730907
0.0843671 0.287617 0.0557412
0.230121 0.305989 0.0414893
0.375036 0.314809 0.0475624
0.48159 0.324254 0.0521859
0.555718 0.332036 0.0495613
0.608408 0.334752 0.0437476
0.646494 0.335225 0.0380407
0.670634 0.329442 0.0326238
0.679683 0.308629 0.0289616
0.683467 0.28838 0.0482948
0.691371 0.286198 0.0870832
0.723003 0.328756 0.130816
0.770764 0.401862 0.189166
0.817823 0.479988 0.2598
0.860136 0.55758 0.335821
0.89662 0.630213 0.410681
0.927367 0.695415 0.480949
0.952224 0.752163 0.54493
0.971557 0.799908 0.599542
0.98584 0.838163 0.639994
0.995117 0.871611 0.679408
0.998901 0.891371 0.70869
0.0227207 0.248219 0.114824
0.0227054 0.247959 0.114748
0.0226596 0.247456 0.114626
0.0225986 0.246937 0.114519
0.0225834 0.246693 0.114443
0.0225986 0.246799 0.114168
0.0228885 0.250309 0.112062
0.0238346 0.261448 0.105608
0.0250553 0.276265 0.0943618
0.0264286 0.292714 0.0815747
0.0280613 0.312413 0.0687724
0.0355077 0.334661 0.0528878
0.13164 0.361563 0.0372778
0.322179 0.378393 0.0437629
0.470039 0.386084 0.0579843
0.573175 0.394522 0.0638285
0.643214 0.400809 0.0624704
0.690288 0.402731 0.0583352
0.722652 0.402289 0.0539101
0.73962 0.394308 0.0481422
0.737682 0.369604 0.0439765
0.730709 0.349142 0.0780804
0.735637 0.350011 0.132982
0.770382 0.401251 0.188663
0.817456 0.479377 0.25922
0.859983 0.557275 0.335531
0.896498 0.629938 0.410407
0.92726 0.695186 0.48069
0.952224 0.752163 0.54493
0.971481 0.799741 0.599359
0.985809 0.838056 0.639887
0.995117 0.871611 0.679408
0.998901 0.891371 0.70869
0.0289464 0.317922 0.123003
0.0289158 0.317632 0.122927
0.0288853 0.317327 0.122881
0.0288243 0.316716 0.12282
0.028809 0.316426 0.122774
0.0287785 0.316121 0.122698
0.0287175 0.315526 0.122621
0.0290837 0.319951 0.117479
0.0302129 0.334127 0.101976
0.0315404 0.350973 0.0797589
0.03299 0.368933 0.0614176
0.0345922 0.387778 0.0462654
0.0576028 0.411444 0.0376135
0.213169 0.438849 0.0406195
0.427268 0.452277 0.0559854
0.566796 0.4598 0.0700084
0.663981 0.467689 0.0758526
0.727886 0.472801 0.0758221
0.769238 0.474525 0.0735943
0.795132 0.47277 0.0706645
0.805417 0.462181 0.065507
0.79704 0.43714 0.0679179
0.781582 0.419409 0.126436
0.783337 0.423285 0.193881
0.817288 0.479072 0.25893
0.859831 0.556985 0.335241
0.896361 0.629679 0.410132
0.927153 0.694942 0.480446
0.952148 0.751965 0.544701
0.971481 0.799741 0.599359
0.985809 0.838056 0.639887
0.995102 0.871504 0.679255
0.998901 0.891371 0.70869
0.0358587 0.396536 0.120607
0.0358282 0.396201 0.120592
0.0357977 0.39588 0.120562
0.0357671 0.39556 0.1205
0.0357519 0.395224 0.12047
0.0357214 0.394903 0.120439
0.0356909 0.394583 0.120378
0.0356298 0.393927 0.120333
0.035996 0.398764 0.111757
0.0372931 0.4159 0.0827802
0.0386511 0.433463 0.0565347
0.0399786 0.449577 0.0434272
0.0417334 0.464775 0.0395972
0.0990005 0.487373 0.0421759
0.326497 0.511879 0.049958
0.530205 0.523995 0.068513
0.660105 0.531594 0.0816205
0.749264 0.539239 0.0873274
0.805844 0.543633 0.0883803
0.839353 0.544182 0.0874952
0.859144 0.541268 0.085832
0.864637 0.529763 0.0823987
0.851881 0.508034 0.107424
0.830579 0.494789 0.195697
0.829404 0.500526 0.266316
0.859525 0.556405 0.334646
0.896239 0.629419 0.409857
0.927047 0.694713 0.480186
0.952071 0.751781 0.544472
0.97142 0.799588 0.599176
0.985779 0.837949 0.639765
0.995102 0.871504 0.679255
0.998901 0.891371 0.70869
0.0429694 0.477821 0.110918
0.0429694 0.477836 0.110735
0.0429389 0.477516 0.110658
0.0429084 0.477195 0.110643
0.0428779 0.47689 0.110567
0.0428779 0.476905 0.110384
0.0428473 0.4766 0.110231
0.0428016 0.475959 0.110155
0.042771 0.47567 0.109819
0.0430762 0.480171 0.0979782
0.0444648 0.498924 0.0613718
0.0457465 0.514763 0.0465858
0.0466468 0.525139 0.0442054
0.0553292 0.535744 0.0452583
0.172732 0.557137 0.0488441
0.447623 0.577066 0.0615091
0.626825 0.589426 0.0803998
0.744396 0.59855 0.092195
0.823804 0.605478 0.0976425
0.870771 0.608179 0.0991684
0.896254 0.607156 0.0990005
0.910628 0.603983 0.0982071
0.911894 0.593927 0.105364
0.895369 0.578592 0.17261
0.872831 0.569589 0.27718
0.870436 0.576761 0.343481
0.895979 0.628885 0.409308
0.92694 0.694484 0.479942
0.95198 0.751583 0.544259
0.971359 0.799435 0.598993
0.985779 0.837949 0.639765
0.995087 0.871397 0.679103
0.998901 0.891371 0.70869
0.0495918 0.553552 0.103883
0.0496071 0.553582 0.103685
0.0495766 0.553307 0.103609
0.049546 0.553048 0.103517
0.049546 0.553063 0.103304
0.0495308 0.552804 0.103227
0.0495308 0.552834 0.102922
0.0495003 0.552575 0.102724
0.0494545 0.552041 0.102449
0.0494392 0.551827 0.101869
0.0497444 0.556451 0.0891432
0.0510109 0.573358 0.0582284
0.0519112 0.58436 0.05037
0.0522011 0.587594 0.0494698
0.0872206 0.595499 0.0508736
0.293309 0.615335 0.0554208
0.551904 0.633433 0.0731823
0.70869 0.646937 0.0905318
0.814206 0.655833 0.100999
0.882383 0.661692 0.106004
0.919371 0.662745 0.107622
0.938323 0.661799 0.107958
0.947753 0.659373 0.112093
0.943832 0.654169 0.157626
0.925872 0.645548 0.264134
0.907485 0.63888 0.358129
0.905516 0.64715 0.418387
0.926726 0.694026 0.479438
0.951904 0.751385 0.54403
0.971298 0.799268 0.59881
0.985733 0.837827 0.639643
0.995087 0.871397 0.679103
0.998901 0.891371 0.70869
0.0551461 0.615579 0.11548
0.0551614 0.615595 0.115373
0.0551308 0.615412 0.115084
0.0551308 0.615427 0.114946
0.0551156 0.615244 0.114656
0.0551156 0.615259 0.114504
0.0551156 0.61529 0.11426
0.0551003 0.615122 0.113832
0.0550851 0.614954 0.11339
0.0550698 0.614816 0.112718
0.055024 0.614481 0.111849
0.0552529 0.61796 0.101305
0.0561685 0.630259 0.0773175
0.0564431 0.634485 0.0641642
0.0562905 0.633158 0.0583658
0.141512 0.643168 0.0576181
0.415167 0.662394 0.0649271
0.636805 0.681453 0.0836194
0.776333 0.695949 0.09897
0.869352 0.704112 0.10811
0.924788 0.707774 0.112398
0.952819 0.708522 0.114031
0.965743 0.708812 0.124758
0.969299 0.710033 0.16524
0.961227 0.71075 0.261753
0.947555 0.705165 0.360815
0.935592 0.699992 0.432639
0.934798 0.709834 0.488289
0.951736 0.750988 0.543572
0.971237 0.799115 0.598627
0.985687 0.837705 0.639506
0.995056 0.87129 0.67895
0.998901 0.891371 0.70869
0.0593271 0.658671 0.166796
0.0593118 0.658579 0.166354
0.0593118 0.658595 0.166201
0.0593118 0.65861 0.166049
0.0593118 0.658503 0.165759
0.0593118 0.658518 0.165606
0.0593118 0.658534 0.165515
0.0592966 0.658442 0.165057
0.0592813 0.658366 0.164462
0.0592813 0.658289 0.163867
0.059266 0.658244 0.163012
0.0592508 0.658091 0.161807
0.0594034 0.660456 0.155306
0.0597848 0.6663 0.136248
0.0596323 0.665812 0.120729
0.0610666 0.66601 0.104387
0.24802 0.681926 0.0899825
0.519738 0.702159 0.0885176
0.707103 0.722622 0.0998856
0.83183 0.736889 0.108202
0.910826 0.743343 0.114397
0.953262 0.746487 0.122301
0.972229 0.749004 0.147768
0.978424 0.753094 0.204349
0.978317 0.757961 0.281544
0.972702 0.760784 0.372641
0.965301 0.755749 0.441352
0.958312 0.752926 0.500267
0.958251 0.764248 0.551614
0.971115 0.798795 0.598276
0.985595 0.837461 0.639246
0.995026 0.871092 0.678645
0.998901 0.891371 0.70869
0.0619059 0.682124 0.237659
0.0619059 0.682078 0.237385
0.0619059 0.682078 0.237385
0.0619059 0.682094 0.237278
0.0619059 0.682109 0.237171
0.0619059 0.682063 0.236896
0.0619059 0.682078 0.236774
0.0619059 0.682109 0.236667
0.0618906 0.682078 0.236286
0.0618906 0.682063 0.235859
0.0618906 0.682048 0.23537
0.0618906 0.682078 0.234653
0.0618753 0.682063 0.233677
0.0619516 0.683162 0.231205
0.0620737 0.684993 0.226596
0.0620584 0.685054 0.221836
0.104311 0.692805 0.213169
0.361669 0.716106 0.20145
0.597604 0.739315 0.195453
0.76025 0.760571 0.193576
0.871748 0.772808 0.175372
0.936812 0.778439 0.180484
0.965835 0.784009 0.224903
0.977432 0.789364 0.280079
0.982483 0.794858 0.338781
0.985092 0.800351 0.397604
0.984146 0.802792 0.458503
0.980362 0.798733 0.510216
0.975677 0.798093 0.560052
0.975906 0.809339 0.604196
0.985504 0.837217 0.639002
0.994995 0.870985 0.678492
0.998901 0.891371 0.70869
0.0632181 0.691875 0.303136
0.0632181 0.69189 0.303059
0.0632181 0.69189 0.303059
0.0632181 0.691905 0.303014
0.0632181 0.69189 0.302724
0.0632181 0.69189 0.302724
0.0632181 0.691905 0.302647
0.0632181 0.69192 0.302602
0.0632181 0.69192 0.302281
0.0632181 0.691936 0.302205
0.0632181 0.691966 0.301793
0.0632181 0.691981 0.301396
0.0632181 0.692027 0.300862
0.0632181 0.692073 0.300053
0.0632639 0.692607 0.29955
0.0634165 0.69424 0.301411
0.0648814 0.698878 0.30277
0.202426 0.717403 0.306233
0.465721 0.747311 0.312688
0.656321 0.773785 0.325185
0.800183 0.796139 0.338918
0.897078 0.807462 0.33434
0.94818 0.813565 0.342092
0.970596 0.819699 0.369802
0.981735 0.825406 0.402564
0.988998 0.831083 0.441459
0.993744 0.83621 0.483711
0.994293 0.838392 0.530312
0.99173 0.835294 0.569543
0.988678 0.835859 0.608484
0.988663 0.84564 0.642954
0.994934 0.87068 0.678035
0.998901 0.891371 0.70869
0.0639506 0.695491 0.363806
0.0639506 0.695491 0.363806
0.0639506 0.695491 0.363806
0.0639506 0.695491 0.363577
0.0639506 0.695491 0.363577
0.0639506 0.695491 0.363516
0.0639506 0.695491 0.363516
0.0639506 0.695506 0.363455
0.0639506 0.695506 0.363226
0.0639506 0.695521 0.363088
0.0639506 0.695537 0.362783
0.0639506 0.695552 0.362676
0.0639506 0.695567 0.362325
0.0639506 0.695583 0.361654
0.0639506 0.695644 0.361089
0.0640116 0.69633 0.360952
0.0644388 0.700893 0.365408
0.0775158 0.712322 0.370489
0.321553 0.741588 0.382757
0.540856 0.775692 0.394888
0.708034 0.804562 0.412741
0.837659 0.827039 0.430213
0.91931 0.837629 0.432578
0.959609 0.844022 0.442176
0.978256 0.850416 0.462638
0.989425 0.856321 0.487922
0.996887 0.862623 0.521675
0.999847 0.867811 0.558083
0.999786 0.869718 0.593912
0.998657 0.866712 0.620127
0.997345 0.867613 0.648264
0.996963 0.878752 0.6851
0.998901 0.891371 0.70869
0.0646525 0.699153 0.420172
0.0646525 0.699153 0.420172
0.0646525 0.699153 0.420111
0.0646525 0.699153 0.420111
0.0646525 0.699123 0.419959
0.0646525 0.699138 0.419898
0.0646525 0.699138 0.419898
0.0646525 0.699153 0.419852
0.0646525 0.699153 0.419791
0.0646525 0.699138 0.419577
0.0646525 0.699138 0.419516
0.0646525 0.699168 0.419394
0.0646525 0.699153 0.419135
0.0646525 0.699153 0.418769
0.0646372 0.699138 0.418204
0.0646372 0.699153 0.417731
0.064744 0.700435 0.417853
0.0657359 0.709407 0.423987
0.142565 0.728832 0.433692
0.419135 0.765469 0.450919
0.602747 0.80293 0.466835
0.755215 0.833463 0.488411
0.869825 0.854948 0.506416
0.937911 0.864713 0.509911
0.970214 0.871046 0.518883
0.986755 0.877592 0.535988
0.996704 0.88455 0.560388
1 0.89163 0.593393
1 0.896529 0.625895
1 0.897887 0.653468
1 0.894713 0.668055
1 0.898177 0.697276
1 0.900038 0.718959
0.0656291 0.706203 0.472053
0.0656291 0.706203 0.472053
0.0656291 0.706218 0.472007
0.0656291 0.706172 0.471855
0.0656291 0.706172 0.471855
0.0656291 0.706172 0.471855
0.0656291 0.706172 0.471809
0.0656291 0.706172 0.471809
0.0656291 0.706188 0.471748
0.0656291 0.706188 0.471702
0.0656138 0.706157 0.471504
0.0656138 0.706157 0.471458
0.0656138 0.706127 0.471214
0.0656138 0.706142 0.471107
0.0656138 0.706127 0.470771
0.0655985 0.706065 0.470268
0.0655985 0.70602 0.469673
0.0657969 0.707927 0.470039
0.0725261 0.721431 0.477882
0.258213 0.74931 0.493568
0.495674 0.789792 0.513085
0.659419 0.829725 0.532341
0.79855 0.860365 0.556329
0.89691 0.880156 0.573739
0.952667 0.889311 0.576944
0.979751 0.896056 0.58558
0.994537 0.903426 0.601953
1 0.911147 0.626154
1 0.918273 0.65861
1 0.922545 0.68983
1 0.923873 0.714397
1 0.921828 0.727153
1 0.918975 0.738094
0.0679332 0.717968 0.521004
0.0679332 0.717968 0.521004
0.0679332 0.717983 0.520958
0.0679332 0.717983 0.520958
0.0679332 0.717983 0.520958
0.0679332 0.717983 0.520958
0.0679332 0.717983 0.520958
0.0679026 0.717922 0.520775
0.0679026 0.717922 0.520775
0.0679026 0.717922 0.520714
0.0679179 0.717922 0.520684
0.0679179 0.717937 0.520638
0.0678874 0.717876 0.520439
0.0678874 0.717891 0.520348
0.0678721 0.71783 0.520119
0.0678569 0.717784 0.519783
0.0678111 0.717678 0.519295
0.0677958 0.717647 0.518883
0.0683604 0.71989 0.518975
0.112947 0.738476 0.529839
0.368017 0.772854 0.550027
0.560327 0.815778 0.57174
0.71075 0.856825 0.59379
0.835752 0.885985 0.618738
0.918425 0.903807 0.635401
0.964736 0.91249 0.637369
0.988739 0.920104 0.645579
0.998993 0.928161 0.662898
1 0.935409 0.686458
1 0.941451 0.717296
1 0.945449 0.74992
1 0.94728 0.777386
1 0.94229 0.778073
0.0793774 0.735454 0.56907
0.0793774 0.735454 0.56907
0.0793774 0.735454 0.56907
0.0794385 0.735454 0.569039
0.0794385 0.735454 0.569039
0.0794385 0.735454 0.569039
0.0794385 0.735454 0.569039
0.0794385 0.735454 0.569039
0.0794385 0.735454 0.568994
0.0794385 0.735454 0.568994
0.0794537 0.73547 0.568948
0.0793164 0.735378 0.568811
0.0793317 0.735378 0.568719
0.0793469 0.735393 0.568673
