CUBE/V2_Sl3Sg3_B&W_HC1.cube
TITLE "Generated by Resolve"
LUT_3D_SIZE 9
0 0 0
0.000442512 0.000122072 0.000427253
0.00817884 0.00773632 0.00770581
0.0167697 0.0168002 0.0178073
0.0280156 0.0280156 0.0281376
0.0399329 0.0396735 0.0388037
0.0528725 0.0525826 0.0505226
0.0676127 0.0675364 0.0640269
0.0873579 0.0873121 0.0823224
0.0205539 0.0205844 0.0212863
0.0320592 0.0319524 0.031754
0.0440681 0.0438849 0.0426184
0.0578622 0.0575265 0.0549935
0.074052 0.0740673 0.0701305
0.0945602 0.0945907 0.0893568
0.119692 0.119539 0.113481
0.149447 0.149126 0.141772
0.187045 0.186419 0.175814
0.0626841 0.0624247 0.0593881
0.0807202 0.080766 0.0763256
0.102586 0.1028 0.0975052
0.129427 0.129137 0.122942
0.161257 0.160739 0.152499
0.201068 0.200839 0.188876
0.250141 0.24979 0.235843
0.304585 0.304234 0.289509
0.362264 0.361791 0.346288
0.139071 0.138735 0.132143
0.173922 0.17319 0.163973
0.216373 0.216526 0.204257
0.266972 0.267292 0.25359
0.32256 0.322438 0.307927
0.380529 0.380682 0.364797
0.438712 0.439094 0.421973
0.495857 0.495933 0.479179
0.552254 0.551995 0.535607
0.284566 0.284901 0.270954
0.341527 0.341405 0.326726
0.399664 0.400153 0.383825
0.456947 0.457923 0.441108
0.513176 0.514015 0.497612
0.569375 0.569802 0.55375
0.625254 0.625742 0.609445
0.679973 0.680552 0.66392
0.733471 0.733837 0.717739
0.476066 0.476509 0.459709
0.532189 0.532753 0.516426
0.588159 0.58851 0.572488
0.643503 0.644129 0.627649
0.69723 0.698192 0.681773
0.749371 0.750301 0.734478
0.798535 0.799725 0.784634
0.842557 0.843732 0.830289
0.879011 0.879454 0.868757
0.662791 0.662577 0.645762
0.716106 0.716274 0.699962
0.767391 0.767834 0.752148
0.81471 0.815732 0.801007
0.854948 0.856397 0.843946
0.888304 0.889342 0.879271
0.915007 0.915679 0.90724
0.936446 0.936599 0.92958
0.952178 0.952544 0.9467
0.8318 0.831525 0.817136
0.86862 0.869017 0.857572
0.898558 0.899306 0.88986
0.922515 0.923384 0.915434
0.941436 0.94229 0.935622
0.956741 0.957031 0.951659
0.967193 0.967544 0.963684
0.974777 0.975204 0.972351
0.980865 0.981079 0.978897
0.930358 0.930709 0.923278
0.947005 0.94789 0.941649
0.960128 0.960906 0.956024
0.970474 0.970581 0.967178
0.977264 0.977508 0.974945
0.982269 0.982574 0.98056
0.986328 0.986419 0.984894
0.988739 0.988922 0.987823
0.99118 0.99115 0.990158
0.000686656 0.000289921 0.00030518
0.00151064 0.00137331 0.0015259
0.0118715 0.0115969 0.0120546
0.0216373 0.0216526 0.0222782
0.0331273 0.0329747 0.0327001
0.0450141 0.0448768 0.0435187
0.0590524 0.058732 0.0560769
0.0756847 0.0757153 0.0716564
0.096376 0.0964828 0.091249
0.0254826 0.0254978 0.0258183
0.0372625 0.0369879 0.0363622
0.0495766 0.0493935 0.0476234
0.06392 0.0637217 0.0605325
0.0823987 0.082414 0.0778515
0.104295 0.104509 0.0991836
0.131518 0.131197 0.124956
0.164034 0.163439 0.155016
0.204242 0.204135 0.192126
0.0694896 0.0694591 0.0658274
0.0893721 0.0892805 0.0841077
0.113085 0.113161 0.1075
0.141634 0.141299 0.134539
0.177081 0.176364 0.166842
0.219944 0.220127 0.207752
0.270878 0.27126 0.257542
0.326925 0.326833 0.312337
0.385138 0.385458 0.369482
0.151965 0.151644 0.14406
0.190311 0.189731 0.178729
0.236484 0.2365 0.223346
0.289219 0.289448 0.275364
0.34612 0.345953 0.331151
0.404089 0.404517 0.388067
0.46125 0.462196 0.445411
0.517815 0.518685 0.502327
0.574151 0.574639 0.558618
0.308278 0.307881 0.293126
0.366339 0.365759 0.350027
0.424689 0.424399 0.407156
0.480934 0.481071 0.464225
0.536645 0.536995 0.520653
0.592477 0.592691 0.576654
0.647745 0.64828 0.631724
0.701549 0.702434 0.686046
0.753719 0.754635 0.738857
0.499306 0.499626 0.482979
0.555688 0.555627 0.539345
0.611597 0.611322 0.595056
0.667216 0.666728 0.649836
0.720211 0.720073 0.703761
0.771084 0.771298 0.755627
0.818128 0.818967 0.804303
0.857877 0.859205 0.846967
0.8907 0.891737 0.881834
0.683803 0.684581 0.667994
0.73695 0.737514 0.721492
0.787396 0.787884 0.772488
0.833967 0.834089 0.819898
0.871412 0.871443 0.860197
0.900557 0.901137 0.891829
0.924025 0.924849 0.916991
0.942672 0.943572 0.937011
0.957519 0.957977 0.952712
0.845869 0.847257 0.834089
0.881605 0.882307 0.871809
0.910277 0.910399 0.901656
0.932082 0.932235 0.924926
0.94818 0.948989 0.94284
0.960891 0.9617 0.956924
0.970947 0.971145 0.967803
0.977905 0.978073 0.97557
0.982681 0.982986 0.981018
0.938125 0.938598 0.931701
0.954253 0.954299 0.948623
0.964675 0.965347 0.96112
0.973266 0.973693 0.970657
0.979995 0.980056 0.977798
0.984222 0.984421 0.982635
0.98732 0.987564 0.986221
0.989944 0.989914 0.988998
0.992172 0.992142 0.991089
0.000579843 0.000198367 0.000442512
0.00680552 0.00637827 0.00631724
0.0153811 0.0154269 0.0165255
0.026627 0.026627 0.0268559
0.0383764 0.0381018 0.0373693
0.0508888 0.05066 0.0487678
0.065156 0.0650034 0.0616922
0.0840772 0.0840772 0.0793622
0.106508 0.106706 0.10132
0.0304417 0.0304112 0.0303502
0.0424659 0.042237 0.0411231
0.0558328 0.0554971 0.0531624
0.0712902 0.0712749 0.0675364
0.0910964 0.0909743 0.0856794
0.115175 0.11519 0.109422
0.144091 0.14374 0.136828
0.179934 0.179217 0.169421
0.223575 0.223758 0.211246
0.0776989 0.0777447 0.0735485
0.0987716 0.0989395 0.0937057
0.124651 0.124407 0.118303
0.154955 0.15465 0.146777
0.193576 0.193072 0.181659
0.240574 0.240467 0.22707
0.29369 0.293797 0.279561
0.351019 0.350774 0.335805
0.409308 0.409644 0.393011
0.167147 0.166491 0.157839
0.208026 0.208026 0.195972
0.257679 0.25771 0.243931
0.312901 0.312612 0.297978
0.370825 0.370489 0.354711
0.42948 0.429053 0.411658
0.486137 0.485893 0.468986
0.541909 0.541955 0.525567
0.597574 0.597589 0.581491
0.331106 0.331029 0.316503
0.38912 0.389532 0.37348
0.446983 0.447776 0.430823
0.5037 0.504265 0.487694
0.560037 0.560189 0.543999
0.615656 0.615671 0.59939
0.671046 0.67097 0.654154
0.72491 0.724514 0.708217
0.775998 0.77583 0.760189
0.521813 0.522667 0.506325
0.578058 0.578561 0.562554
0.63357 0.634241 0.617868
0.687922 0.688807 0.672297
0.740673 0.741421 0.72546
0.790784 0.791577 0.776272
0.836606 0.837156 0.823194
0.874571 0.874372 0.863355
0.903456 0.903746 0.894606
0.705928 0.706676 0.690318
0.757916 0.75874 0.743008
0.806378 0.807645 0.792737
0.848615 0.850095 0.83714
0.883635 0.884489 0.874113
0.911788 0.912123 0.903487
0.933944 0.933867 0.926665
0.94963 0.950317 0.944274
0.961883 0.962707 0.958083
0.861921 0.862974 0.851057
0.89369 0.894667 0.884947
0.919051 0.919921 0.911757
0.939284 0.93991 0.933104
0.955444 0.955383 0.949798
0.965576 0.966155 0.962066
0.973877 0.974319 0.971359
0.980362 0.980484 0.978271
0.984695 0.984848 0.983108
0.94464 0.945586 0.939162
0.958724 0.959365 0.954269
0.969665 0.969604 0.966079
0.976379 0.97673 0.97406
0.981781 0.982071 0.979995
0.986084 0.986099 0.984543
0.988449 0.988663 0.987518
0.990936 0.990921 0.989944
0.993179 0.993133 0.992004
1.5259e-05 0 0.000289921
0.0110628 0.0107118 0.0109865
0.0204929 0.0205234 0.0212253
0.0318608 0.031754 0.0315862
0.0437476 0.0435492 0.0423133
0.0573434 0.0570077 0.0545205
0.0731823 0.0732128 0.0693217
0.0932784 0.0932631 0.088014
0.1178 0.117723 0.111788
0.035935 0.0356909 0.0351873
0.0479591 0.047837 0.0462043
0.0622416 0.0619669 0.0589761
0.0798505 0.079881 0.0755169
0.100999 0.101198 0.0959335
0.12723 0.126955 0.120806
0.158175 0.157748 0.149706
0.197223 0.196826 0.184909
0.245365 0.245106 0.231388
0.0865644 0.0865187 0.0816052
0.109453 0.109621 0.104128
0.137209 0.136858 0.130373
0.171099 0.170397 0.161425
0.212451 0.212558 0.200397
0.262272 0.262486 0.248753
0.317815 0.317617 0.303075
0.375967 0.375937 0.360098
0.434806 0.434882 0.417655
0.183825 0.183139 0.172915
0.22829 0.228443 0.215717
0.280232 0.280613 0.266773
0.336522 0.336431 0.321843
0.394598 0.395071 0.378882
0.452262 0.453193 0.436332
0.508858 0.509606 0.493126
0.565118 0.565454 0.54934
0.621073 0.621393 0.605112
0.356222 0.355886 0.340688
0.414618 0.414786 0.397955
0.471534 0.472206 0.455421
0.527321 0.528054 0.511727
0.5832 0.583642 0.567636
0.638621 0.639292 0.622873
0.692973 0.69395 0.677485
0.745724 0.746624 0.730739
0.79559 0.796674 0.781506
0.547005 0.546685 0.530251
0.602502 0.602274 0.586099
0.657862 0.657954 0.641245
0.711101 0.711574 0.695262
0.762615 0.763287 0.747585
0.810712 0.811887 0.797086
0.852079 0.85359 0.840909
0.886473 0.887449 0.877272
0.914015 0.914595 0.906111
0.729259 0.729274 0.7131
0.780804 0.780514 0.764904
0.827558 0.827604 0.813107
0.865324 0.866087 0.854398
0.896315 0.897185 0.887617
0.921035 0.92192 0.913878
0.940688 0.941466 0.934752
0.956405 0.956619 0.951186
0.966949 0.967346 0.963424
0.877546 0.877806 0.867018
0.907149 0.906996 0.89807
0.929 0.929488 0.921965
0.946181 0.947097 0.940795
0.959701 0.960449 0.955505
0.97026 0.970336 0.966903
0.977142 0.977401 0.974823
0.982269 0.982574 0.98056
0.986358 0.98645 0.984939
0.952087 0.952468 0.946624
0.963424 0.964202 0.959792
0.972564 0.972946 0.969818
0.979629 0.979599 0.977295
0.98381 0.984054 0.982223
0.987121 0.98735 0.985977
0.989761 0.989731 0.988815
0.991989 0.991958 0.990921
0.994492 0.994446 0.993225
0.00578317 0.00538643 0.0053254
0.014374 0.0144198 0.0155947
0.0256657 0.0256809 0.0259861
0.0373846 0.0371252 0.0364843
0.0495766 0.0493935 0.0476234
0.0637064 0.0634928 0.0603342
0.0818036 0.0818341 0.0773022
0.10338 0.103593 0.0982834
0.130083 0.129778 0.123568
0.0413672 0.0411078 0.040116
0.0544747 0.0541543 0.0519417
0.0693065 0.0692607 0.0656443
0.088777 0.0886854 0.0835737
0.111986 0.112093 0.106493
0.140017 0.139681 0.133028
0.174411 0.173693 0.164431
0.216571 0.216724 0.204456
0.266972 0.267292 0.25359
0.0959487 0.096025 0.0908064
0.121096 0.120897 0.114794
0.150561 0.150256 0.142794
0.1879 0.187289 0.176577
0.23331 0.233387 0.220401
0.285267 0.285573 0.271611
0.342016 0.341894 0.327184
0.400397 0.40087 0.384527
0.458137 0.459113 0.442298
0.201633 0.201419 0.189456
0.250538 0.250217 0.236271
0.304829 0.304463 0.289723
0.362264 0.361791 0.346288
0.420523 0.420447 0.403388
0.477348 0.477714 0.460899
0.533181 0.5337 0.517372
0.58912 0.589441 0.573419
0.64445 0.645045 0.62855
0.380758 0.380926 0.365026
0.439155 0.439551 0.422446
0.496284 0.496391 0.479652
0.552468 0.552209 0.535851
0.608438 0.607889 0.591623
0.663279 0.663035 0.64622
0.716579 0.716716 0.700404
0.768078 0.768475 0.752804
0.815991 0.816938 0.802243
0.569833 0.57026 0.554208
0.625696 0.626215 0.609903
0.680613 0.681224 0.664591
0.733669 0.734051 0.717968
0.784619 0.784817 0.769345
0.83209 0.831876 0.817502
0.869368 0.869657 0.858274
0.899565 0.900221 0.890837
0.923598 0.924422 0.916548
0.750454 0.751385 0.735561
0.799924 0.801144 0.786084
0.843809 0.845075 0.831739
0.880125 0.880674 0.870069
0.909331 0.9093 0.900511
0.931151 0.931426 0.924041
0.947753 0.948592 0.942412
0.960784 0.961578 0.956802
0.971023 0.971237 0.967895
0.889891 0.890944 0.88098
0.916503 0.917266 0.908934
0.937636 0.938018 0.931075
0.953796 0.953933 0.948211
0.964553 0.96524 0.960998
0.973266 0.973693 0.970657
0.980041 0.980117 0.977859
0.98436 0.984543 0.982773
0.987427 0.987671 0.986343
0.957717 0.958206 0.952972
0.968673 0.968765 0.965103
0.975769 0.976165 0.973419
0.981476 0.98175 0.97966
0.985962 0.985916 0.984344
0.988281 0.98851 0.987335
0.990799 0.990784 0.989807
0.993042 0.993011 0.991897
0.99588 0.995834 0.994507
0.0103304 0.00993362 0.0100862
0.0195468 0.0195773 0.0203555
0.0309148 0.0308537 0.0307622
0.0427253 0.0424964 0.0413672
0.0559854 0.0556497 0.0532998
0.0711986 0.0711833 0.0674449
0.0907912 0.0906539 0.085359
0.114427 0.114473 0.108751
0.142855 0.142519 0.135683
0.0466621 0.0466011 0.0450752
0.0608377 0.0605325 0.0576944
0.0776989 0.0777447 0.0735485
0.0983444 0.0984817 0.0932631
0.123766 0.123522 0.117418
0.153353 0.153063 0.145342
0.191501 0.190951 0.179812
0.237552 0.237537 0.224323
0.290379 0.290578 0.276463
0.106264 0.106477 0.101091
0.133364 0.133028 0.126711
0.165835 0.165194 0.156649
0.205936 0.205875 0.193866
0.254994 0.254917 0.241093
0.309804 0.309453 0.294743
0.367727 0.367193 0.351431
0.426795 0.426383 0.409049
0.483513 0.483482 0.466606
0.221363 0.221546 0.20911
0.27219 0.272587 0.258854
0.328313 0.328222 0.313726
0.386313 0.386664 0.370657
0.444266 0.444953 0.427955
0.501274 0.501717 0.4851
0.557427 0.557458 0.541207
0.613306 0.613153 0.596887
0.669032 0.668742 0.651881
0.40557 0.405982 0.389471
0.462943 0.463859 0.447074
0.519219 0.520088 0.503746
0.575296 0.575784 0.559777
0.630625 0.631251 0.614908
0.685313 0.686137 0.669581
0.738384 0.73904 0.723049
0.78909 0.789731 0.77438
0.835569 0.835966 0.821912
0.593927 0.594095 0.578027
0.64918 0.649653 0.633082
0.703151 0.70399 0.687633
0.755261 0.756146 0.740383
0.804135 0.805417 0.790448
0.84715 0.8486 0.835523
0.88275 0.883528 0.873106
0.911406 0.911696 0.903029
0.933944 0.933867 0.926665
0.773175 0.773236 0.75758
0.820722 0.821378 0.80676
0.860151 0.861341 0.849287
0.892592 0.893614 0.883818
0.918441 0.919295 0.91107
0.938994 0.93959 0.932754
0.955444 0.955383 0.949798
0.965759 0.966323 0.962249
0.974105 0.974548 0.971618
0.903166 0.903487 0.894331
0.926207 0.926909 0.919219
0.944396 0.945342 0.938903
0.958663 0.959304 0.954208
0.969696 0.96965 0.966125
0.976516 0.976837 0.974182
0.981918 0.982223 0.980163
0.986206 0.986252 0.98471
0.988617 0.9888 0.987686
0.962325 0.963149 0.958587
0.971969 0.972305 0.969116
0.979202 0.979171 0.976822
0.98349 0.983764 0.981888
0.986969 0.987182 0.985779
0.989578 0.989593 0.988647
0.991867 0.991836 0.990799
0.994324 0.994278 0.993072
0.997253 0.997208 0.995758
0.01355 0.0135195 0.0145724
0.0245365 0.0245518 0.0249485
0.0361944 0.0359503 0.0354162
0.0481117 0.0479896 0.0463417
0.0621653 0.0618906 0.0589151
0.0794537 0.0794995 0.0751507
0.100328 0.100511 0.0952621
0.12607 0.125795 0.119677
0.156237 0.155886 0.147951
0.0528725 0.0525826 0.0505226
0.0672465 0.067155 0.0636759
0.0862593 0.0862287 0.0813306
0.108629 0.108797 0.103334
0.135866 0.135531 0.129107
0.168795 0.168109 0.159335
0.209369 0.2094 0.197314
0.25893 0.259007 0.245258
0.314229 0.31397 0.299367
0.117296 0.117235 0.111345
0.145998 0.145663 0.138598
0.182132 0.18143 0.171389
0.22562 0.225788 0.213184
0.276631 0.277028 0.263249
0.332982 0.332891 0.318364
0.391012 0.391455 0.375357
0.449256 0.450126 0.433219
0.506157 0.506813 0.490303
0.242313 0.242161 0.228641
0.295369 0.295399 0.281102
0.352499 0.352239 0.337194
0.410819 0.411109 0.39443
0.468071 0.468864 0.452079
0.524193 0.525002 0.508675
0.580148 0.580636 0.56463
0.63563 0.636316 0.619913
0.690318 0.691264 0.674784
0.430961 0.430686 0.413336
0.488228 0.487831 0.470878
0.543694 0.543603 0.527199
0.599039 0.598993 0.582879
0.654215 0.654505 0.637842
0.707805 0.708461 0.692119
0.759915 0.760693 0.744976
0.808423 0.809674 0.794812
0.850752 0.852262 0.839475
0.61738 0.617502 0.601221
0.672694 0.672755 0.65597
0.726482 0.726253 0.710002
0.77789 0.777569 0.761913
0.824887 0.825193 0.810651
0.863523 0.864454 0.852644
0.895201 0.896132 0.886503
0.920516 0.921401 0.913314
0.940536 0.941314 0.934585
0.792889 0.79382 0.778576
0.83856 0.839353 0.825559
0.876234 0.876295 0.8654
0.905806 0.905837 0.896819
0.928206 0.928771 0.921202
0.945769 0.9467 0.940368
0.959594 0.960342 0.955383
0.970336 0.970428 0.966995
0.97734 0.977584 0.975036
0.913634 0.914168 0.905653
0.935821 0.935851 0.928771
0.951736 0.952163 0.946288
0.963302 0.964096 0.95967
0.972564 0.972946 0.969818
0.97969 0.97969 0.977386
0.983948 0.984176 0.982361
0.987228 0.987457 0.986099
0.989883 0.989853 0.988937
0.96733 0.967651 0.963806
0.975052 0.975479 0.972656
0.981094 0.981338 0.979187
0.985626 0.985641 0.984009
0.988083 0.988327 0.987106
0.990646 0.990631 0.98967
0.992889 0.992859 0.991745
0.995682 0.995636 0.994308
0.998093 0.998123 0.996872
0.0180972 0.0181277 0.019028
0.0294041 0.0294041 0.0294041
0.0412299 0.0409857 0.0399939
0.0541695 0.0538643 0.0516823
0.0686503 0.0685893 0.0650187
0.0877699 0.0877089 0.0826734
0.110414 0.110567 0.105028
0.137865 0.13753 0.130999
0.171435 0.170718 0.16173
0.0589151 0.0585794 0.0559396
0.0750134 0.0750439 0.0710307
0.0949874 0.0950332 0.0897993
0.119448 0.119295 0.113268
0.148211 0.147875 0.140627
0.184665 0.183993 0.173678
0.228702 0.228855 0.216114
0.280232 0.280613 0.266773
0.336751 0.33666 0.322072
0.128786 0.128481 0.122316
0.15964 0.159167 0.151034
0.198489 0.198154 0.186206
0.24625 0.24596 0.232181
0.299687 0.299565 0.285084
0.356985 0.356619 0.34139
0.415381 0.415518 0.398672
0.472786 0.473396 0.456611
0.528771 0.529458 0.513146
0.262913 0.263142 0.249409
0.318257 0.318074 0.303532
0.376425 0.37641 0.360571
0.435019 0.435111 0.417899
0.492226 0.492012 0.475151
0.548302 0.547875 0.531411
0.603738 0.603433 0.587243
0.658839 0.658885 0.642145
0.71252 0.712917 0.696605
0.452735 0.453666 0.436805
0.509529 0.510292 0.493843
0.565789 0.56614 0.550027
0.621302 0.621622 0.605341
0.676402 0.676768 0.66006
0.730053 0.730144 0.713985
0.781521 0.781338 0.765759
0.828901 0.828809 0.814343
0.866972 0.867552 0.855985
0.639307 0.639994 0.62356
0.693645 0.694621 0.678172
0.746365 0.747265 0.731395
0.79617 0.797284 0.782132
0.841001 0.842054 0.828473
0.878157 0.878492 0.867735
0.908141 0.907881 0.899016
0.930129 0.93051 0.923064
0.947341 0.948196 0.941985
0.812177 0.813306 0.798535
0.853605 0.85507 0.842527
0.88777 0.888792 0.878706
0.915099 0.915785 0.907347
0.936782 0.937011 0.930022
0.952972 0.953246 0.947463
0.964126 0.964858 0.960555
0.973159 0.973571 0.97052
0.980056 0.980148 0.97789
0.922621 0.923491 0.915557
0.94197 0.942855 0.936233
0.957321 0.957732 0.952438
0.968231 0.968399 0.964675
0.97557 0.975967 0.973205
0.98143 0.981704 0.979599
0.985962 0.985931 0.98436
0.988327 0.98854 0.987381
0.990875 0.990845 0.989868
0.971084 0.971313 0.967987
0.978241 0.978363 0.975906
0.982956 0.983261 0.981323
0.986725 0.986893 0.985443
0.989273 0.989364 0.988357
0.991623 0.991608 0.990585
0.994018 0.993988 0.992798
0.996963 0.996918 0.995499
0.998276 0.998413 0.997757
0.0228275 0.0228428 0.0233768
0.0344091 0.0342107 0.0338293
0.0460975 0.0460059 0.0445258
0.0599527 0.0596323 0.0568856
0.0762493 0.0762951 0.0721904
0.096376 0.0964828 0.091249
0.121096 0.120897 0.114794
0.150149 0.149828 0.142412
0.187045 0.186419 0.175814
0.0646525 0.0644694 0.0612192
0.082887 0.0829023 0.078294
0.104295 0.104509 0.0991836
0.130739 0.130419 0.124208
0.161913 0.161364 0.153094
0.200885 0.200656 0.188693
0.249348 0.248936 0.234958
0.303105 0.302831 0.288182
0.360754 0.360311 0.344884
0.140429 0.140078 0.13341
0.174746 0.174029 0.164736
0.216373 0.216526 0.204257
0.266545 0.26685 0.253147
0.321889 0.321736 0.30724
0.379843 0.379965 0.36408
0.438499 0.438849 0.421729
0.495857 0.495933 0.479179
0.552254 0.551995 0.535607
0.284108 0.284443 0.270512
0.34081 0.340703 0.326024
0.399191 0.399664 0.383352
0.456947 0.457923 0.441108
0.51342 0.51426 0.497856
0.569375 0.569802 0.55375
0.62504 0.625513 0.609216
0.679973 0.680552 0.66392
0.733669 0.734051 0.717968
0.476066 0.476509 0.459709
0.532189 0.532753 0.516426
0.58793 0.588281 0.572259
0.643275 0.6439 0.62742
0.69723 0.698192 0.681773
0.749798 0.750729 0.734905
0.799329 0.800534 0.785458
0.843656 0.844907 0.831556
0.880369 0.880949 0.870359
0.662287 0.66212 0.645304
0.715862 0.716045 0.699733
0.767391 0.767834 0.752148
0.815351 0.816342 0.801617
0.855985 0.857389 0.845014
0.889632 0.890669 0.88069
0.916609 0.917372 0.909056
0.937911 0.938338 0.931426
0.954528 0.954528 0.948867
0.83209 0.831876 0.817502
0.869734 0.869978 0.858625
0.899992 0.900618 0.891264
0.924132 0.924956 0.917113
0.942977 0.943908 0.937362
0.957961 0.958495 0.953292
0.969146 0.969131 0.96553
0.976181 0.976532 0.973846
0.981796 0.982086 0.980026
0.932189 0.932342 0.925032
0.948775 0.949538 0.94342
0.961547 0.962371 0.957702
0.971542 0.971832 0.968566
0.978775 0.978805 0.97641
0.983276 0.983566 0.981659
0.986893 0.987091 0.985672
0.989502 0.989532 0.988586
0.991836 0.991806 0.990784
0.973907 0.97435 0.971405
0.980499 0.980652 0.978439
0.984939 0.985061 0.983352
0.987747 0.987991 0.986725
0.990356 0.990326 0.989395
0.992599 0.992569 0.991485
0.995285 0.995239 0.993957
0.998108 0.998077 0.996628
0.998779 0.998932 0.998672
