CUBE/V2_Sl3Sg3_B&W_HC1.cube
TITLE "Generated by Resolve"
LUT_3D_SIZE 5
0 0 0
0.00817884 0.00773632 0.00770581
0.0280156 0.0280156 0.0281376
0.0528725 0.0525826 0.0505226
0.0873579 0.0873121 0.0823224
0.0626841 0.0624247 0.0593881
0.102586 0.1028 0.0975052
0.161257 0.160739 0.152499
0.250141 0.24979 0.235843
0.362264 0.361791 0.346288
0.284566 0.284901 0.270954
0.399664 0.400153 0.383825
0.513176 0.514015 0.497612
0.625254 0.625742 0.609445
0.733471 0.733837 0.717739
0.662791 0.662577 0.645762
0.767391 0.767834 0.752148
0.854948 0.856397 0.843946
0.915007 0.915679 0.90724
0.952178 0.952544 0.9467
0.930358 0.930709 0.923278
0.960128 0.960906 0.956024
0.977264 0.977508 0.974945
0.986328 0.986419 0.984894
0.99118 0.99115 0.990158
0.000579843 0.000198367 0.000442512
0.0153811 0.0154269 0.0165255
0.0383764 0.0381018 0.0373693
0.065156 0.0650034 0.0616922
0.106508 0.106706 0.10132
0.0776989 0.0777447 0.0735485
0.124651 0.124407 0.118303
0.193576 0.193072 0.181659
0.29369 0.293797 0.279561
0.409308 0.409644 0.393011
0.331106 0.331029 0.316503
0.446983 0.447776 0.430823
0.560037 0.560189 0.543999
0.671046 0.67097 0.654154
0.775998 0.77583 0.760189
0.705928 0.706676 0.690318
0.806378 0.807645 0.792737
0.883635 0.884489 0.874113
0.933944 0.933867 0.926665
0.961883 0.962707 0.958083
0.94464 0.945586 0.939162
0.969665 0.969604 0.966079
0.981781 0.982071 0.979995
0.988449 0.988663 0.987518
0.993179 0.993133 0.992004
0.00578317 0.00538643 0.0053254
0.0256657 0.0256809 0.0259861
0.0495766 0.0493935 0.0476234
0.0818036 0.0818341 0.0773022
0.130083 0.129778 0.123568
0.0959487 0.096025 0.0908064
0.150561 0.150256 0.142794
0.23331 0.233387 0.220401
0.342016 0.341894 0.327184
0.458137 0.459113 0.442298
0.380758 0.380926 0.365026
0.496284 0.496391 0.479652
0.608438 0.607889 0.591623
0.716579 0.716716 0.700404
0.815991 0.816938 0.802243
0.750454 0.751385 0.735561
0.843809 0.845075 0.831739
0.909331 0.9093 0.900511
0.947753 0.948592 0.942412
0.971023 0.971237 0.967895
0.957717 0.958206 0.952972
0.975769 0.976165 0.973419
0.985962 0.985916 0.984344
0.990799 0.990784 0.989807
0.99588 0.995834 0.994507
0.01355 0.0135195 0.0145724
0.0361944 0.0359503 0.0354162
0.0621653 0.0618906 0.0589151
0.100328 0.100511 0.0952621
0.156237 0.155886 0.147951
0.117296 0.117235 0.111345
0.182132 0.18143 0.171389
0.276631 0.277028 0.263249
0.391012 0.391455 0.375357
0.506157 0.506813 0.490303
0.430961 0.430686 0.413336
0.543694 0.543603 0.527199
0.654215 0.654505 0.637842
0.759915 0.760693 0.744976
0.850752 0.852262 0.839475
0.792889 0.79382 0.778576
0.876234 0.876295 0.8654
0.928206 0.928771 0.921202
0.959594 0.960342 0.955383
0.97734 0.977584 0.975036
0.96733 0.967651 0.963806
0.981094 0.981338 0.979187
0.988083 0.988327 0.987106
0.992889 0.992859 0.991745
0.998093 0.998123 0.996872
0.0228275 0.0228428 0.0233768
0.0460975 0.0460059 0.0445258
0.0762493 0.0762951 0.0721904
0.121096 0.120897 0.114794
0.187045 0.186419 0.175814
0.140429 0.140078 0.13341
0.216373 0.216526 0.204257
0.321889 0.321736 0.30724
0.438499 0.438849 0.421729
0.552254 0.551995 0.535607
0.476066 0.476509 0.459709
0.58793 0.588281 0.572259
0.69723 0.698192 0.681773
0.799329 0.800534 0.785458
0.880369 0.880949 0.870359
0.83209 0.831876 0.817502
0.899992 0.900618 0.891264
0.942977 0.943908 0.937362
0.969146 0.969131 0.96553
0.981796 0.982086 0.980026
0.973907 0.97435 0.971405
0.984939 0.985061 0.983352
0.990356 0.990326 0.989395
0.995285 0.995239 0.993957
0.998779 0.998932 0.998672
