CUBE/V2_Sl3Sg3_B&W_ZERO.cube
TITLE "Generated by Resolve"
LUT_3D_SIZE 5
0 0 0
0.0106966 0.0103304 0.010544
0.0361944 0.0359503 0.0354162
0.0669566 0.0668803 0.0634012
0.111498 0.11162 0.106035
0.0807202 0.080766 0.0763256
0.129686 0.129381 0.123201
0.195651 0.195209 0.183505
0.284337 0.284672 0.270741
0.385382 0.385702 0.369726
0.317586 0.317388 0.302831
0.420523 0.420447 0.403388
0.521111 0.521965 0.505623
0.621302 0.621622 0.605341
0.71899 0.718944 0.702647
0.654459 0.654734 0.638071
0.749371 0.750301 0.734478
0.837354 0.837995 0.824094
0.902007 0.902449 0.893217
0.94464 0.945586 0.939162
0.917922 0.918761 0.910521
0.956176 0.956329 0.950866
0.976806 0.977096 0.974487
0.987427 0.987671 0.986343
0.993927 0.993896 0.992706
0.000503548 0.00015259 0.000442512
0.0203098 0.020325 0.0210574
0.0483406 0.0482185 0.04654
0.0847639 0.0847639 0.0799878
0.135073 0.134737 0.128359
0.0996567 0.0998398 0.0945907
0.15462 0.15433 0.146487
0.231418 0.231525 0.218647
0.326925 0.326833 0.312337
0.430747 0.430457 0.413092
0.361501 0.361044 0.345586
0.463416 0.464332 0.447547
0.564675 0.564996 0.548867
0.664515 0.664195 0.647349
0.758358 0.759182 0.743435
0.695201 0.696178 0.679744
0.788891 0.789532 0.774182
0.86807 0.868528 0.857038
0.922194 0.923079 0.915114
0.95816 0.958724 0.953552
0.936996 0.93727 0.930282
0.966262 0.966751 0.962753
0.9823 0.982605 0.980591
0.990341 0.990311 0.98938
0.997345 0.997299 0.99585
0.00756847 0.00712596 0.00708019
0.0321202 0.0320134 0.0318151
0.0623026 0.0620432 0.0590524
0.104295 0.104509 0.0991836
0.161257 0.160739 0.152499
0.121721 0.121523 0.115419
0.185016 0.184344 0.173983
0.270436 0.270817 0.257099
0.371267 0.370962 0.355169
0.473289 0.473884 0.457084
0.405081 0.405493 0.389013
0.507057 0.507744 0.491249
0.60824 0.60766 0.591394
0.70454 0.705333 0.688975
0.796765 0.797894 0.782757
0.736324 0.736873 0.720836
0.826673 0.82681 0.812299
0.893416 0.894408 0.884672
0.939941 0.940658 0.933883
0.968872 0.968917 0.965286
0.951553 0.95201 0.94612
0.974304 0.974746 0.971832
0.986557 0.986709 0.985229
0.99292 0.992889 0.991775
0.998611 0.998764 0.998398
0.0164645 0.016495 0.0175174
0.0441901 0.044007 0.0427405
0.0786755 0.0787213 0.0744335
0.12697 0.126696 0.120562
0.19202 0.191485 0.18027
0.145998 0.145663 0.138598
0.218952 0.219135 0.206775
0.313115 0.31284 0.298207
0.415381 0.415518 0.398672
0.516426 0.517281 0.500908
0.448798 0.449653 0.432746
0.551186 0.550851 0.534447
0.649424 0.649882 0.63331
0.744884 0.745754 0.72987
0.834257 0.834424 0.820264
0.777173 0.776913 0.761273
0.857191 0.858549 0.846265
0.915908 0.91664 0.908263
0.955261 0.955139 0.949538
0.975937 0.976303 0.973587
0.962554 0.963378 0.958846
0.980789 0.980987 0.978821
0.98941 0.989471 0.988495
0.996216 0.99617 0.994812
1 1 1
0.0280766 0.0280766 0.0281987
0.0577096 0.0573739 0.0548562
0.0973526 0.0974746 0.092256
0.151812 0.151507 0.143938
0.227268 0.22742 0.21474
0.174746 0.174029 0.164736
0.257465 0.257496 0.243717
0.356481 0.35613 0.340917
0.458381 0.459342 0.442542
0.560037 0.560189 0.543999
0.493507 0.4934 0.47657
0.592966 0.593164 0.577111
0.690761 0.691722 0.675227
0.785168 0.785428 0.76997
0.864424 0.865263 0.853529
0.813443 0.814527 0.799771
0.885176 0.886107 0.875837
0.935561 0.935515 0.92842
0.964965 0.965621 0.96144
0.981781 0.982071 0.979995
0.972015 0.972351 0.969146
0.985626 0.985641 0.984009
0.992065 0.992035 0.990982
0.998215 0.998337 0.997589
1 1 1
