CUBE/V2_Sl3Sg3_B&W_HC1.cube
TITLE "Generated by Resolve"
LUT_3D_SIZE 33
0 0 0
0.000518807 0.000244144 0.000198367
0.000717174 0.000289921 0.000350958
0.000656138 0.000228885 0.000427253
0.000442512 0.000122072 0.000427253
0.000106813 1.5259e-05 0.000335698
0.00244144 0.00224308 0.00233463
0.00546273 0.00508125 0.00503548
0.00817884 0.00773632 0.00770581
0.0104677 0.010071 0.0102693
0.0123598 0.0121309 0.012726
0.0139925 0.0140383 0.015259
0.0167697 0.0168002 0.0178073
0.0196078 0.0196384 0.0204166
0.022385 0.0224155 0.0229648
0.0252384 0.0252384 0.0255741
0.0280156 0.0280156 0.0281376
0.0309148 0.0308537 0.0307622
0.0339361 0.033753 0.0334173
0.0369879 0.0367285 0.0361334
0.0399329 0.0396735 0.0388037
0.0429084 0.0426947 0.0415351
0.0458381 0.0457313 0.0442969
0.0492714 0.0491035 0.0473487
0.0528725 0.0525826 0.0505226
0.0565194 0.0561685 0.0537728
0.06009 0.0597848 0.057023
0.0637064 0.0634928 0.0603342
0.0676127 0.0675364 0.0640269
0.0723278 0.072343 0.068513
0.0772259 0.0772717 0.0730907
0.0822003 0.0822156 0.0776684
0.0873579 0.0873121 0.0823224
0.000595102 0.000198367 0.000442512
0.000335698 9.15541e-05 0.000411994
0.00015259 0.000137331 0.000411994
0.00349432 0.00321965 0.00325017
0.00639353 0.00598154 0.0059205
0.00898756 0.00854505 0.00856031
0.0111543 0.0108034 0.0111086
0.0129244 0.0127718 0.0135653
0.0149386 0.0149844 0.0161288
0.0177157 0.0177462 0.018677
0.0205539 0.0205844 0.0212863
0.023331 0.0233616 0.0238346
0.0261845 0.0261845 0.0264591
0.0290227 0.0290227 0.0290684
0.0319982 0.0318914 0.031693
0.0350042 0.0347906 0.0343481
0.0379797 0.037705 0.0370184
0.0409705 0.0407263 0.0397498
0.0439307 0.0437476 0.0424964
0.0468605 0.0468147 0.0452583
0.0505074 0.0502785 0.0484321
0.0540932 0.0537881 0.051606
0.0577096 0.0573739 0.0548562
0.0612802 0.0609903 0.0581064
0.0648661 0.0646982 0.0614176
0.0692149 0.0691691 0.0655528
0.0739605 0.0739757 0.0700389
0.0787671 0.0788128 0.0745251
0.0838788 0.0838788 0.0791943
0.0890669 0.0889754 0.0838483
0.0944533 0.0944839 0.0892348
0.100221 0.100404 0.0951553
0.106386 0.106584 0.101213
0.00450141 0.00416571 0.00415045
0.00727855 0.00683604 0.00679026
0.00975052 0.00932326 0.00941482
0.0117494 0.0114595 0.0118868
0.0134432 0.0133974 0.0144045
0.0158846 0.0159304 0.0169985
0.0187228 0.0187533 0.0196078
0.0215 0.0215305 0.0221561
0.0243534 0.0243687 0.0247654
0.0271305 0.0271305 0.0273289
0.0299687 0.0299687 0.0299382
0.0330053 0.0328527 0.032578
0.035996 0.0357519 0.0352483
0.0390326 0.0387579 0.0379644
0.0420081 0.0417639 0.0407111
0.0449531 0.0448157 0.0434577
0.0481117 0.0479896 0.0463417
0.0517281 0.0514687 0.0495155
0.0553902 0.0550546 0.0527504
0.0589151 0.0585794 0.0559396
0.0625315 0.0622721 0.0592508
0.0661173 0.0660105 0.0625925
0.0708171 0.0708019 0.0670787
0.0755779 0.0756237 0.0715648
0.0805219 0.0805676 0.0761425
0.0855573 0.0855421 0.080705
0.0907912 0.0906539 0.085359
0.096376 0.0964828 0.091249
0.102235 0.102449 0.0971695
0.108507 0.10869 0.103227
0.115053 0.115068 0.1093
0.121981 0.121767 0.115663
0.129046 0.12874 0.12256
0.0123903 0.0121767 0.0127871
0.0139925 0.0140383 0.015259
0.0168307 0.0168612 0.0178683
0.0196078 0.0196384 0.0204166
0.0224613 0.0224765 0.0230259
0.0252995 0.0252995 0.0256352
0.0281376 0.0281376 0.0282444
0.0310521 0.0309911 0.030869
0.0340734 0.033875 0.0335241
0.0370642 0.0368048 0.0361944
0.0400702 0.0397955 0.0389258
0.0430457 0.0428321 0.0416571
0.0459602 0.0458686 0.044419
0.049424 0.0492409 0.0474861
0.0530251 0.0527352 0.05066
0.0565957 0.0562448 0.0538338
0.0601663 0.0598611 0.057084
0.0637827 0.0635691 0.0603952
0.0677043 0.0676432 0.0641184
0.0724346 0.0724346 0.0686046
0.0772259 0.0772717 0.0730907
0.0822003 0.0822156 0.0776684
0.0873579 0.0873121 0.0823224
0.0926528 0.092607 0.0873426
0.0983444 0.0984817 0.0932631
0.104295 0.104509 0.0991836
0.110658 0.110796 0.105257
0.117296 0.117235 0.111345
0.124407 0.124147 0.118044
0.131518 0.131197 0.124956
0.139071 0.138735 0.132143
0.146822 0.146502 0.139361
0.154788 0.154498 0.146624
0.0205539 0.0205844 0.0212863
0.0234073 0.0234226 0.0238956
0.0262455 0.0262455 0.0265049
0.0290837 0.0290837 0.0291142
0.0320592 0.0319524 0.031754
0.0350652 0.0348516 0.0344091
0.038117 0.0378424 0.0371405
0.0411078 0.0408484 0.0398718
0.0440681 0.0438849 0.0426184
0.047013 0.046952 0.0453956
0.05066 0.0504311 0.0485695
0.0542458 0.0539254 0.0517433
0.0578622 0.0575265 0.0549935
0.0614328 0.0611429 0.0582437
0.0650187 0.0648508 0.0615549
0.0693065 0.0692607 0.0656443
0.074052 0.0740673 0.0701305
0.0789654 0.0790112 0.0747082
0.0839704 0.0839857 0.0792706
0.0891737 0.0890822 0.0839399
0.0945602 0.0945907 0.0893568
0.100328 0.100511 0.0952621
0.106386 0.106584 0.101213
0.11284 0.112932 0.107271
0.119692 0.119539 0.113481
0.126711 0.126436 0.120302
0.13402 0.133684 0.127352
0.141634 0.141299 0.134539
0.149447 0.149126 0.141772
0.157855 0.157443 0.149416
0.167468 0.166812 0.158145
0.177081 0.176364 0.166842
0.187045 0.186419 0.175814
0.0300298 0.0300298 0.029984
0.0330663 0.0329137 0.032639
0.0360723 0.0358282 0.0352941
0.0390936 0.038819 0.0380255
0.0420691 0.0418402 0.0407568
0.0450141 0.0448768 0.0435187
0.0482643 0.0481422 0.046479
0.0518807 0.0516213 0.0496529
0.0555276 0.0552071 0.0528878
0.0591287 0.0588083 0.0561379
0.0626841 0.0624247 0.0593881
0.0663157 0.0662089 0.0627756
0.0710002 0.0710002 0.0672618
0.0757763 0.0758068 0.0717479
0.0807202 0.080766 0.0763256
0.0857557 0.0857404 0.0808881
0.0909895 0.0908522 0.0855573
0.0964828 0.0965896 0.0913558
0.102358 0.102571 0.0972763
0.108629 0.108797 0.103334
0.115175 0.11519 0.109422
0.122103 0.121889 0.115785
0.129168 0.128878 0.122698
0.136538 0.136202 0.129747
0.144228 0.143877 0.13695
0.152102 0.151797 0.144183
0.161089 0.160571 0.152361
0.170596 0.169909 0.160983
0.180438 0.179721 0.169879
0.190478 0.189899 0.178882
0.201068 0.200839 0.188876
0.212451 0.212558 0.200397
0.224399 0.224582 0.212024
0.0400702 0.0397955 0.0389258
0.0430457 0.0428321 0.0416571
0.0460365 0.0459297 0.0444648
0.0495003 0.0493172 0.0475624
0.0531014 0.0528115 0.0507362
0.056733 0.0563973 0.0539712
0.0603189 0.0600137 0.0572213
0.06392 0.0637217 0.0605325
0.0679026 0.0678264 0.0643015
0.0726177 0.0726329 0.0687877
0.077409 0.0774548 0.0732738
0.0823987 0.082414 0.0778515
0.0875563 0.0875105 0.0825055
0.0928664 0.0928206 0.0875715
0.0984512 0.0986038 0.09337
0.104524 0.104738 0.0994125
0.11078 0.110918 0.105364
0.11754 0.117479 0.111559
0.124529 0.124285 0.118166
0.131655 0.131334 0.125078
0.139208 0.138872 0.132265
0.146822 0.146502 0.139361
0.154955 0.15465 0.146777
0.164355 0.16376 0.155322
0.173922 0.17319 0.163973
0.183825 0.183139 0.172915
0.193927 0.193439 0.181964
0.204807 0.204715 0.192706
0.216373 0.216526 0.204257
0.228504 0.228656 0.215915
0.241215 0.241108 0.227649
0.254185 0.254063 0.240208
0.266972 0.267292 0.25359
0.05066 0.0504311 0.0485695
0.0542458 0.0539254 0.0517433
0.0578622 0.0575265 0.0549935
0.0614939 0.0612192 0.0583047
0.065095 0.0649271 0.0616159
0.0694896 0.0694591 0.0658274
0.0742351 0.0742657 0.0703136
0.0790723 0.0791028 0.0747997
0.0841688 0.0841688 0.0794537
0.0892805 0.0891737 0.0840162
0.0947738 0.0948043 0.0895705
0.100557 0.10074 0.095491
0.106615 0.106828 0.101427
0.113085 0.113161 0.1075
0.119951 0.119783 0.11371
0.12697 0.126696 0.120562
0.134279 0.133959 0.127596
0.141772 0.141436 0.134676
0.149584 0.149264 0.141894
0.158022 0.157595 0.149554
0.167468 0.166812 0.158145
0.177249 0.176532 0.166995
0.187228 0.186587 0.175967
0.197406 0.197009 0.185061
0.208606 0.208621 0.196551
0.220356 0.220539 0.208133
0.23267 0.232761 0.219821
0.245808 0.245533 0.231785
0.258305 0.258366 0.244587
0.271321 0.271702 0.257969
0.285023 0.285344 0.271397
0.299687 0.299565 0.285084
0.313787 0.313527 0.298909
0.0626841 0.0624247 0.0593881
0.0663157 0.0662089 0.0627756
0.0710002 0.0710002 0.0672618
0.0757763 0.0758068 0.0717479
0.0807202 0.080766 0.0763256
0.0858625 0.085832 0.0809796
0.0910964 0.0909743 0.0856794
0.0965896 0.0966964 0.0914626
0.102586 0.1028 0.0975052
0.108736 0.108919 0.103456
0.115297 0.115312 0.109529
0.12224 0.122026 0.115923
0.129427 0.129137 0.122942
0.136797 0.136461 0.129992
0.144366 0.144015 0.137072
0.152239 0.151934 0.14432
0.161257 0.160739 0.152499
0.170764 0.170062 0.161135
0.180606 0.179904 0.170031
0.190646 0.190082 0.179034
0.201068 0.200839 0.188876
0.212451 0.212558 0.200397
0.224399 0.224582 0.212024
0.236912 0.236912 0.223728
0.250141 0.24979 0.235843
0.262486 0.262699 0.248981
0.275731 0.276143 0.262379
0.289921 0.290135 0.27602
0.304585 0.304234 0.289509
0.318257 0.318074 0.303532
0.33228 0.332189 0.317662
0.347097 0.346914 0.332082
0.362264 0.361791 0.346288
0.077409 0.0774548 0.0732738
0.0823987 0.082414 0.0778515
0.0874647 0.0874037 0.082414
0.0928664 0.0928206 0.0875715
0.098558 0.0987106 0.0934768
0.104524 0.104738 0.0994125
0.110903 0.11104 0.10547
0.117678 0.117601 0.111681
0.124651 0.124407 0.118303
0.131777 0.131456 0.1252
0.139345 0.13901 0.132403
0.14696 0.146639 0.139483
0.155108 0.154803 0.146914
0.164523 0.163912 0.155459
0.17409 0.173358 0.164126
0.183993 0.183307 0.173068
0.194095 0.193606 0.182116
0.204807 0.204715 0.192706
0.216373 0.216526 0.204257
0.228504 0.228656 0.215915
0.241215 0.241108 0.227649
0.254185 0.254063 0.240208
0.266972 0.267292 0.25359
0.280461 0.280842 0.266987
0.294652 0.294713 0.280446
0.309148 0.308782 0.294057
0.322789 0.322667 0.308156
0.336996 0.336904 0.322316
0.351766 0.351507 0.336492
0.367285 0.36672 0.350958
0.380987 0.381155 0.365255
0.395315 0.395789 0.379599
0.410315 0.41062 0.393957
0.094667 0.0946975 0.0894636
0.10045 0.100633 0.0953841
0.106508 0.106706 0.10132
0.113085 0.113161 0.1075
0.119829 0.119661 0.113603
0.12697 0.126696 0.120562
0.134279 0.133959 0.127596
0.141772 0.141436 0.134676
0.149584 0.149264 0.141894
0.158175 0.157748 0.149706
0.167636 0.166979 0.158297
0.177249 0.176532 0.166995
0.187228 0.186587 0.175967
0.197574 0.197192 0.185245
0.208606 0.208621 0.196551
0.220356 0.220539 0.208133
0.23267 0.232761 0.219821
0.245808 0.245533 0.231785
0.258305 0.258366 0.244587
0.271321 0.271702 0.257969
0.285023 0.285344 0.271397
0.299458 0.299336 0.284855
0.313558 0.313298 0.29868
0.327382 0.327291 0.312795
0.341772 0.34165 0.326955
0.356725 0.356374 0.341161
0.371481 0.371191 0.355413
0.385382 0.385702 0.369726
0.399908 0.400397 0.38407
0.415122 0.415274 0.398428
0.430533 0.430213 0.412863
0.443595 0.444251 0.427237
0.45742 0.458396 0.441581
0.115175 0.11519 0.109422
0.122103 0.121889 0.115785
0.129305 0.129 0.12282
0.136675 0.136339 0.12987
0.144366 0.144015 0.137072
0.152239 0.151934 0.14432
0.161257 0.160739 0.152499
0.170764 0.170062 0.161135
0.180606 0.179904 0.170031
0.190646 0.190082 0.179034
0.201068 0.200839 0.188876
0.212451 0.212558 0.200397
0.224399 0.224582 0.212024
0.236912 0.236912 0.223728
0.250141 0.24979 0.235843
0.262486 0.262699 0.248981
0.275731 0.276143 0.262379
0.289677 0.289906 0.275807
0.304341 0.30399 0.289281
0.318029 0.317845 0.303304
0.332052 0.33196 0.317433
0.346609 0.346441 0.331609
0.361761 0.361288 0.345815
0.375967 0.375937 0.360098
0.390066 0.390494 0.374426
0.404822 0.405249 0.388769
0.420264 0.420203 0.403143
0.434592 0.434638 0.417411
0.447883 0.448707 0.431785
0.461967 0.462913 0.446128
0.476829 0.477226 0.460426
0.491814 0.491554 0.474678
0.504814 0.505425 0.488884
0.139071 0.138735 0.132143
0.146822 0.146502 0.139361
0.154955 0.15465 0.146777
0.164355 0.16376 0.155322
0.173922 0.17319 0.163973
0.183825 0.183139 0.172915
0.193927 0.193439 0.181964
0.204807 0.204715 0.192706
0.216373 0.216526 0.204257
0.228504 0.228656 0.215915
0.241215 0.241108 0.227649
0.254185 0.254063 0.240208
0.266972 0.267292 0.25359
0.280232 0.280613 0.266773
0.294408 0.294484 0.280217
0.308934 0.308553 0.293828
0.32256 0.322438 0.307927
0.336751 0.33666 0.322072
0.351522 0.351263 0.336263
0.366857 0.366247 0.350484
0.380529 0.380682 0.364797
0.394842 0.395315 0.379126
0.409812 0.410132 0.393484
0.425208 0.424903 0.40763
0.438712 0.439094 0.421973
0.452262 0.453193 0.436332
0.46659 0.46743 0.45066
0.481697 0.481804 0.464942
0.495857 0.495933 0.479179
0.509071 0.509834 0.49337
0.523003 0.523827 0.5075
0.537636 0.537942 0.521584
0.552254 0.551995 0.535607
0.1673 0.166644 0.157992
0.177081 0.176364 0.166842
0.187045 0.186419 0.175814
0.197406 0.197009 0.185061
0.208408 0.208423 0.196353
0.220157 0.22034 0.207935
0.23267 0.232761 0.219821
0.245594 0.245319 0.231586
0.258305 0.258366 0.244587
0.271321 0.271702 0.257969
0.285023 0.285344 0.271397
0.299458 0.299336 0.284855
0.313558 0.313298 0.29868
0.327382 0.327291 0.312795
0.341772 0.34165 0.326955
0.356725 0.356374 0.341161
0.371481 0.371191 0.355413
0.385138 0.385458 0.369482
0.399664 0.400153 0.383825
0.414878 0.41503 0.398199
0.430106 0.429755 0.412375
0.443153 0.443778 0.426764
0.456947 0.457923 0.441108
0.47129 0.471962 0.455177
0.486656 0.486381 0.469459
0.499962 0.500328 0.48368
0.51342 0.51426 0.497856
0.527565 0.528283 0.511971
0.542412 0.542428 0.52604
0.556558 0.556542 0.540276
0.569833 0.57026 0.554208
0.583673 0.5841 0.568109
0.598306 0.598291 0.582177
0.200885 0.200656 0.188693
0.212268 0.21236 0.200214
0.224186 0.224369 0.211826
0.236698 0.236713 0.223529
0.249943 0.249577 0.235615
0.262486 0.262699 0.248981
0.275731 0.276143 0.262379
0.289677 0.289906 0.275807
0.304341 0.30399 0.289281
0.318029 0.317845 0.303304
0.332052 0.33196 0.317433
0.346609 0.346441 0.331609
0.361761 0.361288 0.345815
0.375967 0.375937 0.360098
0.390066 0.390494 0.374426
0.404578 0.405005 0.38854
0.420005 0.419959 0.402914
0.434379 0.434409 0.417182
0.447669 0.448478 0.43154
0.461723 0.462669 0.445884
0.476326 0.476753 0.459953
0.491386 0.491096 0.474205
0.504143 0.504723 0.488167
0.517815 0.518685 0.502327
0.532189 0.532753 0.516426
0.547524 0.547158 0.530709
0.560693 0.560876 0.544686
0.574151 0.574639 0.558618
0.588403 0.588739 0.572732
0.602991 0.602731 0.586557
0.616739 0.616815 0.600534
0.629953 0.630564 0.614221
0.643732 0.644358 0.627863
0.241001 0.240894 0.227466
0.253986 0.253849 0.239994
0.266758 0.267063 0.253361
0.280232 0.280613 0.266773
0.294408 0.294484 0.280217
0.308934 0.308553 0.293828
0.32256 0.322438 0.307927
0.336751 0.33666 0.322072
0.351522 0.351263 0.336263
0.366857 0.366247 0.350484
0.380529 0.380682 0.364797
0.394842 0.395315 0.379126
0.409812 0.410132 0.393484
0.425208 0.424903 0.40763
0.438712 0.439094 0.421973
0.452262 0.453193 0.436332
0.466346 0.467185 0.450416
0.481453 0.481559 0.464698
0.495644 0.495705 0.47895
0.508629 0.509361 0.492897
0.52253 0.523369 0.507027
0.537133 0.537469 0.521111
0.551827 0.551537 0.535149
0.565118 0.565454 0.54934
0.578759 0.579248 0.563241
0.592966 0.593164 0.577111
0.60798 0.607431 0.59115
0.620859 0.621164 0.604883
0.634256 0.634928 0.618555
0.648463 0.648966 0.63241
0.663035 0.662806 0.645991
0.67599 0.676326 0.659602
0.688792 0.689708 0.673198
0.284566 0.284901 0.270954
0.299214 0.299107 0.284642
0.313344 0.313069 0.298436
0.327153 0.327062 0.312566
0.341527 0.341405 0.326726
0.356481 0.35613 0.340917
0.371267 0.370962 0.355169
0.385138 0.385458 0.369482
0.399664 0.400153 0.383825
0.414878 0.41503 0.398199
0.430106 0.429755 0.412375
0.443153 0.443778 0.426764
0.456947 0.457923 0.441108
0.47129 0.471962 0.455177
0.486656 0.486381 0.469459
0.499748 0.500099 0.483452
0.513176 0.514015 0.497612
0.527321 0.528054 0.511727
0.542168 0.542184 0.525795
0.55613 0.556085 0.539803
0.569375 0.569802 0.55375
0.583429 0.583871 0.56788
0.597818 0.597818 0.58172
0.612024 0.61178 0.595514
0.625254 0.625742 0.609445
0.638849 0.639521 0.623102
0.65301 0.653346 0.636713
0.667613 0.66717 0.650278
0.679973 0.680552 0.66392
0.692973 0.69395 0.677485
0.70663 0.707332 0.69099
0.720943 0.720745 0.704433
0.733471 0.733837 0.717739
0.331807 0.331731 0.317205
0.346365 0.346197 0.33138
0.361501 0.361044 0.345586
0.375738 0.375692 0.359869
0.389838 0.390249 0.374182
0.404578 0.405005 0.38854
0.420005 0.419959 0.402914
0.434379 0.434409 0.417182
0.447669 0.448478 0.43154
0.461723 0.462669 0.445884
0.476326 0.476753 0.459953
0.491386 0.491096 0.474205
0.504143 0.504723 0.488167
0.517815 0.518685 0.502327
0.532189 0.532753 0.516426
0.547265 0.546929 0.53048
0.560479 0.560647 0.544457
0.573922 0.574411 0.558389
0.588159 0.58851 0.572488
0.602747 0.602502 0.586328
0.616297 0.616358 0.600076
0.629496 0.630106 0.613779
0.643275 0.6439 0.62742
0.657862 0.657954 0.641245
0.671672 0.671641 0.654841
0.68423 0.685023 0.668452
0.697459 0.698405 0.682002
0.711101 0.711574 0.695262
0.725307 0.724941 0.708659
0.737362 0.737957 0.721935
0.749798 0.750729 0.734905
0.762844 0.7635 0.747799
0.776471 0.776272 0.760616
0.380301 0.380453 0.364553
0.394598 0.395071 0.378882
0.409567 0.409888 0.39324
0.424949 0.424643 0.407401
0.438499 0.438849 0.421729
0.452033 0.452964 0.436088
0.466346 0.467185 0.450416
0.481453 0.481559 0.464698
0.49543 0.495476 0.478706
0.508629 0.509361 0.492897
0.52253 0.523369 0.507027
0.537133 0.537469 0.521111
0.551827 0.551537 0.535149
0.564904 0.565225 0.549111
0.578759 0.579248 0.563241
0.592966 0.593164 0.577111
0.607736 0.607187 0.590921
0.620645 0.620935 0.604654
0.634028 0.634699 0.618326
0.64799 0.648508 0.631952
0.662531 0.662348 0.645533
0.675578 0.675868 0.659159
0.68835 0.689265 0.67274
0.701778 0.702647 0.686275
0.715862 0.716045 0.699733
0.729046 0.729061 0.712871
0.741299 0.742077 0.726131
0.753933 0.754849 0.739071
0.767163 0.76762 0.751934
0.780438 0.780102 0.764492
0.791348 0.792187 0.776898
0.802716 0.803998 0.788998
0.81471 0.815732 0.801007
0.429908 0.429511 0.412146
0.442924 0.443534 0.42652
0.456718 0.457694 0.440864
0.471046 0.471717 0.454948
0.486397 0.486137 0.469215
0.499748 0.500099 0.483452
0.513176 0.514015 0.497612
0.527321 0.528054 0.511727
0.542168 0.542184 0.525795
0.55613 0.556085 0.539803
0.569604 0.570031 0.553979
0.583429 0.583871 0.56788
0.597818 0.597818 0.58172
0.612024 0.61178 0.595514
0.62504 0.625513 0.609216
0.638621 0.639292 0.622873
0.652766 0.653117 0.636484
0.667414 0.666957 0.65005
0.679759 0.680339 0.663691
0.69276 0.693721 0.677272
0.706401 0.707118 0.690776
0.720455 0.720287 0.70399
0.733074 0.733394 0.717296
0.745312 0.746181 0.730297
0.758129 0.758953 0.743221
0.771542 0.771725 0.756069
0.783886 0.783993 0.76849
0.79501 0.796063 0.78088
0.806577 0.807843 0.79295
0.818555 0.819364 0.804715
0.831388 0.831022 0.816587
0.83978 0.840696 0.827024
0.848783 0.850263 0.837324
0.476066 0.476509 0.459709
0.491173 0.490867 0.47396
0.504143 0.504723 0.488167
0.517815 0.518685 0.502327
0.532189 0.532753 0.516426
0.547265 0.546929 0.53048
0.560479 0.560647 0.544457
0.574151 0.574639 0.558618
0.588159 0.58851 0.572488
0.602747 0.602502 0.586328
0.616297 0.616358 0.600076
0.629496 0.630106 0.613779
0.643503 0.644129 0.627649
0.657862 0.657954 0.641245
0.671672 0.671641 0.654841
0.684016 0.684794 0.668223
0.69723 0.698192 0.681773
0.711101 0.711574 0.695262
0.725109 0.724727 0.708446
0.73695 0.737514 0.721492
0.749371 0.750301 0.734478
0.762387 0.763073 0.747372
0.775998 0.77583 0.760189
0.787396 0.787884 0.772488
0.798535 0.799725 0.784634
0.8103 0.81149 0.796674
0.82269 0.823194 0.808606
0.833967 0.834089 0.819898
0.842557 0.843732 0.830289
0.851759 0.853254 0.840558
0.861387 0.862486 0.850523
0.871595 0.871595 0.860365
0.879011 0.879454 0.868757
0.522286 0.523125 0.506798
0.537133 0.537469 0.521111
0.551827 0.551537 0.535149
0.564904 0.565225 0.549111
0.578759 0.579248 0.563241
0.592966 0.593164 0.577111
0.607736 0.607187 0.590921
0.620859 0.621164 0.604883
0.634256 0.634928 0.618555
0.648234 0.648737 0.632181
0.662791 0.662577 0.645762
0.675776 0.676097 0.659373
0.688563 0.689479 0.672969
0.701778 0.702647 0.686275
0.715862 0.716045 0.699733
0.729046 0.729061 0.712871
0.741085 0.741848 0.725902
0.753719 0.754635 0.738857
0.766934 0.767407 0.75172
0.780255 0.779904 0.764279
0.791165 0.791974 0.776684
0.802518 0.803784 0.7888
0.814282 0.815335 0.800595
0.826886 0.827008 0.812497
0.836759 0.837324 0.823377
0.845548 0.846922 0.833722
0.85478 0.856229 0.843763
0.864607 0.865431 0.853697
0.874571 0.874372 0.863355
0.881239 0.88191 0.871366
0.888304 0.889342 0.879271
0.895613 0.896529 0.886915
0.903304 0.903624 0.894469
0.569375 0.569802 0.55375
0.5832 0.583642 0.567636
0.597818 0.597818 0.58172
0.612024 0.61178 0.595514
0.625254 0.625742 0.609445
0.638849 0.639521 0.623102
0.65301 0.653346 0.636713
0.667613 0.66717 0.650278
0.679973 0.680552 0.66392
0.692973 0.69395 0.677485
0.70663 0.707332 0.69099
0.720699 0.720516 0.704204
0.733074 0.733394 0.717296
0.745312 0.746181 0.730297
0.758129 0.758953 0.743221
0.771542 0.771725 0.756069
0.783886 0.783993 0.76849
0.794812 0.79585 0.780667
0.806378 0.807645 0.792737
0.818555 0.819364 0.804715
0.831159 0.830823 0.816373
0.839628 0.840528 0.826841
0.848447 0.849928 0.836973
0.858045 0.859373 0.84715
0.867887 0.86836 0.85687
0.876707 0.876844 0.865995
0.883513 0.884352 0.873976
0.890562 0.891615 0.881697
0.898146 0.898909 0.889448
0.905806 0.905837 0.896819
0.911604 0.91191 0.903258
0.916808 0.917586 0.90927
0.922194 0.923079 0.915114
0.616297 0.616358 0.600076
0.629725 0.630335 0.613993
0.643503 0.644129 0.627649
0.657862 0.657954 0.641245
0.671672 0.671641 0.654841
0.68423 0.685023 0.668452
0.697459 0.698405 0.682002
0.71133 0.711803 0.695476
0.725307 0.724941 0.708659
0.737362 0.737957 0.721935
0.749798 0.750729 0.734905
0.762615 0.763287 0.747585
0.776226 0.776043 0.760403
0.787579 0.788098 0.772702
0.798733 0.799924 0.784848
0.810498 0.811688 0.796872
0.82269 0.823194 0.808606
0.833967 0.834089 0.819898
0.842557 0.843732 0.830289
0.851591 0.853086 0.840375
0.861204 0.862318 0.85034
0.871412 0.871443 0.860197
0.878889 0.879316 0.86862
0.885817 0.886778 0.876554
0.893004 0.894011 0.884245
0.900557 0.901137 0.891829
0.908324 0.90811 0.899245
0.913329 0.913848 0.905303
0.918532 0.919387 0.911192
0.924025 0.924849 0.916991
0.929793 0.930205 0.922728
0.935347 0.935256 0.928161
0.938842 0.939422 0.93257
0.662791 0.662577 0.645762
0.675776 0.676097 0.659373
0.688563 0.689479 0.672969
0.702007 0.702876 0.686503
0.716106 0.716274 0.699962
0.729259 0.729274 0.7131
0.741512 0.74229 0.726345
0.754162 0.755062 0.739284
0.767391 0.767834 0.752148
0.780621 0.780316 0.764706
0.791348 0.792187 0.776898
0.802716 0.803998 0.788998
0.81471 0.815732 0.801007
0.827115 0.827207 0.812711
0.836912 0.837491 0.82356
0.845716 0.847089 0.833906
0.854948 0.856397 0.843946
0.86479 0.865599 0.85388
0.874571 0.874372 0.863355
0.881239 0.88191 0.871366
0.888304 0.889342 0.879271
0.895613 0.896529 0.886915
0.903166 0.903487 0.894331
0.909895 0.909957 0.901198
0.915007 0.915679 0.90724
0.920302 0.921187 0.9131
0.925872 0.926604 0.918883
0.931624 0.931838 0.924483
0.936446 0.936599 0.92958
0.940093 0.94081 0.934066
0.943923 0.944869 0.938384
0.947921 0.948745 0.94258
0.952178 0.952544 0.9467
0.70663 0.707332 0.69099
0.720943 0.720745 0.704433
0.733272 0.733623 0.717525
0.745724 0.746624 0.730739
0.758572 0.759396 0.743664
0.772015 0.772152 0.756497
0.784253 0.784405 0.768917
0.795209 0.796262 0.781079
0.806775 0.808042 0.793149
0.818998 0.81976 0.805112
0.831525 0.831189 0.81677
0.839933 0.840864 0.827207
0.848783 0.850263 0.837324
0.858228 0.859525 0.847333
0.868254 0.868681 0.857221
0.876829 0.876982 0.866133
0.883635 0.884489 0.874113
0.8907 0.891737 0.881834
0.898146 0.898909 0.889448
0.905959 0.905959 0.896956
0.911604 0.91191 0.903258
0.916808 0.917586 0.90927
0.922194 0.923079 0.915114
0.927764 0.928359 0.92076
0.933715 0.933654 0.926452
0.937636 0.938018 0.931075
0.941283 0.942123 0.935454
0.945205 0.946136 0.939757
0.949279 0.949996 0.943938
0.953613 0.95378 0.948043
0.956695 0.95697 0.951583
0.959075 0.959762 0.954726
0.961608 0.962432 0.957763
0.750011 0.750957 0.735134
0.763058 0.763714 0.748028
0.776471 0.776272 0.760616
0.787961 0.78851 0.773129
0.79913 0.800336 0.78526
0.810925 0.8121 0.797284
0.823133 0.82359 0.809018
0.834394 0.834607 0.820447
0.842863 0.844068 0.830655
0.852079 0.85359 0.840909
0.861738 0.862821 0.850874
0.871794 0.871763 0.860548
0.879133 0.879591 0.86891
0.886076 0.887053 0.876844
0.893278 0.89427 0.88452
0.900847 0.901396 0.892103
