CUBE/V2_Sl3Sg3_B&W_ZERO.cube
TITLE "Generated by Resolve"
LUT_3D_SIZE 9
0 0 0
0.00030518 7.62951e-05 0.000396735
0.0106966 0.0103304 0.010544
0.0222629 0.0222782 0.022858
0.0361944 0.0359503 0.0354162
0.0507362 0.0505074 0.0486305
0.0669566 0.0668803 0.0634012
0.0877699 0.0877089 0.0826734
0.111498 0.11162 0.106035
0.0268101 0.0268101 0.027039
0.0409094 0.04065 0.0396887
0.0562142 0.0558785 0.0534981
0.0737621 0.0737926 0.0698711
0.095201 0.0952468 0.090013
0.12047 0.120272 0.114168
0.148898 0.148577 0.141268
0.183307 0.18262 0.172457
0.222965 0.223163 0.210666
0.0807202 0.080766 0.0763256
0.103151 0.103365 0.0980697
0.129686 0.129381 0.123201
0.15964 0.159167 0.151034
0.195651 0.195209 0.183505
0.23798 0.237964 0.224704
0.284337 0.284672 0.270741
0.334157 0.334066 0.319524
0.385382 0.385702 0.369726
0.171267 0.170565 0.161578
0.208789 0.20882 0.196735
0.253162 0.252995 0.239124
0.301152 0.300969 0.286412
0.351263 0.351019 0.336034
0.402609 0.403067 0.386648
0.453666 0.454612 0.437766
0.504814 0.505425 0.488884
0.555688 0.555627 0.539345
0.317586 0.317388 0.302831
0.369055 0.368597 0.352834
0.420523 0.420447 0.403388
0.470787 0.471489 0.454704
0.521111 0.521965 0.505623
0.57142 0.571878 0.55584
0.621302 0.621622 0.605341
0.671046 0.67097 0.654154
0.71899 0.718944 0.702647
0.489296 0.488792 0.471839
0.538643 0.538872 0.52253
0.588159 0.58851 0.572488
0.637461 0.638148 0.621729
0.686183 0.687022 0.670481
0.734279 0.734707 0.718624
0.781338 0.781125 0.765545
0.824445 0.824796 0.810254
0.86067 0.86183 0.849805
0.654459 0.654734 0.638071
0.702235 0.70309 0.686732
0.749371 0.750301 0.734478
0.794812 0.79585 0.780667
0.837354 0.837995 0.824094
0.873869 0.873533 0.86247
0.902007 0.902449 0.893217
0.925551 0.926299 0.918547
0.94464 0.945586 0.939162
0.809262 0.810483 0.795636
0.848615 0.850095 0.83714
0.882612 0.883391 0.872969
0.910933 0.911147 0.902449
0.933715 0.933654 0.926452
0.950668 0.951247 0.945281
0.963775 0.964523 0.960174
0.973907 0.97435 0.971405
0.981292 0.981552 0.979416
0.917922 0.918761 0.910521
0.939132 0.939742 0.932921
0.956176 0.956329 0.950866
0.968231 0.968399 0.964675
0.976806 0.977096 0.974487
0.983093 0.983383 0.981476
0.987427 0.987671 0.986343
0.990768 0.990753 0.989776
0.993927 0.993896 0.992706
0.000701915 0.000289921 0.000320439
0.00369268 0.00340276 0.00343328
0.0144961 0.0145418 0.0157168
0.0280766 0.0280766 0.0281987
0.0422065 0.0419623 0.0408789
0.0577096 0.0573739 0.0548562
0.0756847 0.0757153 0.0716564
0.0973526 0.0974746 0.092256
0.123003 0.122774 0.11667
0.0327916 0.0326543 0.0324102
0.0467842 0.0467384 0.0451972
0.0630503 0.0628061 0.0597238
0.0826886 0.0827039 0.0781109
0.105455 0.105669 0.100313
0.132311 0.131991 0.125704
0.16289 0.162325 0.153979
0.199222 0.198917 0.186969
0.242313 0.242161 0.228641
0.0898756 0.0897688 0.0845655
0.114061 0.114122 0.1084
0.141909 0.141573 0.134798
0.174746 0.174029 0.164736
0.212848 0.212955 0.200793
0.257465 0.257496 0.243717
0.30631 0.305867 0.291051
0.356481 0.35613 0.340917
0.407553 0.407935 0.391363
0.186709 0.186069 0.175509
0.227268 0.22742 0.21474
0.272847 0.273243 0.25951
0.322347 0.32221 0.307698
0.373724 0.373556 0.357748
0.426001 0.425635 0.408331
0.476066 0.476509 0.459709
0.526116 0.526879 0.510552
0.576211 0.576715 0.560693
0.338903 0.338796 0.324163
0.390066 0.390494 0.374426
0.44181 0.442374 0.42533
0.493507 0.4934 0.47657
0.543694 0.543603 0.527199
0.592966 0.593164 0.577111
0.642329 0.642985 0.626505
0.690761 0.691722 0.675227
0.738598 0.739254 0.723262
0.5093 0.510063 0.493599
0.560037 0.560189 0.543999
0.61033 0.609949 0.593683
0.659342 0.659342 0.642603
0.706859 0.707561 0.691218
0.753719 0.754635 0.738857
0.798733 0.799924 0.784848
0.840391 0.841382 0.827741
0.876234 0.876295 0.8654
0.675364 0.675654 0.65893
0.724132 0.723644 0.707332
0.769924 0.770214 0.754543
0.813443 0.814527 0.799771
0.851926 0.853422 0.840726
0.885176 0.886107 0.875837
0.912856 0.913314 0.904738
0.935561 0.935515 0.92842
0.952438 0.952773 0.94696
0.829129 0.829007 0.814542
0.864424 0.865263 0.853529
0.894789 0.895735 0.886076
0.920089 0.920974 0.912871
0.940688 0.941466 0.934752
0.957183 0.957565 0.952255
0.969543 0.969451 0.965896
0.977646 0.977844 0.975326
0.983627 0.983886 0.982025
0.927871 0.928466 0.920867
0.946349 0.94725 0.940963
0.960891 0.9617 0.956924
0.972015 0.972351 0.969146
0.980102 0.980194 0.977951
0.985626 0.985641 0.984009
0.988876 0.989029 0.987961
0.992065 0.992035 0.990982
0.995636 0.99559 0.994278
0.000503548 0.00015259 0.000442512
0.00918593 0.00875868 0.0087892
0.0203098 0.020325 0.0210574
0.0341344 0.0339513 0.0335851
0.0483406 0.0482185 0.04654
0.0645762 0.0643931 0.0611429
0.0847639 0.0847639 0.0799878
0.107912 0.108095 0.102663
0.135073 0.134737 0.128359
0.0388952 0.0386206 0.0378424
0.0538643 0.0535592 0.0514076
0.0708171 0.0708019 0.0670787
0.0919203 0.0918441 0.0865644
0.116548 0.116518 0.110658
0.144625 0.144289 0.137331
0.178088 0.177371 0.167758
0.21677 0.216922 0.204654
0.261646 0.26183 0.248096
0.0996567 0.0998398 0.0945907
0.125689 0.125414 0.119295
0.15462 0.15433 0.146487
0.190311 0.189731 0.178729
0.231418 0.231525 0.218647
0.277302 0.277699 0.263905
0.326925 0.326833 0.312337
0.378241 0.378302 0.362448
0.430747 0.430457 0.413092
0.203113 0.202976 0.190982
0.246921 0.246601 0.232776
0.293935 0.294026 0.279774
0.343938 0.343801 0.329046
0.395071 0.39556 0.379355
0.446525 0.447303 0.43035
0.498009 0.498238 0.481544
0.549065 0.548577 0.532113
0.598062 0.598062 0.581949
0.361501 0.361044 0.345586
0.412589 0.412818 0.396078
0.463416 0.464332 0.447547
0.514107 0.514961 0.498558
0.564675 0.564996 0.548867
0.614801 0.614755 0.598489
0.664515 0.664195 0.647349
0.711803 0.712245 0.695933
0.758358 0.759182 0.743435
0.530968 0.531579 0.515251
0.58085 0.581323 0.565332
0.630396 0.631022 0.614679
0.679545 0.68011 0.663462
0.728054 0.727977 0.711772
0.774578 0.774533 0.758877
0.817914 0.818753 0.804089
0.855467 0.856901 0.84448
0.887907 0.88893 0.878843
0.695201 0.696178 0.679744
0.742763 0.743587 0.727672
0.788891 0.789532 0.774182
0.832807 0.832731 0.818418
0.86807 0.868528 0.857038
0.897581 0.898375 0.888884
0.922194 0.923079 0.915114
0.942214 0.943099 0.936492
0.95816 0.958724 0.953552
0.843656 0.844907 0.831556
0.878767 0.879179 0.868467
0.908049 0.907774 0.898894
0.930129 0.93051 0.923064
0.948013 0.948821 0.942657
0.96199 0.962814 0.958206
0.972747 0.973144 0.970047
0.98056 0.980728 0.978531
0.986038 0.986038 0.984466
0.936996 0.93727 0.930282
0.954345 0.954376 0.948699
0.966262 0.966751 0.962753
0.975525 0.975937 0.973159
0.9823 0.982605 0.980591
0.986984 0.987198 0.985794
0.990341 0.990311 0.98938
0.993362 0.993317 0.992172
0.997345 0.997299 0.99585
0.00151064 0.00137331 0.0015259
0.0131685 0.0130617 0.013962
0.0261845 0.0261845 0.0264591
0.0402686 0.0399939 0.0390936
0.0554665 0.0551308 0.0528267
0.0728008 0.0728161 0.0689708
0.0941329 0.0941482 0.0888991
0.119188 0.119051 0.113039
0.147509 0.147189 0.140002
0.044831 0.0446784 0.0433356
0.0607614 0.0604562 0.0576333
0.0796521 0.0796979 0.0753338
0.1019 0.102113 0.0968338
0.128267 0.127977 0.121813
0.157855 0.157443 0.149416
0.193759 0.193256 0.181811
0.23563 0.23566 0.222553
0.282048 0.282414 0.268528
0.110292 0.110445 0.104921
0.137743 0.137392 0.130877
0.169619 0.168917 0.160082
0.206882 0.206851 0.194827
0.251148 0.250858 0.236927
0.298726 0.298634 0.284199
0.348806 0.348608 0.3337
0.399908 0.400397 0.38407
0.451102 0.452018 0.435142
0.220951 0.221134 0.208713
0.266117 0.266407 0.252705
0.315343 0.315114 0.300526
0.366857 0.366247 0.350484
0.417945 0.41799 0.401022
0.468315 0.469093 0.452323
0.518761 0.519615 0.503273
0.569146 0.569574 0.553521
0.61912 0.619333 0.603052
0.383062 0.383307 0.367376
0.435233 0.43534 0.418128
0.486656 0.486381 0.469459
0.536141 0.536522 0.52018
0.585794 0.586191 0.570184
0.635172 0.635843 0.619455
0.684016 0.684794 0.668223
0.732265 0.73254 0.716411
0.779553 0.77908 0.763424
0.553323 0.553124 0.536782
0.602991 0.602731 0.586557
0.652049 0.65243 0.635813
0.699947 0.700862 0.684474
0.747219 0.748135 0.73228
0.792889 0.79382 0.778576
0.835874 0.836301 0.822278
0.871977 0.871931 0.860716
0.900557 0.901137 0.891829
0.716579 0.716716 0.700404
0.762844 0.7635 0.747799
0.806989 0.808255 0.793362
0.84683 0.848264 0.835172
0.881239 0.88191 0.871366
0.909895 0.909957 0.901198
0.932433 0.93254 0.925246
0.949798 0.950469 0.944442
0.963195 0.963973 0.959548
0.858915 0.860197 0.848035
0.890562 0.891615 0.881697
0.916915 0.917693 0.909392
0.938415 0.938918 0.932052
0.955718 0.955734 0.950195
0.967514 0.967819 0.963989
0.976349 0.976684 0.974014
0.982803 0.983108 0.981155
0.987274 0.987503 0.98616
0.943847 0.944778 0.938308
0.959228 0.95993 0.954925
0.970916 0.971115 0.967758
0.979431 0.979355 0.977035
0.984741 0.984894 0.983169
0.988373 0.988586 0.987427
0.991623 0.991608 0.990585
0.995071 0.995026 0.993744
0.998123 0.998199 0.997192
0.00756847 0.00712596 0.00708019
0.0184176 0.0184482 0.0193179
0.0321202 0.0320134 0.0318151
0.0461585 0.046067 0.0445869
0.0623026 0.0620432 0.0590524
0.0817121 0.0817426 0.0772106
0.104295 0.104509 0.0991836
0.130999 0.130678 0.124453
0.161257 0.160739 0.152499
0.0514992 0.0512551 0.0493172
0.0679026 0.0678264 0.0643015
0.088777 0.0886854 0.0835737
0.112718 0.11281 0.107164
0.140551 0.140215 0.133532
0.173083 0.172366 0.163226
0.21091 0.210971 0.198856
0.255406 0.255344 0.241535
0.303838 0.303532 0.288838
0.121721 0.121523 0.115419
0.150286 0.149966 0.142535
0.185016 0.184344 0.173983
0.22501 0.225177 0.212604
0.270436 0.270817 0.257099
0.319844 0.319677 0.30515
0.371267 0.370962 0.355169
0.423117 0.422919 0.405737
0.473289 0.473884 0.457084
0.240131 0.240055 0.226673
0.286656 0.286946 0.272938
0.336522 0.336431 0.321843
0.387717 0.388098 0.372076
0.439597 0.440024 0.422934
0.491386 0.491096 0.474205
0.541146 0.541238 0.524865
0.590555 0.590829 0.574807
0.63978 0.640452 0.624002
0.405081 0.405493 0.389013
0.456016 0.456977 0.440146
0.507057 0.507744 0.491249
0.557855 0.557916 0.541665
0.60824 0.60766 0.591394
0.656886 0.657038 0.64033
0.70454 0.705333 0.688975
0.751537 0.752468 0.73666
0.796765 0.797894 0.782757
0.573922 0.574411 0.558389
0.623713 0.62414 0.607843
0.673304 0.673426 0.656657
0.721675 0.721416 0.705104
0.76762 0.768048 0.752377
0.811337 0.812497 0.797696
0.850263 0.851759 0.838941
0.883894 0.884749 0.874403
0.911879 0.91223 0.903593
0.736324 0.736873 0.720836
0.783154 0.783185 0.767651
0.826673 0.82681 0.812299
0.862623 0.86363 0.851759
0.893416 0.894408 0.884672
0.919051 0.919921 0.911757
0.939941 0.940658 0.933883
0.956695 0.95697 0.951583
0.968872 0.968917 0.965286
0.875044 0.874922 0.863935
0.903456 0.903746 0.894606
0.92665 0.927337 0.919661
0.945449 0.94638 0.940017
0.960296 0.961074 0.956222
0.971618 0.971908 0.968658
0.979858 0.979904 0.977615
0.985336 0.985397 0.983734
0.988708 0.988891 0.987793
0.951553 0.95201 0.94612
0.96437 0.965072 0.9608
0.974304 0.974746 0.971832
0.981537 0.981811 0.979706
0.986557 0.986709 0.985229
0.989914 0.989883 0.988968
0.99292 0.992889 0.991775
0.99678 0.996735 0.995315
0.998611 0.998764 0.998398
0.0120394 0.01178 0.0122835
0.0242161 0.0242313 0.0246586
0.0382391 0.0379644 0.0372625
0.0531014 0.0528115 0.0507362
0.0698711 0.0698405 0.0661784
0.090898 0.0907454 0.0854505
0.115297 0.115312 0.109529
0.143267 0.142931 0.136065
0.176425 0.175692 0.166247
0.0585336 0.0581979 0.0556039
0.0767376 0.0767834 0.0726482
0.098558 0.0987106 0.0934768
0.124407 0.124147 0.118044
0.153216 0.152926 0.145205
0.188586 0.187976 0.177203
0.229328 0.229465 0.216693
0.275074 0.275471 0.261707
0.32462 0.324514 0.310018
0.133623 0.133288 0.12697
0.164523 0.163912 0.155459
0.201068 0.200839 0.188876
0.244495 0.244266 0.23061
0.291325 0.291493 0.277348
0.341527 0.341405 0.326726
0.392676 0.393149 0.377005
0.444266 0.444953 0.427955
0.495857 0.495933 0.479179
0.259556 0.259663 0.245914
0.308492 0.30811 0.293355
0.358984 0.358587 0.343252
0.410056 0.410376 0.393713
0.460761 0.461723 0.444923
0.511574 0.512398 0.495964
0.562234 0.562478 0.546319
0.612451 0.612238 0.595972
0.661799 0.661646 0.644862
0.428641 0.428122 0.410697
0.478614 0.47892 0.462089
0.528527 0.529229 0.512901
0.578531 0.579019 0.563012
0.628153 0.628733 0.612406
0.677455 0.677882 0.661189
0.726085 0.725811 0.709545
0.772244 0.772381 0.75671
0.815564 0.816541 0.801831
0.595621 0.595728 0.579644
0.644678 0.645274 0.628779
0.692973 0.69395 0.677485
0.740673 0.741421 0.72546
0.78703 0.787488 0.772076
0.831388 0.831022 0.816587
0.866239 0.866896 0.855283
0.896178 0.897063 0.88748
0.921141 0.922026 0.913985
0.75613 0.757015 0.741253
0.800916 0.802167 0.787137
0.842084 0.843229 0.82974
0.877546 0.877806 0.867018
0.906554 0.906477 0.89752
0.929 0.929488 0.921965
0.947173 0.948043 0.941817
0.96144 0.962264 0.957565
0.972381 0.972747 0.969604
0.886473 0.887449 0.877272
0.913817 0.914382 0.905882
0.936233 0.936355 0.929305
0.953338 0.953552 0.947784
0.965637 0.966217 0.962127
0.975128 0.975555 0.972732
0.98204 0.982345 0.980316
0.986847 0.987045 0.985611
0.990204 0.990173 0.989242
0.957671 0.958144 0.952911
0.969863 0.969848 0.966354
0.978073 0.978225 0.975738
0.983886 0.984131 0.982315
0.987884 0.988128 0.986877
0.991196 0.991165 0.990173
0.994492 0.994446 0.993225
0.998093 0.998108 0.996796
0.999695 0.999741 0.99971
0.0164645 0.016495 0.0175174
0.0300298 0.0300298 0.029984
0.0441901 0.044007 0.0427405
0.060029 0.0597086 0.0569467
0.0786755 0.0787213 0.0744335
0.100786 0.100969 0.0957198
0.12697 0.126696 0.120562
0.156237 0.155886 0.147951
0.19202 0.191485 0.18027
0.0653086 0.065156 0.0618296
0.0857557 0.0857404 0.0808881
0.109102 0.10927 0.103792
0.1364 0.136065 0.129625
0.167971 0.1673 0.158587
0.20499 0.204913 0.192905
0.249134 0.248737 0.234745
0.296315 0.29633 0.281987
0.346365 0.346197 0.33138
0.145998 0.145663 0.138598
0.179934 0.179217 0.169421
0.218952 0.219135 0.206775
0.263981 0.264225 0.250507
0.313115 0.31284 0.298207
0.364294 0.36376 0.34815
0.415381 0.415518 0.398672
0.465858 0.466712 0.449943
0.516426 0.517281 0.500908
0.279545 0.279942 0.266117
0.329244 0.329152 0.314656
0.380529 0.380682 0.364797
0.432868 0.432776 0.415503
0.483772 0.483726 0.46685
0.533425 0.533928 0.517601
0.583429 0.583871 0.56788
0.632883 0.633555 0.617182
0.68188 0.682567 0.665965
0.448798 0.449653 0.432746
0.500191 0.500557 0.483925
0.551186 0.550851 0.534447
0.600519 0.600397 0.584253
0.649424 0.649882 0.63331
0.697459 0.698405 0.682002
0.744884 0.745754 0.72987
0.790784 0.791577 0.776272
0.834257 0.834424 0.820264
0.616953 0.617044 0.600763
0.667018 0.666499 0.649607
0.714183 0.714488 0.698177
0.760586 0.761334 0.745617
0.804944 0.806226 0.791287
0.845228 0.846586 0.833356
0.879988 0.880537 0.869917
0.908965 0.908873 0.900038
0.931273 0.931533 0.924163
0.777173 0.776913 0.761273
0.820081 0.820768 0.806149
0.857191 0.858549 0.846265
0.889235 0.890272 0.880278
0.915908 0.91664 0.908263
0.937697 0.938094 0.931167
0.955261 0.955139 0.949538
0.966888 0.967285 0.963363
0.975937 0.976303 0.973587
0.899138 0.899825 0.890425
0.923369 0.924224 0.916335
0.943053 0.943984 0.937438
0.958724 0.959365 0.954269
0.970565 0.970703 0.967315
0.978988 0.978988 0.976623
0.984466 0.984649 0.982895
0.988205 0.988449 0.987259
0.991485 0.991455 0.990448
0.962554 0.963378 0.958846
0.973114 0.973541 0.970474
0.980789 0.980987 0.978821
0.98616 0.986206 0.984665
0.98941 0.989471 0.988495
0.992493 0.992462 0.991394
0.996216 0.99617 0.994812
0.998383 0.998535 0.998001
1 1 1
0.0222629 0.0222782 0.022858
0.0361944 0.0359503 0.0354162
0.0507362 0.0505074 0.0486305
0.0669566 0.0668803 0.0634012
0.0877699 0.0877089 0.0826734
0.111498 0.11162 0.106035
0.139071 0.138735 0.132143
0.171267 0.170565 0.161578
0.208789 0.20882 0.196735
0.0737621 0.0737926 0.0698711
0.095201 0.0952468 0.090013
0.12047 0.120272 0.114168
0.148898 0.148577 0.141268
0.183307 0.18262 0.172457
0.222965 0.223163 0.210666
0.268269 0.268605 0.254902
0.317586 0.317388 0.302831
0.369055 0.368597 0.352834
0.15964 0.159167 0.151034
0.195651 0.195209 0.183505
0.23798 0.237964 0.224704
0.284337 0.284672 0.270741
0.334157 0.334066 0.319524
0.385382 0.385702 0.369726
0.4374 0.43769 0.420539
0.489296 0.488792 0.471839
0.538643 0.538872 0.52253
0.301152 0.300969 0.286412
0.351263 0.351019 0.336034
0.402609 0.403067 0.386648
0.453666 0.454612 0.437766
0.504814 0.505425 0.488884
0.555688 0.555627 0.539345
0.605722 0.60531 0.58909
0.654459 0.654734 0.638071
0.702235 0.70309 0.686732
0.470787 0.471489 0.454704
0.521111 0.521965 0.505623
0.57142 0.571878 0.55584
0.621302 0.621622 0.605341
0.671046 0.67097 0.654154
0.71899 0.718944 0.702647
0.765332 0.765881 0.750195
0.809262 0.810483 0.795636
0.848615 0.850095 0.83714
0.637461 0.638148 0.621729
0.686183 0.687022 0.670481
0.734279 0.734707 0.718624
0.781338 0.781125 0.765545
0.824445 0.824796 0.810254
0.86067 0.86183 0.849805
0.891905 0.892943 0.883116
0.917922 0.918761 0.910521
0.939132 0.939742 0.932921
0.794812 0.79585 0.780667
0.837354 0.837995 0.824094
0.873869 0.873533 0.86247
0.902007 0.902449 0.893217
0.925551 0.926299 0.918547
0.94464 0.945586 0.939162
0.959762 0.96051 0.955566
0.971267 0.971511 0.968215
0.979644 0.979629 0.977325
0.910933 0.911147 0.902449
0.933715 0.933654 0.926452
0.950668 0.951247 0.945281
0.963775 0.964523 0.960174
0.973907 0.97435 0.971405
0.981292 0.981552 0.979416
0.986435 0.986542 0.985046
0.989776 0.989746 0.98883
0.992782 0.992752 0.991653
0.968231 0.968399 0.964675
0.976806 0.977096 0.974487
0.983093 0.983383 0.981476
0.987427 0.987671 0.986343
0.990768 0.990753 0.989776
0.993927 0.993896 0.992706
0.997925 0.997879 0.996384
0.999252 0.999359 0.999268
1 1 1
0.0280766 0.0280766 0.0281987
0.0422065 0.0419623 0.0408789
0.0577096 0.0573739 0.0548562
0.0756847 0.0757153 0.0716564
0.0973526 0.0974746 0.092256
0.123003 0.122774 0.11667
0.151812 0.151507 0.143938
0.186877 0.186236 0.175662
0.227268 0.22742 0.21474
0.0826886 0.0827039 0.0781109
0.105455 0.105669 0.100313
0.132311 0.131991 0.125704
0.16289 0.162325 0.153979
0.199222 0.198917 0.186969
0.242313 0.242161 0.228641
0.288975 0.289219 0.275151
0.338903 0.338796 0.324163
0.390066 0.390494 0.374426
0.174746 0.174029 0.164736
0.212848 0.212955 0.200793
0.257465 0.257496 0.243717
0.30631 0.305867 0.291051
0.356481 0.35613 0.340917
0.407553 0.407935 0.391363
0.458381 0.459342 0.442542
0.5093 0.510063 0.493599
0.560037 0.560189 0.543999
0.322347 0.32221 0.307698
0.373724 0.373556 0.357748
0.426001 0.425635 0.408331
0.476066 0.476509 0.459709
0.526116 0.526879 0.510552
0.576211 0.576715 0.560693
0.625925 0.626444 0.610132
0.675364 0.675654 0.65893
0.724132 0.723644 0.707332
0.493507 0.4934 0.47657
0.543694 0.543603 0.527199
0.592966 0.593164 0.577111
0.642329 0.642985 0.626505
0.690761 0.691722 0.675227
0.738598 0.739254 0.723262
0.785168 0.785428 0.76997
0.829129 0.829007 0.814542
0.864424 0.865263 0.853529
0.659342 0.659342 0.642603
0.706859 0.707561 0.691218
0.753719 0.754635 0.738857
0.798733 0.799924 0.784848
0.840391 0.841382 0.827741
0.876234 0.876295 0.8654
0.904921 0.905058 0.895994
0.927871 0.928466 0.920867
0.946349 0.94725 0.940963
0.813443 0.814527 0.799771
0.851926 0.853422 0.840726
0.885176 0.886107 0.875837
0.912856 0.913314 0.904738
0.935561 0.935515 0.92842
0.952438 0.952773 0.94696
0.964965 0.965621 0.96144
0.974685 0.975128 0.972259
0.981781 0.982071 0.979995
0.920089 0.920974 0.912871
0.940688 0.941466 0.934752
0.957183 0.957565 0.952255
0.969543 0.969451 0.965896
0.977646 0.977844 0.975326
0.983627 0.983886 0.982025
0.987732 0.987976 0.986709
0.991058 0.991028 0.990051
0.994308 0.994263 0.993042
0.972015 0.972351 0.969146
0.980102 0.980194 0.977951
0.985626 0.985641 0.984009
0.988876 0.989029 0.987961
0.992065 0.992035 0.990982
0.995636 0.99559 0.994278
0.998215 0.998337 0.997589
1 1 1
1 1 1
