CUBE/V2_Sl3Sg3_B&W_ZERO.cube
TITLE "Generated by Resolve"
LUT_3D_SIZE 33
0 0 0
0.000534066 0.000244144 0.000213626
0.000717174 0.000289921 0.000366217
0.000610361 0.000213626 0.000442512
0.00030518 7.62951e-05 0.000396735
0.000991836 0.000900282 0.00109865
0.00476081 0.00440986 0.00437934
0.00796521 0.00750744 0.00747692
0.0106966 0.0103304 0.010544
0.0129244 0.0127718 0.0135653
0.0155184 0.0155489 0.0166476
0.0188602 0.0188907 0.0197147
0.0222629 0.0222782 0.022858
0.0256657 0.0256809 0.0259861
0.0290837 0.0290837 0.0291142
0.0325933 0.0324712 0.0322271
0.0361944 0.0359503 0.0354162
0.0397498 0.0394751 0.0386206
0.0432288 0.0430304 0.0418402
0.0466011 0.04654 0.0450141
0.0507362 0.0505074 0.0486305
0.0548562 0.0545357 0.0522774
0.0589151 0.0585794 0.0559396
0.0628214 0.0625772 0.0595254
0.0669566 0.0668803 0.0634012
0.0720531 0.0720531 0.0682536
0.0772259 0.0772717 0.0730907
0.0824903 0.0825208 0.0779278
0.0877699 0.0877089 0.0826734
0.0932784 0.0932631 0.088014
0.0991073 0.0992752 0.0940414
0.105226 0.10544 0.100084
0.111498 0.11162 0.106035
0.000534066 0.000167849 0.000442512
0.000183108 4.57771e-05 0.000366217
0.00230411 0.00210575 0.00221256
0.00584421 0.00544747 0.00538643
0.00892653 0.00848402 0.00851453
0.0115053 0.0111849 0.0115511
0.01355 0.0135195 0.0145724
0.0165866 0.0166171 0.0176394
0.0199893 0.0200198 0.0207675
0.0234073 0.0234226 0.0238956
0.0268101 0.0268101 0.027039
0.0301671 0.0301518 0.0301061
0.0337987 0.0336309 0.0332952
0.0373846 0.0371252 0.0364843
0.0409094 0.04065 0.0396887
0.0443732 0.0442054 0.0429084
0.0479591 0.047837 0.0462043
0.0521096 0.0518502 0.0498512
0.0562142 0.0558785 0.0534981
0.0602426 0.0599374 0.0571603
0.0641337 0.0639353 0.0607462
0.0686503 0.0685893 0.0650187
0.0737621 0.0737926 0.0698711
0.0789654 0.0790112 0.0747082
0.0841688 0.0841688 0.0794537
0.0895705 0.0894636 0.0842908
0.095201 0.0952468 0.090013
0.101122 0.101305 0.0960555
0.10721 0.107408 0.101991
0.113695 0.113756 0.108064
0.12047 0.120272 0.114168
0.127352 0.127077 0.120928
0.134279 0.133959 0.127596
0.0069276 0.00650034 0.00643931
0.00984207 0.00943008 0.00952163
0.0122377 0.0119936 0.0125582
0.014374 0.0144198 0.0155947
0.0177157 0.0177462 0.018677
0.0211337 0.021149 0.0218051
0.0245365 0.0245518 0.0249485
0.0279393 0.0279545 0.0280766
0.0313878 0.0313115 0.0311742
0.0350042 0.0347906 0.0343481
0.0385748 0.0383001 0.0375525
0.0420691 0.0418402 0.0407568
0.0454566 0.0453346 0.0439307
0.0493477 0.0491798 0.047425
0.0534829 0.053193 0.0510719
0.057557 0.0572213 0.0547189
0.0614939 0.0612192 0.0583047
0.0654459 0.0653086 0.0619669
0.0703441 0.0703136 0.0666361
0.0754864 0.0755169 0.0714733
0.0807202 0.080766 0.0763256
0.0859693 0.0859388 0.0810712
0.0914168 0.0912947 0.0860151
0.0971389 0.097261 0.0920272
0.103151 0.103365 0.0980697
0.109331 0.109499 0.104021
0.115923 0.115908 0.110094
0.122744 0.122515 0.116411
0.129686 0.129381 0.123201
0.136675 0.136339 0.12987
0.143954 0.143603 0.13669
0.1514 0.151095 0.143557
0.15964 0.159167 0.151034
0.0155184 0.0155489 0.0166476
0.0188602 0.0188907 0.0197147
0.0222629 0.0222782 0.022858
0.0256657 0.0256809 0.0259861
0.0290837 0.0290837 0.0291142
0.0325933 0.0324712 0.0322271
0.0361944 0.0359503 0.0354162
0.0397498 0.0394751 0.0386206
0.0432288 0.0430304 0.0418402
0.0466011 0.04654 0.0450141
0.0507362 0.0505074 0.0486305
0.0548562 0.0545357 0.0522774
0.0589151 0.0585794 0.0559396
0.0628214 0.0625772 0.0595254
0.0669566 0.0668803 0.0634012
0.0720531 0.0720531 0.0682536
0.0772259 0.0772717 0.0730907
0.0823987 0.082414 0.0778515
0.0877699 0.0877089 0.0826734
0.0932784 0.0932631 0.088014
0.0991073 0.0992752 0.0940414
0.105104 0.105318 0.0999771
0.111498 0.11162 0.106035
0.118181 0.11809 0.112123
0.125048 0.124788 0.118669
0.132036 0.131731 0.12546
0.139071 0.138735 0.132143
0.14641 0.146075 0.138979
0.153918 0.153628 0.145846
0.162554 0.162005 0.153689
0.171267 0.170565 0.161578
0.18027 0.179553 0.169726
0.189441 0.188846 0.177966
0.0268101 0.0268101 0.027039
0.0301671 0.0301518 0.0301061
0.0337987 0.0336309 0.0332952
0.0373846 0.0371252 0.0364843
0.0409094 0.04065 0.0396887
0.0443732 0.0442054 0.0429084
0.0479591 0.047837 0.0462043
0.0521096 0.0518502 0.0498512
0.0562142 0.0558785 0.0534981
0.0602426 0.0599374 0.0571603
0.0641337 0.0639353 0.0607462
0.0686503 0.0685893 0.0650187
0.0737621 0.0737926 0.0698711
0.0789654 0.0790112 0.0747082
0.0841688 0.0841688 0.0794537
0.0895705 0.0894636 0.0842908
0.095201 0.0952468 0.090013
0.101122 0.101305 0.0960555
0.10721 0.107408 0.101991
0.113695 0.113756 0.108064
0.12047 0.120272 0.114168
0.127352 0.127077 0.120928
0.134279 0.133959 0.127596
0.141497 0.141161 0.134417
0.148898 0.148577 0.141268
0.156725 0.156344 0.148379
0.165331 0.164721 0.156207
0.174258 0.173526 0.164279
0.183307 0.18262 0.172457
0.192538 0.19202 0.180728
0.202182 0.201999 0.190021
0.212268 0.21236 0.200214
0.222965 0.223163 0.210666
0.0385748 0.0383001 0.0375525
0.0420691 0.0418402 0.0407568
0.0454566 0.0453346 0.0439307
0.0493477 0.0491798 0.047425
0.0534829 0.053193 0.0510719
0.057557 0.0572213 0.0547189
0.0614939 0.0612192 0.0583047
0.0654459 0.0653086 0.0619669
0.0703441 0.0703136 0.0666361
0.0754864 0.0755169 0.0714733
0.0807202 0.080766 0.0763256
0.0859693 0.0859388 0.0810712
0.0914168 0.0912947 0.0860151
0.0971389 0.097261 0.0920272
0.103151 0.103365 0.0980697
0.109331 0.109499 0.104021
0.115923 0.115908 0.110094
0.122744 0.122515 0.116411
0.129686 0.129381 0.123201
0.136675 0.136339 0.12987
0.143954 0.143603 0.13669
0.1514 0.151095 0.143557
0.15964 0.159167 0.151034
0.168292 0.16762 0.158892
0.177249 0.176532 0.166995
0.186374 0.185718 0.175204
0.195651 0.195209 0.183505
0.205371 0.205295 0.193286
0.215778 0.21593 0.203677
0.226642 0.22681 0.21416
0.23798 0.237964 0.224704
0.249546 0.249149 0.235187
0.260594 0.260746 0.246998
0.0507362 0.0505074 0.0486305
0.0548562 0.0545357 0.0522774
0.0589151 0.0585794 0.0559396
0.0628214 0.0625772 0.0595254
0.0669566 0.0668803 0.0634012
0.0720531 0.0720531 0.0682536
0.0772259 0.0772717 0.0730907
0.0823987 0.082414 0.0778515
0.0877699 0.0877089 0.0826734
0.0932784 0.0932631 0.088014
0.0991073 0.0992752 0.0940414
0.105104 0.105318 0.0999771
0.111498 0.11162 0.106035
0.118181 0.11809 0.112123
0.125048 0.124788 0.118669
0.132036 0.131731 0.12546
0.139071 0.138735 0.132143
0.14641 0.146075 0.138979
0.153918 0.153628 0.145846
0.162554 0.162005 0.153689
0.171267 0.170565 0.161578
0.18027 0.179553 0.169726
0.189441 0.188846 0.177966
0.198856 0.198535 0.186587
0.208789 0.20882 0.196735
0.219348 0.219532 0.207172
0.230365 0.230503 0.21767
0.241871 0.241733 0.228244
0.253162 0.252995 0.239124
0.264408 0.264668 0.25095
0.276188 0.276585 0.262806
0.288518 0.288762 0.274708
0.301152 0.300969 0.286412
0.0641337 0.0639353 0.0607462
0.0686503 0.0685893 0.0650187
0.0737621 0.0737926 0.0698711
0.0789654 0.0790112 0.0747082
0.0841688 0.0841688 0.0794537
0.0895705 0.0894636 0.0842908
0.095201 0.0952468 0.090013
0.101122 0.101305 0.0960555
0.10721 0.107408 0.101991
0.113695 0.113756 0.108064
0.12047 0.120272 0.114168
0.127352 0.127077 0.120928
0.134279 0.133959 0.127596
0.141497 0.141161 0.134417
0.148898 0.148577 0.141268
0.156725 0.156344 0.148379
0.165331 0.164721 0.156207
0.174258 0.173526 0.164279
0.183307 0.18262 0.172457
0.192538 0.19202 0.180728
0.202182 0.201999 0.190021
0.212268 0.21236 0.200214
0.222965 0.223163 0.210666
0.23415 0.234211 0.22118
0.245808 0.245533 0.231785
0.256855 0.256855 0.243061
0.268269 0.268605 0.254902
0.280232 0.280613 0.266773
0.292744 0.292882 0.278676
0.305562 0.305165 0.290394
0.317586 0.317388 0.302831
0.329946 0.329854 0.315343
0.342733 0.342596 0.327886
0.0807202 0.080766 0.0763256
0.0859693 0.0859388 0.0810712
0.0914168 0.0912947 0.0860151
0.0971389 0.097261 0.0920272
0.103151 0.103365 0.0980697
0.109331 0.109499 0.104021
0.115923 0.115908 0.110094
0.122744 0.122515 0.116411
0.129686 0.129381 0.123201
0.136675 0.136339 0.12987
0.143954 0.143603 0.13669
0.1514 0.151095 0.143557
0.15964 0.159167 0.151034
0.168292 0.16762 0.158892
0.177249 0.176532 0.166995
0.186374 0.185718 0.175204
0.195651 0.195209 0.183505
0.205371 0.205295 0.193286
0.215778 0.21593 0.203677
0.226642 0.22681 0.21416
0.23798 0.237964 0.224704
0.249546 0.249149 0.235187
0.260594 0.260746 0.246998
0.27219 0.272587 0.258854
0.284337 0.284672 0.270741
0.297032 0.297017 0.282643
0.30959 0.309239 0.294514
0.32166 0.321508 0.307012
0.334157 0.334066 0.319524
0.347097 0.346914 0.332082
0.36025 0.359808 0.344427
0.373053 0.372854 0.357046
0.385382 0.385702 0.369726
0.0991073 0.0992752 0.0940414
0.105104 0.105318 0.0999771
0.111498 0.11162 0.106035
0.118181 0.11809 0.112123
0.125048 0.124788 0.118669
0.132036 0.131731 0.12546
0.139071 0.138735 0.132143
0.14641 0.146075 0.138979
0.153918 0.153628 0.145846
0.162554 0.162005 0.153689
0.171267 0.170565 0.161578
0.18027 0.179553 0.169726
0.189441 0.188846 0.177966
0.198856 0.198535 0.186587
0.208789 0.20882 0.196735
0.219348 0.219532 0.207172
0.230365 0.230503 0.21767
0.241871 0.241733 0.228244
0.253162 0.252995 0.239124
0.264408 0.264668 0.25095
0.276188 0.276585 0.262806
0.288518 0.288762 0.274708
0.301152 0.300969 0.286412
0.313558 0.313298 0.29868
0.32578 0.325673 0.311177
0.33843 0.338323 0.323705
0.351263 0.351019 0.336034
0.364813 0.364263 0.348623
0.377096 0.377111 0.361273
0.389593 0.390021 0.373953
0.402609 0.403067 0.386648
0.415885 0.416022 0.399145
0.429694 0.429282 0.411902
0.12047 0.120272 0.114168
0.127352 0.127077 0.120928
0.134279 0.133959 0.127596
0.141497 0.141161 0.134417
0.148898 0.148577 0.141268
0.156725 0.156344 0.148379
0.165331 0.164721 0.156207
0.174258 0.173526 0.164279
0.183307 0.18262 0.172457
0.192538 0.19202 0.180728
0.202182 0.201999 0.190021
0.212268 0.21236 0.200214
0.222965 0.223163 0.210666
0.23415 0.234211 0.22118
0.245808 0.245533 0.231785
0.256855 0.256855 0.243061
0.268269 0.268605 0.254902
0.280232 0.280613 0.266773
0.292744 0.292882 0.278676
0.305562 0.305165 0.290394
0.317586 0.317388 0.302831
0.329946 0.329854 0.315343
0.342733 0.342596 0.327886
0.355734 0.355398 0.34023
0.369055 0.368597 0.352834
0.381216 0.381399 0.365499
0.393881 0.394354 0.37818
0.406806 0.407202 0.390661
0.420523 0.420447 0.403388
0.433509 0.433478 0.41622
0.445396 0.446128 0.42916
0.457664 0.45864 0.441825
0.470787 0.471489 0.454704
0.143954 0.143603 0.13669
0.1514 0.151095 0.143557
0.15964 0.159167 0.151034
0.168292 0.16762 0.158892
0.177249 0.176532 0.166995
0.186374 0.185718 0.175204
0.195651 0.195209 0.183505
0.205371 0.205295 0.193286
0.215778 0.21593 0.203677
0.226642 0.22681 0.21416
0.23798 0.237964 0.224704
0.249546 0.249149 0.235187
0.260594 0.260746 0.246998
0.27219 0.272587 0.258854
0.284337 0.284672 0.270741
0.297032 0.297017 0.282643
0.30959 0.309239 0.294514
0.32166 0.321508 0.307012
0.334157 0.334066 0.319524
0.347097 0.346914 0.332082
0.36025 0.359808 0.344427
0.373053 0.372854 0.357046
0.385382 0.385702 0.369726
0.398215 0.398703 0.382422
0.411322 0.411597 0.394888
0.425208 0.424903 0.40763
0.4374 0.43769 0.420539
0.449485 0.450355 0.433463
0.461967 0.462913 0.446128
0.475303 0.475792 0.458991
0.489296 0.488792 0.471839
0.500847 0.501244 0.484627
0.512718 0.513558 0.497139
0.171267 0.170565 0.161578
0.18027 0.179553 0.169726
0.189441 0.188846 0.177966
0.198856 0.198535 0.186587
0.208789 0.20882 0.196735
0.219348 0.219532 0.207172
0.230365 0.230503 0.21767
0.241871 0.241733 0.228244
0.253162 0.252995 0.239124
0.264408 0.264668 0.25095
0.276188 0.276585 0.262806
0.288518 0.288762 0.274708
0.301152 0.300969 0.286412
0.313558 0.313298 0.29868
0.32578 0.325673 0.311177
0.33843 0.338323 0.323705
0.351263 0.351019 0.336034
0.364813 0.364263 0.348623
0.377096 0.377111 0.361273
0.389593 0.390021 0.373953
0.402609 0.403067 0.386648
0.415885 0.416022 0.399145
0.429694 0.429282 0.411902
0.441367 0.441901 0.424842
0.453666 0.454612 0.437766
0.466346 0.467185 0.450416
0.479896 0.48011 0.463279
0.49308 0.492943 0.476097
0.504814 0.505425 0.488884
0.516884 0.517754 0.501381
0.529747 0.530404 0.514076
0.543175 0.54313 0.526741
0.555688 0.555627 0.539345
0.202182 0.201999 0.190021
0.212268 0.21236 0.200214
0.222965 0.223163 0.210666
0.23415 0.234211 0.22118
0.245808 0.245533 0.231785
0.256855 0.256855 0.243061
0.268269 0.268605 0.254902
0.280232 0.280613 0.266773
0.292744 0.292882 0.278676
0.305562 0.305165 0.290394
0.317586 0.317388 0.302831
0.329946 0.329854 0.315343
0.342733 0.342596 0.327886
0.355734 0.355398 0.34023
0.369055 0.368597 0.352834
0.381216 0.381399 0.365499
0.393881 0.394354 0.37818
0.406806 0.407202 0.390661
0.420523 0.420447 0.403388
0.433509 0.433478 0.41622
0.445396 0.446128 0.42916
0.457664 0.45864 0.441825
0.470787 0.471489 0.454704
0.484565 0.484443 0.467552
0.496925 0.497093 0.480369
0.508858 0.509606 0.493126
0.521111 0.521965 0.505623
0.534157 0.53463 0.518303
0.547784 0.547402 0.530953
0.559609 0.559731 0.543526
0.57142 0.571878 0.55584
0.583902 0.584344 0.568338
0.596841 0.596887 0.580804
0.23798 0.237964 0.224704
0.249546 0.249149 0.235187
0.260594 0.260746 0.246998
0.27219 0.272587 0.258854
0.284337 0.284672 0.270741
0.297032 0.297017 0.282643
0.30959 0.309239 0.294514
0.32166 0.321508 0.307012
0.334157 0.334066 0.319524
0.347097 0.346914 0.332082
0.36025 0.359808 0.344427
0.373053 0.372854 0.357046
0.385382 0.385702 0.369726
0.398215 0.398703 0.382422
0.411322 0.411597 0.394888
0.425208 0.424903 0.40763
0.4374 0.43769 0.420539
0.449485 0.450355 0.433463
0.461967 0.462913 0.446128
0.475303 0.475792 0.458991
0.489296 0.488792 0.471839
0.500847 0.501244 0.484627
0.512718 0.513558 0.497139
0.525399 0.526177 0.50985
0.538643 0.538872 0.52253
0.551827 0.551537 0.535149
0.563561 0.563851 0.547707
0.575525 0.576013 0.560006
0.588159 0.58851 0.572488
0.601267 0.601099 0.584939
0.613733 0.613611 0.597345
0.625254 0.625742 0.609445
0.637461 0.638148 0.621729
0.276188 0.276585 0.262806
0.288518 0.288762 0.274708
0.301152 0.300969 0.286412
0.313558 0.313298 0.29868
0.32578 0.325673 0.311177
0.33843 0.338323 0.323705
0.351263 0.351019 0.336034
0.364813 0.364263 0.348623
0.377096 0.377111 0.361273
0.389593 0.390021 0.373953
0.402609 0.403067 0.386648
0.415885 0.416022 0.399145
0.429694 0.429282 0.411902
0.441367 0.441901 0.424842
0.453666 0.454612 0.437766
0.466346 0.467185 0.450416
0.479896 0.48011 0.463279
0.49308 0.492943 0.476097
0.504814 0.505425 0.488884
0.516884 0.517754 0.501381
0.529747 0.530404 0.514076
0.543175 0.54313 0.526741
0.555688 0.555627 0.539345
0.567361 0.567742 0.551659
0.57969 0.580179 0.564172
0.592477 0.592691 0.576654
0.605722 0.60531 0.58909
0.61738 0.617502 0.601221
0.629282 0.629877 0.61355
0.641642 0.642283 0.625818
0.654459 0.654734 0.638071
0.667613 0.66717 0.650278
0.678492 0.678996 0.662333
0.317586 0.317388 0.302831
0.329946 0.329854 0.315343
0.342733 0.342596 0.327886
0.355734 0.355398 0.34023
0.369055 0.368597 0.352834
0.381216 0.381399 0.365499
0.393881 0.394354 0.37818
0.406806 0.407202 0.390661
0.420523 0.420447 0.403388
0.433509 0.433478 0.41622
0.445396 0.446128 0.42916
0.457664 0.45864 0.441825
0.470787 0.471489 0.454704
0.484565 0.484443 0.467552
0.496925 0.497093 0.480369
0.508858 0.509606 0.493126
0.521111 0.521965 0.505623
0.534157 0.53463 0.518303
0.547784 0.547402 0.530953
0.559609 0.559731 0.543526
0.57142 0.571878 0.55584
0.583902 0.584344 0.568338
0.596841 0.596887 0.580804
0.609918 0.609491 0.593225
0.621302 0.621622 0.605341
0.633341 0.634012 0.617639
0.645853 0.646433 0.629908
0.658839 0.658885 0.642145
0.671046 0.67097 0.654154
0.682307 0.683009 0.666407
0.694087 0.695064 0.678614
0.706401 0.707118 0.690776
0.71899 0.718944 0.702647
0.36025 0.359808 0.344427
0.373053 0.372854 0.357046
0.385382 0.385702 0.369726
0.398215 0.398703 0.382422
0.411322 0.411597 0.394888
0.425208 0.424903 0.40763
0.4374 0.43769 0.420539
0.449485 0.450355 0.433463
0.461967 0.462913 0.446128
0.475303 0.475792 0.458991
0.489296 0.488792 0.471839
0.500847 0.501244 0.484627
0.512718 0.513558 0.497139
0.525399 0.526177 0.50985
0.538643 0.538872 0.52253
0.551827 0.551537 0.535149
0.563561 0.563851 0.547707
0.575525 0.576013 0.560006
0.588159 0.58851 0.572488
0.601267 0.601099 0.584939
0.613733 0.613611 0.597345
0.625254 0.625742 0.609445
0.637461 0.638148 0.621729
0.650141 0.650584 0.633997
0.663279 0.663035 0.64622
0.674754 0.674983 0.658244
0.686183 0.687022 0.670481
0.698131 0.699077 0.682673
0.710628 0.711131 0.694804
0.723384 0.722972 0.706661
0.734279 0.734707 0.718624
0.74551 0.746395 0.730526
0.757244 0.758099 0.742351
0.402609 0.403067 0.386648
0.415885 0.416022 0.399145
0.429694 0.429282 0.411902
0.441367 0.441901 0.424842
0.453666 0.454612 0.437766
0.466346 0.467185 0.450416
0.479896 0.48011 0.463279
0.49308 0.492943 0.476097
0.504814 0.505425 0.488884
0.516884 0.517754 0.501381
0.529747 0.530404 0.514076
0.543175 0.54313 0.526741
0.555688 0.555627 0.539345
0.567361 0.567742 0.551659
0.57969 0.580179 0.564172
0.592477 0.592691 0.576654
0.605722 0.60531 0.58909
0.61738 0.617502 0.601221
0.629282 0.629877 0.61355
0.641642 0.642283 0.625818
0.654459 0.654734 0.638071
0.667613 0.66717 0.650278
0.678492 0.678996 0.662333
0.690105 0.691051 0.674556
0.702235 0.70309 0.686732
0.7149 0.71516 0.698848
0.727077 0.726894 0.710658
0.737972 0.738598 0.722606
0.749371 0.750301 0.734478
0.761257 0.76199 0.746273
0.773419 0.773449 0.757794
0.784619 0.784817 0.769345
0.794812 0.79585 0.780667
0.445396 0.446128 0.42916
0.457664 0.45864 0.441825
0.470787 0.471489 0.454704
0.484565 0.484443 0.467552
0.496925 0.497093 0.480369
0.508858 0.509606 0.493126
0.521111 0.521965 0.505623
0.534157 0.53463 0.518303
0.547784 0.547402 0.530953
0.559609 0.559731 0.543526
0.57142 0.571878 0.55584
0.583902 0.584344 0.568338
0.596841 0.596887 0.580804
0.609918 0.609491 0.593225
0.621302 0.621622 0.605341
0.633341 0.634012 0.617639
0.645853 0.646433 0.629908
0.658839 0.658885 0.642145
0.671046 0.67097 0.654154
0.682307 0.683009 0.666407
0.694087 0.695064 0.678614
0.706401 0.707118 0.690776
0.71899 0.718944 0.702647
0.730648 0.7308 0.714641
0.741726 0.742504 0.726558
0.753277 0.754192 0.738415
0.765332 0.765881 0.750195
0.777646 0.77734 0.7617
0.787961 0.78851 0.773129
0.798337 0.799527 0.784421
0.809262 0.810483 0.795636
0.820508 0.82118 0.806561
0.83209 0.831876 0.817502
0.489296 0.488792 0.471839
0.500847 0.501244 0.484627
0.512718 0.513558 0.497139
0.525399 0.526177 0.50985
0.538643 0.538872 0.52253
0.551827 0.551537 0.535149
0.563561 0.563851 0.547707
0.575525 0.576013 0.560006
0.588159 0.58851 0.572488
0.601267 0.601099 0.584939
0.613733 0.613611 0.597345
0.625254 0.625742 0.609445
0.637461 0.638148 0.621729
0.650141 0.650584 0.633997
0.663279 0.663035 0.64622
0.674754 0.674983 0.658244
0.686183 0.687022 0.670481
0.698131 0.699077 0.682673
0.710628 0.711131 0.694804
0.723384 0.722972 0.706661
0.734279 0.734707 0.718624
0.74551 0.746395 0.730526
0.757244 0.758099 0.742351
0.769238 0.769558 0.753887
0.781338 0.781125 0.765545
0.791348 0.792187 0.776898
0.801907 0.803174 0.788174
0.812802 0.813916 0.799146
0.824445 0.824796 0.810254
0.834699 0.834943 0.820813
0.842863 0.844068 0.830655
0.851591 0.853086 0.840375
0.86067 0.86183 0.849805
0.529747 0.530404 0.514076
0.543175 0.54313 0.526741
0.555688 0.555627 0.539345
0.567361 0.567742 0.551659
0.57969 0.580179 0.564172
0.592477 0.592691 0.576654
0.605722 0.60531 0.58909
0.61738 0.617502 0.601221
0.629282 0.629877 0.61355
0.641642 0.642283 0.625818
0.654459 0.654734 0.638071
0.667613 0.66717 0.650278
0.678492 0.678996 0.662333
0.690105 0.691051 0.674556
0.702235 0.70309 0.686732
0.7149 0.71516 0.698848
0.727077 0.726894 0.710658
0.737972 0.738598 0.722606
0.749371 0.750301 0.734478
0.761257 0.76199 0.746273
0.773419 0.773449 0.757794
0.784619 0.784817 0.769345
0.794812 0.79585 0.780667
0.805554 0.806836 0.791913
0.816632 0.817548 0.802853
0.828458 0.828412 0.813931
0.837354 0.837995 0.824094
0.845716 0.847089 0.833906
0.854444 0.855909 0.843412
0.86389 0.864775 0.852995
0.873869 0.873533 0.86247
0.880369 0.880949 0.870359
0.887114 0.888121 0.877989
0.57142 0.571878 0.55584
0.583902 0.584344 0.568338
0.596841 0.596887 0.580804
0.609918 0.609491 0.593225
0.621302 0.621622 0.605341
0.633341 0.634012 0.617639
0.645853 0.646433 0.629908
0.658839 0.658885 0.642145
0.671046 0.67097 0.654154
0.682307 0.683009 0.666407
0.694087 0.695064 0.678614
0.706401 0.707118 0.690776
0.71899 0.718944 0.702647
0.730648 0.7308 0.714641
0.741726 0.742504 0.726558
0.753277 0.754192 0.738415
0.765332 0.765881 0.750195
0.777646 0.77734 0.7617
0.787961 0.78851 0.773129
0.798337 0.799527 0.784421
0.809262 0.810483 0.795636
0.820508 0.82118 0.806561
0.83209 0.831876 0.817502
0.840085 0.841047 0.827375
0.848615 0.850095 0.83714
0.857527 0.858869 0.846616
0.867155 0.867704 0.856168
0.87599 0.87602 0.86511
0.882612 0.883391 0.872969
0.889494 0.890547 0.880552
0.89688 0.897719 0.888182
0.904631 0.904799 0.89572
0.910933 0.911147 0.902449
0.613733 0.613611 0.597345
0.625254 0.625742 0.609445
0.637461 0.638148 0.621729
0.650141 0.650584 0.633997
0.663279 0.663035 0.64622
0.674754 0.674983 0.658244
0.686183 0.687022 0.670481
0.698131 0.699077 0.682673
0.710628 0.711131 0.694804
0.723384 0.722972 0.706661
0.734279 0.734707 0.718624
0.74551 0.746395 0.730526
0.757244 0.758099 0.742351
0.769238 0.769558 0.753887
0.781338 0.781125 0.765545
0.791348 0.792187 0.776898
0.801907 0.803174 0.788174
0.812802 0.813916 0.799146
0.824445 0.824796 0.810254
0.834699 0.834943 0.820813
0.842863 0.844068 0.830655
0.851591 0.853086 0.840375
0.86067 0.86183 0.849805
0.870481 0.870634 0.859327
0.878157 0.878492 0.867735
0.884916 0.885832 0.875547
0.891905 0.892943 0.883116
0.899413 0.900084 0.8907
0.907301 0.907134 0.898207
0.912657 0.9131 0.904509
0.917922 0.918761 0.910521
0.923598 0.924422 0.916548
0.929564 0.930007 0.922515
0.654459 0.654734 0.638071
0.667613 0.66717 0.650278
0.678492 0.678996 0.662333
0.690105 0.691051 0.674556
0.702235 0.70309 0.686732
0.7149 0.71516 0.698848
0.727077 0.726894 0.710658
0.737972 0.738598 0.722606
0.749371 0.750301 0.734478
0.761257 0.76199 0.746273
0.773419 0.773449 0.757794
0.784619 0.784817 0.769345
0.794812 0.79585 0.780667
0.805554 0.806836 0.791913
0.816632 0.817548 0.802853
0.828458 0.828412 0.813931
0.837354 0.837995 0.824094
0.845716 0.847089 0.833906
0.854444 0.855909 0.843412
0.86389 0.864775 0.852995
0.873869 0.873533 0.86247
0.880369 0.880949 0.870359
0.887114 0.888121 0.877989
0.894377 0.895338 0.885649
0.902007 0.902449 0.893217
0.909239 0.909194 0.900389
0.914412 0.915038 0.906554
0.919783 0.920653 0.912535
0.925551 0.926299 0.918547
0.931624 0.931838 0.924483
0.936645 0.936843 0.929839
0.940459 0.941222 0.934493
0.94464 0.945586 0.939162
0.694087 0.695064 0.678614
0.706401 0.707118 0.690776
0.71899 0.718944 0.702647
0.730648 0.7308 0.714641
0.741726 0.742504 0.726558
0.753277 0.754192 0.738415
0.765332 0.765881 0.750195
0.777646 0.77734 0.7617
0.787961 0.78851 0.773129
0.798337 0.799527 0.784421
0.809262 0.810483 0.795636
0.820508 0.82118 0.806561
0.83209 0.831876 0.817502
0.840085 0.841047 0.827375
0.848615 0.850095 0.83714
0.857527 0.858869 0.846616
0.867155 0.867704 0.856168
0.87599 0.87602 0.86511
0.882612 0.883391 0.872969
0.889494 0.890547 0.880552
0.89688 0.897719 0.888182
0.904631 0.904799 0.89572
0.910933 0.911147 0.902449
0.916106 0.916854 0.908476
0.921675 0.922545 0.914549
0.927535 0.928161 0.920531
0.933715 0.933654 0.926452
0.937835 0.938262 0.931334
0.941817 0.942687 0.936065
0.946105 0.947021 0.940703
0.950668 0.951247 0.945281
0.955398 0.955322 0.949737
0.957916 0.958434 0.953231
0.734279 0.734707 0.718624
0.74551 0.746395 0.730526
0.757244 0.758099 0.742351
0.769238 0.769558 0.753887
0.781338 0.781125 0.765545
0.791348 0.792187 0.776898
0.801907 0.803174 0.788174
0.812802 0.813916 0.799146
0.824445 0.824796 0.810254
0.834699 0.834943 0.820813
0.842863 0.844068 0.830655
0.851591 0.853086 0.840375
0.86067 0.86183 0.849805
0.870481 0.870634 0.859327
0.878157 0.878492 0.867735
0.884916 0.885832 0.875547
0.891905 0.892943 0.883116
0.899413 0.900084 0.8907
0.907301 0.907134 0.898207
0.912657 0.9131 0.904509
0.917922 0.918761 0.910521
