DIT_DOCS/ARRI_HDR_Lookfiles_3DLUTs_190319/3D_LUTs_for_monitor_grading_add_P3D65/ARRI_P3D65PQ-2K-100_65.cube
LUT_3D_SIZE 65
0.00000073 0.00000073 0.00000073
0.01700107 0.00000073 0.00056389
0.03200717 0.00000073 0.00119519
0.04651084 0.00000073 0.00192749
0.06068005 0.00000073 0.00275465
0.07464166 0.00000073 0.00367589
0.08845930 0.00000073 0.00469080
0.10217872 0.00000073 0.00580006
0.11581541 0.00000073 0.00700336
0.12938829 0.00000073 0.00830148
0.14291289 0.00000073 0.00969557
0.15640242 0.00000073 0.01118711
0.16986841 0.00000073 0.01277788
0.18332117 0.00000073 0.01446993
0.19677009 0.00000073 0.01626558
0.21022383 0.00000073 0.01816735
0.22368216 0.00000073 0.02017679
0.23715670 0.00000073 0.02229735
0.25067697 0.00000073 0.02453596
0.26427198 0.00000073 0.02690051
0.27797034 0.00000073 0.02939987
0.29180026 0.00000073 0.03204393
0.30578963 0.00000073 0.03484368
0.31996602 0.00000073 0.03781121
0.33435676 0.00000073 0.04095985
0.34898891 0.00000073 0.04430417
0.36388930 0.00000073 0.04786013
0.37908455 0.00000073 0.05164512
0.39459949 0.00000073 0.05567768
0.41024624 0.00000073 0.05991910
0.42588251 0.00000073 0.06433566
0.44150902 0.00000073 0.06893006
0.45712647 0.00000073 0.07370505
0.47273596 0.00000073 0.07866355
0.48833851 0.00000073 0.08380852
0.50393493 0.00000073 0.08914291
0.51952596 0.00000073 0.09466970
0.53511228 0.00000073 0.10039191
0.55069454 0.00000073 0.10631260
0.56627332 0.00000073 0.11243482
0.58184917 0.00000073 0.11876170
0.59742260 0.00000073 0.12529638
0.61299409 0.00000073 0.13204201
0.62856405 0.00000073 0.13900180
0.64413291 0.00000073 0.14617897
0.65970104 0.00000073 0.15357677
0.67526878 0.00000073 0.16119847
0.69083645 0.00000073 0.16904739
0.70640435 0.00000073 0.17712684
0.72197275 0.00000073 0.18544020
0.73754192 0.00000073 0.19399083
0.75311207 0.00000073 0.20278215
0.76868343 0.00000073 0.21181758
0.78425619 0.00000073 0.22110058
0.79983053 0.00000073 0.23063464
0.81540661 0.00000073 0.24042324
0.82742464 0.00000073 0.25046993
0.82742464 0.00000073 0.26077824
0.82742464 0.00000073 0.27134785
0.82742464 0.00000073 0.28214378
0.82742464 0.00000073 0.29315330
0.82742464 0.00000073 0.30437141
0.82742464 0.00000073 0.31579252
0.82742464 0.00000073 0.32741043
0.82742464 0.00000073 0.33921828
0.00000073 0.00603311 0.00000073
0.00144127 0.00154918 0.00000073
0.01790605 0.00000073 0.00059818
0.03303519 0.00000073 0.00124321
0.04761465 0.00000073 0.00198800
0.06187658 0.00000073 0.00282949
0.07595557 0.00000073 0.00376798
0.08990853 0.00000073 0.00480318
0.10377161 0.00000073 0.00593542
0.11757054 0.00000073 0.00716556
0.13132502 0.00000073 0.00849493
0.14505100 0.00000073 0.00992522
0.15876077 0.00000073 0.01145833
0.17245571 0.00000073 0.01309528
0.18616148 0.00000073 0.01484045
0.19990990 0.00000073 0.01669992
0.21373185 0.00000073 0.01868076
0.22765739 0.00000073 0.02079101
0.24171596 0.00000073 0.02303976
0.25593645 0.00000073 0.02543713
0.27034727 0.00000073 0.02799442
0.28497646 0.00000073 0.03072406
0.29985166 0.00000073 0.03363979
0.31500022 0.00000073 0.03675667
0.33044918 0.00000073 0.04009119
0.34618730 0.00000073 0.04365258
0.36196103 0.00000073 0.04739132
0.37771962 0.00000073 0.05129851
0.39346415 0.00000073 0.05537677
0.40919559 0.00000073 0.05962875
0.42491483 0.00000073 0.06405711
0.44062266 0.00000073 0.06866458
0.45631978 0.00000073 0.07345388
0.47200694 0.00000073 0.07842779
0.48768534 0.00000073 0.08358932
0.50335588 0.00000073 0.08894140
0.51901934 0.00000073 0.09448703
0.53467643 0.00000073 0.10022919
0.55032782 0.00000073 0.10617094
0.56597414 0.00000073 0.11231532
0.58161596 0.00000073 0.11866544
0.59725381 0.00000073 0.12522442
0.61288819 0.00000073 0.13199541
0.62851955 0.00000073 0.13898160
0.64414833 0.00000073 0.14618618
0.65977491 0.00000073 0.15361240
0.67539966 0.00000073 0.16126351
0.69102292 0.00000073 0.16914279
0.70664500 0.00000073 0.17725356
0.72226620 0.00000073 0.18559916
0.73788677 0.00000073 0.19418293
0.75350698 0.00000073 0.20300827
0.76912704 0.00000073 0.21207858
0.78474716 0.00000073 0.22139730
0.80036754 0.00000073 0.23096787
0.81598834 0.00000073 0.24079378
0.82742464 0.00000073 0.25087841
0.82742464 0.00000073 0.26119921
0.82742464 0.00000073 0.27173418
0.82742464 0.00000073 0.28247893
0.82742464 0.00000073 0.29342848
0.82742464 0.00000073 0.30457730
0.82742464 0.00000073 0.31591919
0.82742464 0.00000073 0.32744738
0.82742464 0.00000073 0.33915440
0.00000073 0.01147806 0.00000073
0.00000073 0.00738552 0.00000073
0.00290381 0.00311797 0.00000073
0.01916687 0.00000073 0.00064677
0.03438510 0.00000073 0.00130718
0.04913067 0.00000073 0.00207219
0.06359940 0.00000073 0.00293860
0.07789486 0.00000073 0.00390561
0.09207665 0.00000073 0.00497343
0.10617869 0.00000073 0.00614258
0.12022415 0.00000073 0.00741399
0.13425520 0.00000073 0.00879154
0.14831108 0.00000073 0.01028027
0.16242796 0.00000073 0.01188627
0.17663986 0.00000073 0.01361665
0.19097923 0.00000073 0.01547956
0.20547729 0.00000073 0.01748426
0.22016431 0.00000073 0.01964113
0.23506981 0.00000073 0.02196174
0.25022266 0.00000073 0.02445892
0.26565118 0.00000073 0.02714682
0.28138327 0.00000073 0.03004103
0.29732202 0.00000073 0.03313388
0.31324301 0.00000073 0.03638741
0.32914243 0.00000073 0.03980299
0.34502193 0.00000073 0.04338312
0.36088300 0.00000073 0.04713035
0.37672693 0.00000073 0.05104726
0.39255491 0.00000073 0.05513646
0.40836798 0.00000073 0.05940060
0.42416708 0.00000073 0.06384235
0.43995306 0.00000073 0.06846441
0.45572668 0.00000073 0.07326952
0.47148863 0.00000073 0.07826042
0.48723981 0.00000073 0.08343999
0.50298137 0.00000073 0.08881122
0.51871413 0.00000073 0.09437708
0.53443886 0.00000073 0.10014057
0.55015624 0.00000073 0.10610470
0.56586694 0.00000073 0.11227252
0.58157156 0.00000073 0.11864712
0.59727065 0.00000073 0.12523160
0.61296473 0.00000073 0.13202909
0.62865429 0.00000073 0.13904277
0.64433977 0.00000073 0.14627581
0.66002159 0.00000073 0.15373143
0.67570014 0.00000073 0.16141288
0.69137576 0.00000073 0.16932341
0.70704880 0.00000073 0.17746631
0.72271955 0.00000073 0.18584490
0.73838830 0.00000073 0.19446251
0.75405531 0.00000073 0.20332251
0.76972082 0.00000073 0.21242826
0.78538506 0.00000073 0.22178319
0.80104822 0.00000073 0.23139070
0.81669289 0.00000073 0.24124302
0.82742464 0.00000073 0.25131106
0.82742464 0.00000073 0.26158958
0.82742464 0.00000073 0.27207421
0.82742464 0.00000073 0.28276001
0.82742464 0.00000073 0.29364147
0.82742464 0.00000073 0.30471246
0.82742464 0.00000073 0.31596623
0.82742464 0.00000073 0.32739539
0.82742464 0.00000073 0.33899189
0.00000073 0.01703020 0.00000073
0.00000073 0.01319938 0.00000073
0.00000073 0.00928720 0.00000073
0.00494666 0.00530273 0.00000073
0.02126539 0.00000073 0.00059585
0.03660036 0.00000073 0.00141439
0.05156332 0.00000073 0.00220990
0.06629426 0.00000073 0.00311248
0.08089680 0.00000073 0.00412263
0.09544773 0.00000073 0.00524317
0.11000710 0.00000073 0.00647852
0.12462460 0.00000073 0.00783441
0.13934333 0.00000073 0.00931782
0.15420203 0.00000073 0.01093688
0.16923643 0.00000073 0.01270093
0.18448009 0.00000073 0.01462055
0.19996497 0.00000073 0.01670759
0.21572181 0.00000073 0.01897523
0.23177404 0.00000073 0.02143710
0.24790664 0.00000073 0.02406814
0.26400495 0.00000073 0.02685296
0.28007210 0.00000073 0.02979384
0.29611079 0.00000073 0.03289311
0.31212337 0.00000073 0.03615318
0.32811191 0.00000073 0.03957651
0.34407821 0.00000073 0.04316559
0.36002388 0.00000073 0.04692295
0.37595034 0.00000073 0.05085118
0.39185887 0.00000073 0.05495289
0.40775059 0.00000073 0.05923072
0.42362652 0.00000073 0.06368735
0.43948757 0.00000073 0.06832546
0.45533456 0.00000073 0.07314779
0.47116824 0.00000073 0.07815707
0.48698928 0.00000073 0.08335608
0.50279881 0.00000073 0.08874780
0.51859780 0.00000073 0.09433520
0.53438707 0.00000073 0.10012125
0.55016734 0.00000073 0.10610898
0.56593929 0.00000073 0.11230141
0.58170357 0.00000073 0.11870160
0.59746074 0.00000073 0.12531264
0.61321137 0.00000073 0.13213765
0.62895596 0.00000073 0.13917978
0.64469497 0.00000073 0.14644219
0.66042885 0.00000073 0.15392807
0.67615799 0.00000073 0.16164065
0.69188278 0.00000073 0.16958316
0.70760356 0.00000073 0.17775886
0.72332066 0.00000073 0.18617106
0.73903437 0.00000073 0.19482305
0.75474496 0.00000073 0.20371816
0.77045271 0.00000073 0.21285977
0.78615289 0.00000073 0.22224823
0.80179814 0.00000073 0.23185710
0.81737225 0.00000073 0.24167670
0.82742464 0.00000073 0.25170324
0.82742464 0.00000073 0.26193236
0.82742464 0.00000073 0.27235915
0.82742464 0.00000073 0.28297815
0.82742464 0.00000073 0.29378327
0.82742464 0.00000073 0.30476782
0.82742464 0.00000073 0.31592448
0.82742464 0.00000073 0.32724526
0.82742464 0.00000073 0.33872153
0.00000073 0.02293388 0.00000073
0.00000073 0.01936174 0.00000073
0.00000073 0.01576678 0.00000073
0.00000073 0.01214730 0.00000073
0.00795222 0.00850677 0.00000073
0.02451978 0.00443251 0.00000073
0.04020182 0.00000073 0.00148887
0.05562059 0.00000073 0.00244677
0.07095139 0.00000073 0.00342219
0.08628522 0.00000073 0.00452431
0.10168901 0.00000073 0.00575871
0.11721827 0.00000073 0.00713288
0.13292049 0.00000073 0.00865585
0.14883752 0.00000073 0.01033816
0.16500732 0.00000073 0.01219182
0.18140861 0.00000073 0.01422306
0.19778646 0.00000073 0.01640554
0.21411124 0.00000073 0.01873672
0.23038884 0.00000073 0.02121856
0.24662418 0.00000073 0.02385317
0.26282139 0.00000073 0.02664274
0.27898398 0.00000073 0.02958952
0.29511498 0.00000073 0.03269587
0.31121700 0.00000073 0.03596418
0.32729232 0.00000073 0.03939690
0.34334294 0.00000073 0.04299652
0.35937060 0.00000073 0.04676558
0.37537688 0.00000073 0.05070666
0.39136314 0.00000073 0.05482237
0.40733062 0.00000073 0.05911533
0.42328043 0.00000073 0.06358822
0.43921354 0.00000073 0.06824374
0.45513085 0.00000073 0.07308459
0.47103314 0.00000073 0.07811351
0.48692114 0.00000073 0.08333327
0.50279565 0.00000073 0.08874670
0.51865784 0.00000073 0.09435681
0.53450859 0.00000073 0.10016658
0.55034866 0.00000073 0.10617898
0.56617878 0.00000073 0.11239705
0.58199960 0.00000073 0.11882382
0.59781175 0.00000073 0.12546237
0.61361580 0.00000073 0.13231578
0.62941227 0.00000073 0.13938718
0.64520166 0.00000073 0.14667973
0.66098443 0.00000073 0.15419658
0.67676101 0.00000073 0.16194093
0.69253178 0.00000073 0.16991600
0.70829713 0.00000073 0.17812503
0.72405738 0.00000073 0.18657127
0.73981286 0.00000073 0.19525802
0.75556372 0.00000073 0.20418850
0.77127647 0.00000073 0.21334609
0.78692132 0.00000073 0.22271425
0.80249289 0.00000073 0.23228971
0.81798561 0.00000073 0.24206867
0.82742464 0.00000073 0.25204684
0.82742464 0.00000073 0.26221932
0.82742464 0.00000073 0.27258070
0.82742464 0.00000073 0.28312494
0.82742464 0.00000073 0.29384541
0.82742464 0.00000073 0.30473485
0.82742464 0.00000073 0.31578537
0.82742464 0.00000073 0.32698839
0.82742464 0.00000073 0.33833469
0.00000073 0.02939939 0.00000073
0.00000073 0.02611565 0.00000073
0.00000073 0.02289187 0.00000073
0.00000073 0.01975453 0.00000073
0.00000073 0.01674475 0.00000073
0.01296793 0.01383382 0.00000073
0.03030867 0.01084539 0.00000073
0.04688689 0.00741750 0.00000073
0.06332060 0.00143470 0.00208533
0.07977793 0.00000073 0.00366282
0.09635269 0.00000073 0.00512792
0.11311257 0.00000073 0.00665197
0.12995329 0.00000073 0.00829387
0.14668705 0.00000073 0.01006443
0.16332947 0.00000073 0.01197048
0.17989368 0.00000073 0.01401685
0.19639007 0.00000073 0.01620732
0.21282699 0.00000073 0.01854507
0.22921124 0.00000073 0.02103296
0.24554843 0.00000073 0.02367361
0.26184326 0.00000073 0.02646966
0.27809973 0.00000073 0.02942404
0.29432122 0.00000073 0.03253911
0.31051064 0.00000073 0.03581726
0.32667052 0.00000073 0.03926093
0.34280306 0.00000073 0.04287262
0.35891020 0.00000073 0.04665485
0.37499366 0.00000073 0.05061022
0.39105493 0.00000073 0.05474130
0.40709536 0.00000073 0.05905074
0.42311616 0.00000073 0.06354121
0.43911838 0.00000073 0.06821537
0.45510300 0.00000073 0.07307595
0.47107087 0.00000073 0.07812568
0.48702276 0.00000073 0.08336729
0.50295938 0.00000073 0.08880358
0.51888176 0.00000073 0.09443746
0.53479096 0.00000073 0.10027194
0.55068780 0.00000073 0.10630999
0.56657302 0.00000073 0.11255461
0.58244731 0.00000073 0.11900881
0.59831134 0.00000073 0.12567565
0.61416570 0.00000073 0.13255820
0.63001094 0.00000073 0.13965953
0.64584758 0.00000073 0.14698277
0.66167611 0.00000073 0.15453109
0.67749698 0.00000073 0.16230764
0.69331059 0.00000073 0.17031564
0.70911734 0.00000073 0.17855828
0.72491759 0.00000073 0.18703880
0.74069650 0.00000073 0.19575198
0.75641248 0.00000073 0.20467622
0.77205839 0.00000073 0.21380771
0.78762889 0.00000073 0.22314319
0.80311844 0.00000073 0.23267889
0.81852135 0.00000073 0.24241053
0.82742464 0.00000073 0.25233329
0.82742464 0.00000073 0.26244176
0.82742464 0.00000073 0.27272999
0.82742464 0.00000073 0.28319140
0.82742464 0.00000073 0.29381880
0.82742464 0.00000073 0.30460437
0.82742464 0.00000073 0.31553964
0.82742464 0.00000073 0.32661547
0.82742464 0.00000073 0.33782205
0.00000073 0.03686424 0.00000073
0.00000073 0.03413303 0.00000073
0.00000073 0.03157361 0.00000073
0.00000073 0.02921221 0.00000073
0.00000073 0.02708187 0.00000073
0.00000073 0.02521393 0.00000073
0.02216197 0.02355310 0.00000073
0.04081890 0.02206322 0.00000073
0.05883543 0.02067211 0.00000073
0.07651349 0.01899593 0.00000073
0.09391280 0.01669947 0.00000073
0.11110643 0.01329127 0.00297295
0.12813889 0.00712721 0.00565881
0.14504072 0.00000073 0.00800835
0.16183417 0.00000073 0.01030321
0.17853604 0.00000073 0.01263272
0.19515934 0.00000073 0.01503929
0.21171437 0.00000073 0.01754737
0.22820939 0.00000073 0.02017282
0.24465114 0.00000073 0.02292686
0.26104521 0.00000073 0.02581799
0.27739625 0.00000073 0.02885298
0.29370821 0.00000073 0.03203748
0.30998445 0.00000073 0.03537637
0.32622785 0.00000073 0.03887399
0.34244092 0.00000073 0.04253432
0.35862583 0.00000073 0.04636103
0.37478451 0.00000073 0.05035761
0.39091862 0.00000073 0.05452739
0.40702967 0.00000073 0.05887359
0.42311898 0.00000073 0.06339934
0.43918771 0.00000073 0.06810771
0.45523693 0.00000073 0.07300174
0.47126757 0.00000073 0.07808440
0.48728049 0.00000073 0.08335866
0.50327644 0.00000073 0.08882747
0.51925621 0.00000073 0.09449379
0.53522097 0.00000073 0.10036076
0.55117164 0.00000073 0.10643145
0.56710901 0.00000073 0.11270894
0.58303380 0.00000073 0.11919630
0.59894670 0.00000073 0.12589662
0.61484834 0.00000073 0.13281303
0.63073931 0.00000073 0.13994863
0.64662015 0.00000073 0.14730656
0.66249137 0.00000073 0.15488999
0.67835344 0.00000073 0.16270208
0.69420679 0.00000073 0.17074603
0.71004762 0.00000073 0.17902279
0.72583555 0.00000073 0.18751315
0.74155643 0.00000073 0.19621008
0.75720508 0.00000073 0.20511086
0.77277619 0.00000073 0.21421228
0.78826425 0.00000073 0.22351062
0.80366361 0.00000073 0.23300164
0.81896843 0.00000073 0.24268057
0.82742464 0.00000073 0.25254209
0.82742464 0.00000073 0.26258029
0.82742464 0.00000073 0.27278867
0.82742464 0.00000073 0.28316014
0.82742464 0.00000073 0.29368695
0.82742464 0.00000073 0.30436073
0.82742464 0.00000073 0.31517246
0.82742464 0.00000073 0.32611242
0.82742464 0.00000073 0.33717023
0.00000073 0.04635472 0.00000073
0.00000073 0.04448555 0.00000073
0.00000073 0.04289337 0.00000073
0.00000073 0.04160451 0.00000073
0.00000073 0.04064854 0.00000073
0.00000073 0.03997887 0.00000073
0.01358804 0.03928834 0.00000073
0.03639815 0.03852289 0.00000073
0.05557946 0.03765606 0.00000073
0.07382784 0.03664664 0.00000073
0.09161083 0.03543452 0.00000073
0.10909585 0.03393353 0.00000073
0.12636515 0.03201742 0.00000073
0.14346759 0.02948940 0.00000073
0.16043572 0.02600597 0.00392758
0.17729279 0.02083207 0.00811489
0.19405613 0.01139320 0.01148555
0.21073911 0.00000073 0.01463352
0.22735223 0.00000073 0.01772722
0.24390393 0.00000073 0.02084325
0.26040107 0.00000073 0.02402446
0.27684932 0.00000073 0.02729800
0.29325339 0.00000073 0.03068261
0.30961729 0.00000073 0.03419211
0.32594440 0.00000073 0.03783720
0.34223764 0.00000073 0.04162653
0.35849953 0.00000073 0.04556732
0.37473226 0.00000073 0.04966581
0.39093773 0.00000073 0.05392748
0.40711765 0.00000073 0.05835727
0.42327349 0.00000073 0.06295971
0.43940658 0.00000073 0.06773902
0.45551808 0.00000073 0.07269914
0.47160905 0.00000073 0.07784385
0.48768042 0.00000073 0.08317676
0.50373303 0.00000073 0.08870137
0.51976764 0.00000073 0.09442106
0.53578526 0.00000073 0.10033928
0.55178700 0.00000073 0.10645949
0.56777370 0.00000073 0.11278502
0.58374614 0.00000073 0.11931919
0.59970503 0.00000073 0.12606530
0.61565103 0.00000073 0.13302662
0.63158478 0.00000073 0.14020641
0.64750683 0.00000073 0.14760795
0.66341774 0.00000073 0.15523448
0.67931788 0.00000073 0.16308920
0.69517912 0.00000073 0.17116057
0.71097605 0.00000073 0.17943675
0.72670372 0.00000073 0.18791560
0.74235701 0.00000073 0.19659447
0.75793063 0.00000073 0.20547027
0.77341911 0.00000073 0.21453937
0.78881682 0.00000073 0.22379764
0.80411797 0.00000073 0.23324041
0.81931657 0.00000073 0.24286246
0.82742464 0.00000073 0.25265797
0.82742464 0.00000073 0.26262057
0.82742464 0.00000073 0.27274325
0.82742464 0.00000073 0.28301839
0.82742464 0.00000073 0.29343775
0.82742464 0.00000073 0.30399242
0.82742464 0.00000073 0.31467283
0.82742464 0.00000073 0.32546873
0.82742464 0.00000073 0.33636919
0.00000073 0.05892349 0.00000073
0.00000073 0.05822198 0.00000073
0.00000073 0.05770179 0.00000073
0.00000073 0.05717938 0.00000073
0.00000073 0.05665391 0.00000073
0.00000073 0.05612718 0.00000073
0.00000073 0.05557647 0.00000073
0.02994943 0.05498194 0.00000073
0.05150367 0.05433169 0.00000073
0.07074795 0.05360724 0.00000073
0.08911288 0.05278191 0.00000073
0.10699875 0.05181854 0.00000073
0.12457242 0.05066686 0.00000073
0.14192052 0.04925922 0.00000073
0.15909502 0.04750297 0.00000073
0.17613036 0.04526630 0.00000073
0.19305091 0.04234964 0.00000073
0.20987475 0.03842089 0.00658298
0.22661572 0.03283627 0.01191899
0.24328467 0.02391546 0.01624882
0.25989028 0.00000073 0.02024484
0.27643963 0.00000073 0.02411904
0.29293852 0.00000073 0.02797116
0.30939180 0.00000073 0.03185785
0.32580355 0.00000073 0.03581520
0.34217724 0.00000073 0.03986818
0.35851583 0.00000073 0.04403510
0.37482189 0.00000073 0.04833006
0.39109764 0.00000073 0.05276435
0.40734501 0.00000073 0.05734728
0.42356571 0.00000073 0.06208678
0.43976124 0.00000073 0.06698974
0.45593294 0.00000073 0.07206225
0.47208197 0.00000073 0.07730982
0.48820939 0.00000073 0.08273750
0.50431614 0.00000073 0.08834995
0.52040305 0.00000073 0.09415156
0.53647097 0.00000073 0.10014651
0.55252111 0.00000073 0.10633897
0.56855442 0.00000073 0.11273289
0.58457172 0.00000073 0.11933210
0.60057377 0.00000073 0.12614032
0.61656127 0.00000073 0.13316119
0.63253490 0.00000073 0.14039831
0.64849524 0.00000073 0.14785520
0.66443019 0.00000073 0.15552912
0.68030489 0.00000073 0.16340502
0.69611300 0.00000073 0.17148069
0.71184963 0.00000073 0.17975419
0.72750969 0.00000073 0.18822313
0.74308795 0.00000073 0.19688458
0.75857897 0.00000073 0.20573512
0.77397716 0.00000073 0.21477079
0.78927674 0.00000073 0.22398709
0.80447178 0.00000073 0.23337897
0.81955617 0.00000073 0.24294077
0.82742464 0.00000073 0.25266627
0.82742464 0.00000073 0.26254862
0.82742464 0.00000073 0.27258037
0.82742464 0.00000073 0.28275341
0.82742464 0.00000073 0.29305901
0.82742464 0.00000073 0.30348776
0.82742464 0.00000073 0.31402957
0.82742464 0.00000073 0.32467370
0.82742464 0.00000073 0.33540869
0.00000073 0.07448516 0.00000073
0.00000073 0.07405995 0.00000073
0.00000073 0.07363787 0.00000073
0.00000073 0.07321678 0.00000073
0.00000073 0.07279550 0.00000073
0.00000073 0.07237451 0.00000073
0.00000073 0.07194041 0.00000073
0.01753727 0.07147784 0.00000073
0.04586864 0.07098016 0.00000073
0.06695066 0.07043741 0.00000073
0.08623927 0.06983549 0.00000073
0.10470138 0.06915474 0.00000073
0.12268163 0.06836866 0.00000073
0.14034029 0.06744239 0.00000073
0.15776507 0.06633078 0.00000073
0.17500976 0.06497509 0.00000073
0.19211024 0.06329767 0.00000073
0.20909188 0.06119274 0.00000073
0.22597346 0.05850975 0.00000073
0.24276933 0.05502070 0.00000073
0.25949072 0.05034776 0.01153094
0.27614661 0.04376914 0.01759756
0.29274427 0.03348669 0.02275078
0.30928971 0.00810517 0.02754012
0.32578791 0.00000073 0.03217490
0.34224306 0.00000073 0.03676140
0.35865872 0.00000073 0.04136258
0.37503792 0.00000073 0.04601959
0.39138330 0.00000073 0.05076136
0.40769711 0.00000073 0.05560932
0.42398134 0.00000073 0.06058003
0.44023771 0.00000073 0.06568679
0.45646775 0.00000073 0.07094057
0.47267281 0.00000073 0.07635066
0.48885408 0.00000073 0.08192508
0.50501261 0.00000073 0.08767093
0.52114936 0.00000073 0.09359453
0.53726516 0.00000073 0.09970166
0.55336114 0.00000073 0.10599774
0.56943842 0.00000073 0.11248792
0.58549789 0.00000073 0.11917694
0.60154035 0.00000073 0.12606935
0.61756656 0.00000073 0.13316948
0.63357374 0.00000073 0.14047985
0.64952868 0.00000073 0.14798797
0.66541936 0.00000073 0.15568995
0.68124114 0.00000073 0.16358486
0.69698917 0.00000073 0.17167121
0.71265843 0.00000073 0.17994701
0.72824371 0.00000073 0.18840971
0.74373963 0.00000073 0.19705622
0.75914064 0.00000073 0.20588289
0.77444101 0.00000073 0.21488551
0.78963482 0.00000073 0.22405928
0.80471602 0.00000073 0.23339882
0.81967835 0.00000073 0.24289812
0.82742464 0.00000073 0.25255058
0.82742464 0.00000073 0.26234896
0.82742464 0.00000073 0.27228538
0.82742464 0.00000073 0.28235130
0.82742464 0.00000073 0.29253754
0.82742464 0.00000073 0.30283422
0.82742464 0.00000073 0.31323079
0.82742464 0.00000073 0.32371602
0.82742464 0.00000073 0.33427798
0.00000073 0.09038778 0.00000073
0.00000073 0.09005079 0.00000073
0.00000073 0.08971867 0.00000073
0.00000073 0.08938962 0.00000073
0.00000073 0.08906244 0.00000073
0.00000073 0.08873692 0.00000073
0.00000073 0.08840441 0.00000073
0.00000073 0.08805271 0.00000073
0.03701582 0.08767731 0.00000073
0.06189686 0.08727197 0.00000073
0.08271986 0.08682829 0.00000073
0.10204247 0.08633477 0.00000073
0.12058610 0.08577580 0.00000073
0.13865084 0.08513084 0.00000073
0.15638819 0.08437343 0.00000073
0.17388502 0.08347001 0.00000073
0.19119594 0.08237811 0.00000073
0.20835778 0.08104360 0.00000073
0.22539672 0.07939628 0.00000073
0.24233217 0.07734285 0.00000073
0.25917894 0.07475478 0.00000073
0.27594862 0.07144642 0.00000073
0.29265050 0.06713138 0.01015548
0.30929207 0.06132360 0.01884088
0.32587952 0.05306184 0.02543074
0.34241798 0.03979132 0.03128551
0.35891177 0.00000073 0.03680295
0.37536455 0.00000073 0.04216400
0.39177943 0.00000073 0.04746895
0.40815911 0.00000073 0.05278044
0.42450590 0.00000073 0.05814091
0.44082183 0.00000073 0.06358088
0.45710867 0.00000073 0.06912336
0.47336796 0.00000073 0.07478637
0.48960108 0.00000073 0.08058449
0.50580924 0.00000073 0.08652979
0.52199351 0.00000073 0.09263254
0.53815485 0.00000073 0.09890160
0.55429424 0.00000073 0.10534486
0.57041296 0.00000073 0.11196952
0.58651198 0.00000073 0.11878208
0.60259210 0.00000073 0.12578842
0.61863074 0.00000073 0.13298317
0.63460705 0.00000073 0.14036029
0.65051664 0.00000073 0.14792044
0.66635492 0.00000073 0.15566365
0.68211712 0.00000073 0.16358927
0.69779828 0.00000073 0.17169603
0.71339325 0.00000073 0.17998205
0.72889671 0.00000073 0.18844482
0.74430315 0.00000073 0.19708122
0.75960688 0.00000073 0.20588750
0.77480204 0.00000073 0.21485932
0.78988260 0.00000073 0.22399166
0.80484235 0.00000073 0.23327892
0.81967490 0.00000073 0.24271483
0.82742464 0.00000073 0.25229247
0.82742464 0.00000073 0.26200427
0.82742464 0.00000073 0.27184198
0.82742464 0.00000073 0.28179671
0.82742464 0.00000073 0.29185885
0.82742464 0.00000073 0.30201813
0.82742464 0.00000073 0.31226357
0.82742464 0.00000073 0.32258351
0.82742464 0.00000073 0.33296558
0.00000073 0.10644947 0.00000073
0.00000073 0.10619445 0.00000073
0.00000073 0.10594536 0.00000073
0.00000073 0.10570067 0.00000073
0.00000073 0.10545923 0.00000073
0.00000073 0.10522054 0.00000073
0.00000073 0.10497853 0.00000073
0.00000073 0.10472346 0.00000073
0.01799978 0.10445188 0.00000073
0.05456974 0.10415934 0.00000073
0.07813270 0.10384029 0.00000073
