DIT_DOCS/ARRI_HDR_Lookfiles_3DLUTs_190319/3D_LUTs_for_monitor_grading_add_P3D65/ARRI_P3D65HLG-1K-200_65.cube
LUT_3D_SIZE 65
0.00000000 0.00000000 0.00000000
0.01318661 0.00000000 0.00066075
0.02246312 0.00000000 0.00112557
0.03150035 0.00000000 0.00157840
0.04062083 0.00000000 0.00203540
0.04998430 0.00000000 0.00250458
0.05967542 0.00000000 0.00299018
0.06975588 0.00000000 0.00349529
0.08026141 0.00000000 0.00402169
0.09122857 0.00000000 0.00457123
0.10269162 0.00000000 0.00514561
0.11468409 0.00000000 0.00574652
0.12723984 0.00000000 0.00637566
0.14039367 0.00000000 0.00703476
0.15418189 0.00000000 0.00772566
0.16864269 0.00000000 0.00845025
0.18380690 0.00000000 0.00921009
0.19972100 0.00000000 0.01000750
0.21645825 0.00000000 0.01084616
0.23410028 0.00000000 0.01173016
0.25273800 0.00000000 0.01266405
0.27247278 0.00000000 0.01365291
0.29341766 0.00000000 0.01470240
0.31569883 0.00000000 0.01581885
0.33945735 0.00000000 0.01700933
0.36485103 0.00000000 0.01828174
0.39205678 0.00000000 0.01964495
0.42127318 0.00000000 0.02110891
0.45272052 0.00000000 0.02268465
0.48620872 0.00000000 0.02436266
0.52078619 0.00000000 0.02613487
0.55353239 0.00000000 0.02800676
0.58453952 0.00000000 0.02998420
0.61413687 0.00000000 0.03207349
0.64257349 0.00000000 0.03428137
0.67004223 0.00000000 0.03661504
0.69669571 0.00000000 0.03908216
0.72265689 0.00000000 0.04169096
0.74802639 0.00000000 0.04445023
0.77288771 0.00000000 0.04736941
0.79731100 0.00000000 0.05045860
0.82135587 0.00000000 0.05372865
0.84507351 0.00000000 0.05719119
0.86850829 0.00000000 0.06085873
0.89169903 0.00000000 0.06474471
0.91467999 0.00000000 0.06886361
0.93748164 0.00000000 0.07323100
0.96013130 0.00000000 0.07786367
0.98265366 0.00000000 0.08277971
1.00000000 0.00000000 0.08799869
1.00000000 0.00000000 0.09354170
1.00000000 0.00000000 0.09992262
1.00000000 0.00000000 0.10751938
1.00000000 0.00000000 0.11569854
1.00000000 0.00000000 0.12450936
1.00000000 0.00000000 0.13400586
1.00000000 0.00000000 0.14424731
1.00000000 0.00000000 0.15529881
1.00000000 0.00000000 0.16722760
1.00000000 0.00000000 0.18006619
1.00000000 0.00000000 0.19387286
1.00000000 0.00000000 0.20871934
1.00000000 0.00000000 0.22468215
1.00000000 0.00000000 0.24184278
1.00000000 0.00000000 0.26028791
0.00000000 0.00547701 0.00000000
0.00188852 0.00200784 0.00000000
0.01375384 0.00000000 0.00068917
0.02309718 0.00000000 0.00115734
0.03219885 0.00000000 0.00161340
0.04140768 0.00000000 0.00207483
0.05088694 0.00000000 0.00254981
0.06071806 0.00000000 0.00304242
0.07095743 0.00000000 0.00355549
0.08165029 0.00000000 0.00409128
0.09283668 0.00000000 0.00465181
0.10455450 0.00000000 0.00523896
0.11684010 0.00000000 0.00585456
0.12972140 0.00000000 0.00650000
0.14325152 0.00000000 0.00717796
0.15749589 0.00000000 0.00789171
0.17252678 0.00000000 0.00864487
0.18842426 0.00000000 0.00944145
0.20527727 0.00000000 0.01028591
0.22318479 0.00000000 0.01118321
0.24225715 0.00000000 0.01213888
0.26261754 0.00000000 0.01315909
0.28440368 0.00000000 0.01425073
0.30776988 0.00000000 0.01542155
0.33288928 0.00000000 0.01668022
0.35989374 0.00000000 0.01803334
0.38850201 0.00000000 0.01946683
0.41871977 0.00000000 0.02098096
0.45063930 0.00000000 0.02258037
0.48435883 0.00000000 0.02426997
0.51930205 0.00000000 0.02605500
0.55244353 0.00000000 0.02794104
0.58379208 0.00000000 0.02993405
0.61368983 0.00000000 0.03204039
0.64239552 0.00000000 0.03426691
0.67010873 0.00000000 0.03662094
0.69698693 0.00000000 0.03911027
0.72315668 0.00000000 0.04174327
0.74872135 0.00000000 0.04452888
0.77376657 0.00000000 0.04747668
0.79836418 0.00000000 0.05059698
0.82257512 0.00000000 0.05390078
0.84645166 0.00000000 0.05739994
0.87003908 0.00000000 0.06110719
0.89337693 0.00000000 0.06503621
0.91650009 0.00000000 0.06920173
0.93943955 0.00000000 0.07361962
0.96222310 0.00000000 0.07830696
0.98487580 0.00000000 0.08328221
1.00000000 0.00000000 0.08856526
1.00000000 0.00000000 0.09417764
1.00000000 0.00000000 0.10078059
1.00000000 0.00000000 0.10848720
1.00000000 0.00000000 0.11678708
1.00000000 0.00000000 0.12573060
1.00000000 0.00000000 0.13537295
1.00000000 0.00000000 0.14577462
1.00000000 0.00000000 0.15697407
1.00000000 0.00000000 0.16901113
1.00000000 0.00000000 0.18194720
1.00000000 0.00000000 0.19584771
1.00000000 0.00000000 0.21078235
1.00000000 0.00000000 0.22682519
1.00000000 0.00000000 0.24405481
1.00000000 0.00000000 0.26255442
0.00000000 0.00892206 0.00000000
0.00000000 0.00636951 0.00000000
0.00310697 0.00330327 0.00000000
0.01454072 0.00000000 0.00072860
0.02393078 0.00000000 0.00119911
0.03316124 0.00000000 0.00166162
0.04254556 0.00000000 0.00213185
0.05222628 0.00000000 0.00261692
0.06228751 0.00000000 0.00312107
0.07278581 0.00000000 0.00364711
0.08376649 0.00000000 0.00419732
0.09529068 0.00000000 0.00477477
0.10742218 0.00000000 0.00538265
0.12022854 0.00000000 0.00602434
0.13378281 0.00000000 0.00670351
0.14816486 0.00000000 0.00742416
0.16346273 0.00000000 0.00819069
0.17977397 0.00000000 0.00900801
0.19720705 0.00000000 0.00988154
0.21588296 0.00000000 0.01081734
0.23593699 0.00000000 0.01182219
0.25752077 0.00000000 0.01290370
0.28063093 0.00000000 0.01406169
0.30505601 0.00000000 0.01528557
0.33086220 0.00000000 0.01657865
0.35812770 0.00000000 0.01794485
0.38693552 0.00000000 0.01938834
0.41737391 0.00000000 0.02091353
0.44953669 0.00000000 0.02252512
0.48352373 0.00000000 0.02422812
0.51879602 0.00000000 0.02602786
0.55226040 0.00000000 0.02793002
0.58389029 0.00000000 0.02994064
0.61403817 0.00000000 0.03206618
0.64296942 0.00000000 0.03431357
0.67088918 0.00000000 0.03669029
0.69795862 0.00000000 0.03920425
0.72430709 0.00000000 0.04186398
0.75004006 0.00000000 0.04467856
0.77524479 0.00000000 0.04765775
0.79999440 0.00000000 0.05081202
0.82435086 0.00000000 0.05415259
0.84836728 0.00000000 0.05769152
0.87208960 0.00000000 0.06144176
0.89555796 0.00000000 0.06541725
0.91880770 0.00000000 0.06963300
0.94187023 0.00000000 0.07410514
0.96477367 0.00000000 0.07885110
0.98754338 0.00000000 0.08388967
1.00000000 0.00000000 0.08924113
1.00000000 0.00000000 0.09492740
1.00000000 0.00000000 0.10178319
1.00000000 0.00000000 0.10960775
1.00000000 0.00000000 0.11803698
1.00000000 0.00000000 0.12712235
1.00000000 0.00000000 0.13690923
1.00000000 0.00000000 0.14742421
1.00000000 0.00000000 0.15871868
1.00000000 0.00000000 0.17084882
1.00000000 0.00000000 0.18387444
1.00000000 0.00000000 0.19785904
1.00000000 0.00000000 0.21287000
1.00000000 0.00000000 0.22897866
1.00000000 0.00000000 0.24626035
1.00000000 0.00000000 0.26479445
0.00000000 0.01220230 0.00000000
0.00000000 0.00995438 0.00000000
0.00000000 0.00757728 0.00000000
0.00456953 0.00485825 0.00000000
0.01584382 0.00000000 0.00066772
0.02530178 0.00000000 0.00126781
0.03471317 0.00000000 0.00173939
0.04433740 0.00000000 0.00222163
0.05431642 0.00000000 0.00272166
0.06475095 0.00000000 0.00324450
0.07572556 0.00000000 0.00379441
0.08731958 0.00000000 0.00437536
0.09961275 0.00000000 0.00499134
0.11268865 0.00000000 0.00564654
0.12663713 0.00000000 0.00634546
0.14155630 0.00000000 0.00709302
0.15755434 0.00000000 0.00789464
0.17475138 0.00000000 0.00875634
0.19327439 0.00000000 0.00968448
0.21298469 0.00000000 0.01067211
0.23381831 0.00000000 0.01171603
0.25583851 0.00000000 0.01281941
0.27911211 0.00000000 0.01398559
0.30370984 0.00000000 0.01521811
0.32970665 0.00000000 0.01652075
0.35718205 0.00000000 0.01789747
0.38622046 0.00000000 0.01935251
0.41691163 0.00000000 0.02089036
0.44935099 0.00000000 0.02251582
0.48364009 0.00000000 0.02423395
0.51921260 0.00000000 0.02605020
0.55292918 0.00000000 0.02797032
0.58478197 0.00000000 0.03000049
0.61513091 0.00000000 0.03214727
0.64424596 0.00000000 0.03441767
0.67233572 0.00000000 0.03681928
0.69956421 0.00000000 0.03936018
0.72606272 0.00000000 0.04204902
0.75193819 0.00000000 0.04489507
0.77727902 0.00000000 0.04790825
0.80215920 0.00000000 0.05109921
0.82664145 0.00000000 0.05447938
0.85077945 0.00000000 0.05806102
0.87461961 0.00000000 0.06185735
0.89820248 0.00000000 0.06588253
0.92156373 0.00000000 0.07015186
0.94473507 0.00000000 0.07468178
0.96774485 0.00000000 0.07949003
0.99061866 0.00000000 0.08459576
1.00000000 0.00000000 0.09001965
1.00000000 0.00000000 0.09578402
1.00000000 0.00000000 0.10292223
1.00000000 0.00000000 0.11087232
1.00000000 0.00000000 0.11943624
1.00000000 0.00000000 0.12863792
1.00000000 0.00000000 0.13851729
1.00000000 0.00000000 0.14912275
1.00000000 0.00000000 0.16050576
1.00000000 0.00000000 0.17272098
1.00000000 0.00000000 0.18582639
1.00000000 0.00000000 0.19988334
1.00000000 0.00000000 0.21495662
1.00000000 0.00000000 0.23111452
1.00000000 0.00000000 0.24842882
1.00000000 0.00000000 0.26697472
0.00000000 0.01559385 0.00000000
0.00000000 0.01354878 0.00000000
0.00000000 0.01146682 0.00000000
0.00000000 0.00932554 0.00000000
0.00650422 0.00691517 0.00000000
0.01770448 0.00359196 0.00000000
0.02754078 0.00000000 0.00130197
0.03732376 0.00000000 0.00187020
0.04746946 0.00000000 0.00237857
0.05812085 0.00000000 0.00291229
0.06938780 0.00000000 0.00347684
0.08137085 0.00000000 0.00407728
0.09416972 0.00000000 0.00471860
0.10788836 0.00000000 0.00540601
0.12263829 0.00000000 0.00614509
0.13848887 0.00000000 0.00693932
0.15528005 0.00000000 0.00778068
0.17303327 0.00000000 0.00867025
0.19180430 0.00000000 0.00961082
0.21165140 0.00000000 0.01060530
0.23263574 0.00000000 0.01165678
0.25482173 0.00000000 0.01276846
0.27827739 0.00000000 0.01394376
0.30307470 0.00000000 0.01518629
0.32928991 0.00000000 0.01649987
0.35700391 0.00000000 0.01788854
0.38630258 0.00000000 0.01935662
0.41727721 0.00000000 0.02090868
0.45002489 0.00000000 0.02254958
0.48464896 0.00000000 0.02428451
0.52049129 0.00000000 0.02611896
0.55439230 0.00000000 0.02805883
0.58641219 0.00000000 0.03011038
0.61691521 0.00000000 0.03228030
0.64617422 0.00000000 0.03457572
0.67439926 0.00000000 0.03700431
0.70175619 0.00000000 0.03957431
0.72837745 0.00000000 0.04229452
0.75437086 0.00000000 0.04517439
0.77982546 0.00000000 0.04822399
0.80481580 0.00000000 0.05145419
0.82940499 0.00000000 0.05487660
0.85364706 0.00000000 0.05850373
0.87758873 0.00000000 0.06234900
0.90127076 0.00000000 0.06642688
0.92472905 0.00000000 0.07075291
0.94799545 0.00000000 0.07534386
0.97109851 0.00000000 0.08021780
0.99406393 0.00000000 0.08539423
1.00000000 0.00000000 0.09089423
1.00000000 0.00000000 0.09674056
1.00000000 0.00000000 0.10418949
1.00000000 0.00000000 0.11225466
1.00000000 0.00000000 0.12091051
1.00000000 0.00000000 0.13019882
1.00000000 0.00000000 0.14016396
1.00000000 0.00000000 0.15085317
1.00000000 0.00000000 0.16231648
1.00000000 0.00000000 0.17460683
1.00000000 0.00000000 0.18778017
1.00000000 0.00000000 0.20189540
1.00000000 0.00000000 0.21701450
1.00000000 0.00000000 0.23320241
1.00000000 0.00000000 0.25052701
1.00000000 0.00000000 0.26905900
0.00000000 0.01927328 0.00000000
0.00000000 0.01740588 0.00000000
0.00000000 0.01556989 0.00000000
0.00000000 0.01377454 0.00000000
0.00000000 0.01203654 0.00000000
0.00948108 0.01008012 0.00000000
0.02089754 0.00762007 0.00000000
0.03156952 0.00507157 0.00000000
0.04235510 0.00115739 0.00159055
0.05353537 0.00000000 0.00246284
0.06541730 0.00000000 0.00317502
0.07813932 0.00000000 0.00386087
0.09170481 0.00000000 0.00456295
0.10602725 0.00000000 0.00529356
0.12116020 0.00000000 0.00605948
0.13715714 0.00000000 0.00686559
0.15407189 0.00000000 0.00771586
0.17195954 0.00000000 0.00861377
0.19087711 0.00000000 0.00956261
0.21088406 0.00000000 0.01056564
0.23204275 0.00000000 0.01162614
0.25441881 0.00000000 0.01274748
0.27808151 0.00000000 0.01393319
0.30310411 0.00000000 0.01518696
0.32956422 0.00000000 0.01651270
0.35754415 0.00000000 0.01791454
0.38713129 0.00000000 0.01939687
0.41841853 0.00000000 0.02096433
0.45150467 0.00000000 0.02262188
0.48649485 0.00000000 0.02437479
0.52256759 0.00000000 0.02622869
0.55658926 0.00000000 0.02818955
0.58872375 0.00000000 0.03026376
0.61933669 0.00000000 0.03245814
0.64870186 0.00000000 0.03477995
0.67702970 0.00000000 0.03723697
0.70448622 0.00000000 0.03983756
0.73120451 0.00000000 0.04259073
0.75729265 0.00000000 0.04550606
0.78283994 0.00000000 0.04859384
0.80792107 0.00000000 0.05186510
0.83259931 0.00000000 0.05533170
0.85692882 0.00000000 0.05900636
0.88095641 0.00000000 0.06290276
0.90472293 0.00000000 0.06703562
0.92826438 0.00000000 0.07142079
0.95161267 0.00000000 0.07607533
0.97479641 0.00000000 0.08101767
0.99784138 0.00000000 0.08626767
1.00000000 0.00000000 0.09184680
1.00000000 0.00000000 0.09792792
1.00000000 0.00000000 0.10552244
1.00000000 0.00000000 0.11366922
1.00000000 0.00000000 0.12240674
1.00000000 0.00000000 0.13177589
1.00000000 0.00000000 0.14181995
1.00000000 0.00000000 0.15258476
1.00000000 0.00000000 0.16411872
1.00000000 0.00000000 0.17647283
1.00000000 0.00000000 0.18970072
1.00000000 0.00000000 0.20385864
1.00000000 0.00000000 0.21900543
1.00000000 0.00000000 0.23520239
1.00000000 0.00000000 0.25251319
1.00000000 0.00000000 0.27100369
0.00000000 0.02353187 0.00000000
0.00000000 0.02196986 0.00000000
0.00000000 0.02051062 0.00000000
0.00000000 0.01916683 0.00000000
0.00000000 0.01795540 0.00000000
0.00000000 0.01689284 0.00000000
0.01463535 0.01556004 0.00000000
0.02670225 0.01403323 0.00000000
0.03862872 0.01258179 0.00000000
0.05079217 0.01110600 0.00000000
0.06337748 0.00945429 0.00000000
0.07652435 0.00739898 0.00188452
0.09033039 0.00422542 0.00322609
0.10482567 0.00000000 0.00428770
0.12009311 0.00000000 0.00526495
0.13623108 0.00000000 0.00621981
0.15329538 0.00000000 0.00718084
0.17134280 0.00000000 0.00816465
0.19043189 0.00000000 0.00918233
0.21062355 0.00000000 0.01024210
0.23198150 0.00000000 0.01135060
0.25457273 0.00000000 0.01251358
0.27846789 0.00000000 0.01373628
0.30374162 0.00000000 0.01502367
0.33047298 0.00000000 0.01638065
0.35874578 0.00000000 0.01781209
0.38864901 0.00000000 0.01932301
0.42027721 0.00000000 0.02091854
0.45373093 0.00000000 0.02260406
0.48911722 0.00000000 0.02438519
0.52536758 0.00000000 0.02626785
0.55945211 0.00000000 0.02825830
0.59165354 0.00000000 0.03036316
0.62233619 0.00000000 0.03258948
0.65177298 0.00000000 0.03494476
0.68017370 0.00000000 0.03743697
0.70770340 0.00000000 0.04007465
0.73449501 0.00000000 0.04286701
0.76065645 0.00000000 0.04582386
0.78627684 0.00000000 0.04895570
0.81143074 0.00000000 0.05227380
0.83618132 0.00000000 0.05579025
0.86058266 0.00000000 0.05951801
0.88468150 0.00000000 0.06347103
0.90851868 0.00000000 0.06766432
0.93213012 0.00000000 0.07211402
0.95554776 0.00000000 0.07683753
0.97880017 0.00000000 0.08185361
1.00000000 0.00000000 0.08718110
1.00000000 0.00000000 0.09282707
1.00000000 0.00000000 0.09918105
1.00000000 0.00000000 0.10685443
1.00000000 0.00000000 0.11507996
1.00000000 0.00000000 0.12389522
1.00000000 0.00000000 0.13334001
1.00000000 0.00000000 0.14345634
1.00000000 0.00000000 0.15428848
1.00000000 0.00000000 0.16588301
1.00000000 0.00000000 0.17828878
1.00000000 0.00000000 0.19155691
1.00000000 0.00000000 0.20574073
1.00000000 0.00000000 0.22089566
1.00000000 0.00000000 0.23707908
1.00000000 0.00000000 0.25435017
1.00000000 0.00000000 0.27276957
0.00000000 0.02901747 0.00000000
0.00000000 0.02792861 0.00000000
0.00000000 0.02700464 0.00000000
0.00000000 0.02625895 0.00000000
0.00000000 0.02570709 0.00000000
0.00000000 0.02532399 0.00000000
0.00850459 0.02485015 0.00000000
0.02251373 0.02393620 0.00000000
0.03517629 0.02280025 0.00000000
0.04789000 0.02154532 0.00000000
0.06093029 0.02022350 0.00000000
0.07445562 0.01883159 0.00000000
0.08858373 0.01732644 0.00000000
0.10340867 0.01563005 0.00000000
0.11900945 0.01361334 0.00190916
0.13545668 0.01102957 0.00397346
0.15281807 0.00718514 0.00545330
0.17112497 0.00000000 0.00676840
0.19041209 0.00000000 0.00802101
0.21081450 0.00000000 0.00925985
0.23239752 0.00000000 0.01051088
0.25522966 0.00000000 0.01179104
0.27938307 0.00000000 0.01311262
0.30493392 0.00000000 0.01448534
0.33196281 0.00000000 0.01591741
0.36055514 0.00000000 0.01741614
0.39080156 0.00000000 0.01898837
0.42279834 0.00000000 0.02064065
0.45664789 0.00000000 0.02237947
0.49245915 0.00000000 0.02421135
0.52881745 0.00000000 0.02614296
0.56291343 0.00000000 0.02818117
0.59513921 0.00000000 0.03033315
0.62585549 0.00000000 0.03260642
0.65533272 0.00000000 0.03500889
0.68377896 0.00000000 0.03754893
0.71135787 0.00000000 0.04023540
0.73820108 0.00000000 0.04307781
0.76441609 0.00000000 0.04608631
0.79009147 0.00000000 0.04927171
0.81530141 0.00000000 0.05264557
0.84010873 0.00000000 0.05622029
0.86456725 0.00000000 0.06000915
0.88872355 0.00000000 0.06402640
0.91261826 0.00000000 0.06828738
0.93628722 0.00000000 0.07280857
0.95976208 0.00000000 0.07760771
0.98303108 0.00000000 0.08269475
1.00000000 0.00000000 0.08807983
1.00000000 0.00000000 0.09377975
1.00000000 0.00000000 0.10041161
1.00000000 0.00000000 0.10816164
1.00000000 0.00000000 0.11646257
1.00000000 0.00000000 0.12535097
1.00000000 0.00000000 0.13486540
1.00000000 0.00000000 0.14504642
1.00000000 0.00000000 0.15593659
1.00000000 0.00000000 0.16758045
1.00000000 0.00000000 0.18002452
1.00000000 0.00000000 0.19331716
1.00000000 0.00000000 0.20750852
1.00000000 0.00000000 0.22265037
1.00000000 0.00000000 0.23879590
1.00000000 0.00000000 0.25599946
1.00000000 0.00000000 0.27431625
0.00000000 0.03647382 0.00000000
0.00000000 0.03605089 0.00000000
0.00000000 0.03574512 0.00000000
0.00000000 0.03545268 0.00000000
0.00000000 0.03517280 0.00000000
0.00000000 0.03490624 0.00000000
0.00000000 0.03463881 0.00000000
0.01761419 0.03407776 0.00000000
0.03125733 0.03323224 0.00000000
0.04452623 0.03220555 0.00000000
0.05805242 0.03105497 0.00000000
0.07202467 0.02982211 0.00000000
0.08655992 0.02852199 0.00000000
0.10175509 0.02714502 0.00000000
0.11769649 0.02566140 0.00000000
0.13446304 0.02402245 0.00000000
0.15212872 0.02215627 0.00000000
0.17076397 0.01995337 0.00244032
0.19043810 0.01722848 0.00509305
0.21122257 0.01359603 0.00698259
0.23318874 0.00774390 0.00865293
0.25634274 0.00000000 0.01023469
0.28077997 0.00000000 0.01178729
0.30663349 0.00000000 0.01334619
0.33398555 0.00000000 0.01493325
0.36292326 0.00000000 0.01656435
0.39353899 0.00000000 0.01825206
0.42593084 0.00000000 0.02000694
0.46020309 0.00000000 0.02183844
0.49646670 0.00000000 0.02375528
0.53284415 0.00000000 0.02576586
0.56690654 0.00000000 0.02787842
0.59911908 0.00000000 0.03010124
0.62983692 0.00000000 0.03244277
0.65932672 0.00000000 0.03491169
0.68779389 0.00000000 0.03751705
0.71540013 0.00000000 0.04026832
0.74227524 0.00000000 0.04317547
0.76852575 0.00000000 0.04624916
0.79423947 0.00000000 0.04950066
0.81948994 0.00000000 0.05294195
0.84433949 0.00000000 0.05658582
0.86884152 0.00000000 0.06044596
0.89304229 0.00000000 0.06453701
0.91698218 0.00000000 0.06887471
0.94067872 0.00000000 0.07347224
0.96411388 0.00000000 0.07833623
0.98730758 0.00000000 0.08348128
1.00000000 0.00000000 0.08892308
1.00000000 0.00000000 0.09467805
1.00000000 0.00000000 0.10159179
1.00000000 0.00000000 0.10941617
1.00000000 0.00000000 0.11778890
1.00000000 0.00000000 0.12674544
1.00000000 0.00000000 0.13632296
1.00000000 0.00000000 0.14656041
1.00000000 0.00000000 0.15749847
1.00000000 0.00000000 0.16917947
1.00000000 0.00000000 0.18164735
1.00000000 0.00000000 0.19494751
1.00000000 0.00000000 0.20912671
1.00000000 0.00000000 0.22423279
1.00000000 0.00000000 0.24031449
1.00000000 0.00000000 0.25742110
1.00000000 0.00000000 0.27560207
0.00000000 0.04613205 0.00000000
0.00000000 0.04590536 0.00000000
0.00000000 0.04569521 0.00000000
0.00000000 0.04549994 0.00000000
0.00000000 0.04531852 0.00000000
0.00000000 0.04515097 0.00000000
0.00000000 0.04498782 0.00000000
0.01039100 0.04474258 0.00000000
0.02677472 0.04414957 0.00000000
0.04079376 0.04337121 0.00000000
0.05481942 0.04243207 0.00000000
0.06924504 0.04136729 0.00000000
0.08421862 0.04020760 0.00000000
0.09983605 0.03897052 0.00000000
0.11618070 0.03765813 0.00000000
0.13333184 0.03625811 0.00000000
0.15136639 0.03474507 0.00000000
0.17035963 0.03308055 0.00000000
0.19038605 0.03121050 0.00000000
0.21152018 0.02905872 0.00000000
0.23383632 0.02651224 0.00390464
0.25741195 0.02338769 0.00685237
0.28232791 0.01933491 0.00911242
0.30866715 0.01342952 0.01114240
0.33649286 0.00000000 0.01307749
0.36580105 0.00000000 0.01497777
0.39681128 0.00000000 0.01688543
0.42962354 0.00000000 0.01882572
0.46434406 0.00000000 0.02081736
0.50108374 0.00000000 0.02287536
0.53737442 0.00000000 0.02501254
0.57136469 0.00000000 0.02724041
0.60353154 0.00000000 0.02956971
0.63422299 0.00000000 0.03201082
0.66370086 0.00000000 0.03457398
0.69216713 0.00000000 0.03726948
0.71978102 0.00000000 0.04010787
0.74667035 0.00000000 0.04310000
0.77293995 0.00000000 0.04625728
0.79867679 0.00000000 0.04959168
0.82395354 0.00000000 0.05311583
0.84883187 0.00000000 0.05684309
0.87336468 0.00000000 0.06078768
0.89759272 0.00000000 0.06496383
0.92150761 0.00000000 0.06937810
0.94512802 0.00000000 0.07404227
0.96847924 0.00000000 0.07897061
0.99158286 0.00000000 0.08417792
1.00000000 0.00000000 0.08967962
1.00000000 0.00000000 0.09549171
1.00000000 0.00000000 0.10268962
1.00000000 0.00000000 0.11058613
1.00000000 0.00000000 0.11902704
1.00000000 0.00000000 0.12804650
1.00000000 0.00000000 0.13768020
1.00000000 0.00000000 0.14796531
1.00000000 0.00000000 0.15894046
1.00000000 0.00000000 0.17064557
1.00000000 0.00000000 0.18312184
1.00000000 0.00000000 0.19641150
1.00000000 0.00000000 0.21055766
1.00000000 0.00000000 0.22560403
1.00000000 0.00000000 0.24159465
1.00000000 0.00000000 0.25857352
1.00000000 0.00000000 0.27658412
0.00000000 0.05668074 0.00000000
0.00000000 0.05654964 0.00000000
0.00000000 0.05643601 0.00000000
0.00000000 0.05633836 0.00000000
0.00000000 0.05625561 0.00000000
0.00000000 0.05618734 0.00000000
0.00000000 0.05612646 0.00000000
0.00000000 0.05606541 0.00000000
0.02108381 0.05574982 0.00000000
0.03657432 0.05520155 0.00000000
0.05125068 0.05448882 0.00000000
0.06615492 0.05362622 0.00000000
0.08157153 0.05263647 0.00000000
0.09762715 0.05154201 0.00000000
0.11440741 0.05035866 0.00000000
0.13198823 0.04909260 0.00000000
0.15044426 0.04773960 0.00000000
0.16985075 0.04628534 0.00000000
0.19028386 0.04470563 0.00000000
0.21182087 0.04296582 0.00000000
0.23454048 0.04101875 0.00000000
0.25852332 0.03880041 0.00000000
0.28385250 0.03622128 0.00000000
0.31061185 0.03314872 0.00633352
0.33889344 0.02936839 0.00945421
0.36879155 0.02447495 0.01205467
0.40040512 0.01743600 0.01445229
0.43382487 0.00000000 0.01676595
0.46901788 0.00000000 0.01905173
0.50619287 0.00000000 0.02135420
0.54233568 0.00000000 0.02370042
0.57622179 0.00000000 0.02611112
0.60831557 0.00000000 0.02860340
0.63895679 0.00000000 0.03119214
0.66840156 0.00000000 0.03389097
0.69684787 0.00000000 0.03671278
0.72445203 0.00000000 0.03967013
0.75133968 0.00000000 0.04277555
0.77761367 0.00000000 0.04604176
0.80335979 0.00000000 0.04948189
0.82864977 0.00000000 0.05310955
0.85354438 0.00000000 0.05693897
0.87806173 0.00000000 0.06097905
0.90221696 0.00000000 0.06523876
0.92604406 0.00000000 0.06973140
0.94957190 0.00000000 0.07447071
0.97282500 0.00000000 0.07947088
0.99582425 0.00000000 0.08474657
1.00000000 0.00000000 0.09031292
1.00000000 0.00000000 0.09620866
1.00000000 0.00000000 0.10366818
1.00000000 0.00000000 0.11163503
1.00000000 0.00000000 0.12014066
1.00000000 0.00000000 0.12921786
1.00000000 0.00000000 0.13890067
1.00000000 0.00000000 0.14922436
1.00000000 0.00000000 0.16022533
1.00000000 0.00000000 0.17194096
1.00000000 0.00000000 0.18440948
1.00000000 0.00000000 0.19766976
1.00000000 0.00000000 0.21176107
1.00000000 0.00000000 0.22672280
1.00000000 0.00000000 0.24259408
1.00000000 0.00000000 0.25941340
1.00000000 0.00000000 0.27721810
0.00000000 0.06810862 0.00000000
0.00000000 0.06807633 0.00000000
0.00000000 0.06806223 0.00000000
0.00000000 0.06806494 0.00000000
0.00000000 0.06808338 0.00000000
0.00000000 0.06811692 0.00000000
0.00000000 0.06815966 0.00000000
0.00000000 0.06820553 0.00000000
0.01189978 0.06818508 0.00000000
0.03146743 0.06784094 0.00000000
0.04722464 0.06734574 0.00000000
