DIT_DOCS/ARRI_HDR_Lookfiles_3DLUTs_190319/3D_LUTs_for_monitor_grading_add_P3D65/ARRI_Rec2100PQ-1K-200_65.cube
LUT_3D_SIZE 65
0.00000073 0.00000073 0.00000073
0.01466225 0.00266861 0.00034335
0.02791784 0.00556370 0.00072140
0.04088883 0.00873917 0.00116318
0.05367364 0.01215183 0.00166668
0.06636004 0.01578680 0.00223265
0.07898963 0.01963176 0.00286187
0.09159330 0.02367932 0.00355572
0.10417733 0.02791900 0.00431493
0.11675308 0.03234480 0.00514086
0.12933013 0.03695232 0.00603512
0.14191690 0.04173840 0.00699951
0.15452100 0.04670090 0.00803605
0.16714944 0.05183855 0.00914694
0.17980881 0.05715075 0.01033456
0.19250540 0.06263755 0.01160151
0.20523733 0.06829599 0.01294967
0.21801421 0.07412859 0.01438231
0.23086285 0.08014676 0.01590506
0.24380997 0.08636331 0.01752434
0.25688221 0.09279239 0.01924737
0.27010611 0.09944947 0.02108221
0.28350814 0.10635130 0.02303786
0.29711472 0.11351590 0.02512428
0.31095223 0.12096256 0.02735248
0.32504698 0.12871185 0.02973463
0.33942528 0.13678562 0.03228408
0.35411338 0.14520705 0.03501555
0.36913609 0.15399979 0.03794489
0.38432464 0.16307203 0.04104898
0.39954929 0.17234793 0.04430719
0.41480961 0.18182664 0.04772358
0.43010518 0.19150739 0.05130229
0.44543606 0.20138976 0.05504763
0.46080225 0.21147337 0.05896399
0.47620357 0.22175783 0.06305578
0.49163983 0.23224276 0.06732750
0.50711082 0.24292781 0.07178372
0.52261632 0.25381269 0.07642907
0.53815607 0.26489712 0.08126825
0.55372981 0.27618084 0.08630605
0.56933726 0.28766362 0.09154730
0.58497812 0.29934523 0.09699693
0.60065208 0.31122548 0.10265992
0.61635883 0.32330417 0.10854131
0.63209801 0.33558113 0.11464625
0.64786930 0.34805619 0.12097992
0.66367233 0.36072917 0.12754758
0.67950674 0.37359992 0.13435456
0.69537215 0.38666828 0.14140626
0.71126817 0.39993410 0.14870815
0.72719440 0.41339721 0.15626576
0.74315046 0.42705747 0.16408470
0.75182710 0.44091471 0.17217062
0.75182710 0.45496877 0.18052926
0.75182710 0.46921948 0.18916642
0.75182710 0.48366669 0.19808797
0.75182710 0.49831020 0.20729984
0.75182710 0.51314457 0.21680462
0.75182710 0.52811831 0.22657439
0.75182710 0.54321174 0.23660022
0.75182710 0.55841620 0.24687978
0.75182710 0.57372261 0.25741008
0.75182710 0.58912148 0.26818746
0.75182710 0.60460291 0.27920753
0.00132000 0.00580311 0.00000073
0.00141852 0.00153186 0.00000073
0.01545558 0.00283043 0.00036384
0.02883272 0.00577733 0.00075026
0.04188112 0.00899446 0.00119985
0.05475765 0.01245308 0.00171246
0.06755797 0.01614207 0.00228951
0.08031812 0.02004870 0.00293189
0.09306044 0.02416360 0.00364080
0.10580077 0.02847990 0.00441775
0.11855138 0.03299266 0.00526452
0.13132241 0.03769837 0.00618311
0.14412155 0.04259430 0.00717567
0.15694698 0.04767515 0.00824380
0.16982019 0.05294590 0.00939128
0.18276906 0.05841592 0.01062311
0.19582115 0.06409622 0.01194505
0.20900373 0.06999942 0.01336362
0.22234387 0.07613958 0.01488616
0.23586848 0.08253223 0.01652092
0.24960434 0.08919429 0.01827706
0.26357811 0.09614405 0.02016478
0.27781638 0.10340121 0.02219537
0.29234567 0.11098682 0.02438130
0.30719241 0.11892332 0.02673632
0.32234866 0.12721558 0.02926969
0.33758648 0.13574367 0.03195123
0.35285886 0.14448096 0.03477717
0.36816548 0.15342625 0.03775143
0.38350599 0.16257840 0.04087797
0.39888003 0.17193637 0.04416083
0.41428721 0.18149919 0.04760410
0.42972710 0.19126594 0.05121194
0.44519939 0.20123584 0.05498859
0.46070421 0.21140848 0.05893848
0.47624149 0.22178337 0.06306607
0.49181104 0.23236004 0.06737586
0.50741268 0.24313804 0.07187243
0.52304620 0.25411696 0.07656045
0.53871134 0.26529643 0.08144462
0.55440788 0.27667609 0.08652972
0.57013553 0.28825560 0.09182063
0.58589403 0.30003467 0.09732225
0.60168306 0.31201299 0.10303958
0.61750232 0.32419029 0.10897768
0.63335148 0.33656630 0.11514166
0.64923021 0.34914075 0.12153673
0.66513816 0.36191340 0.12816814
0.68107497 0.37488400 0.13504121
0.69704028 0.38805232 0.14216133
0.71303370 0.40141810 0.14953396
0.72905485 0.41498112 0.15716461
0.74510333 0.42874113 0.16505887
0.75182710 0.44269791 0.17322238
0.75182710 0.45685120 0.18166087
0.75182710 0.47120076 0.19038009
0.75182710 0.48574621 0.19938580
0.75182710 0.50045155 0.20866114
0.75182710 0.51528334 0.21818929
0.75182710 0.53023326 0.22796850
0.75182710 0.54529259 0.23799640
0.75182710 0.56045221 0.24826998
0.75182710 0.57570260 0.25878554
0.75182710 0.59103382 0.26953869
0.75182710 0.60643551 0.28052427
0.00262578 0.01106067 0.00000073
0.00163415 0.00710757 0.00000073
0.00285857 0.00308364 0.00000073
0.01656236 0.00305882 0.00039289
0.03003518 0.00606061 0.00078872
0.04324504 0.00934806 0.00125092
0.05631957 0.01289027 0.00177927
0.06932728 0.01667046 0.00237457
0.08230692 0.02067720 0.00303808
0.09527894 0.02490096 0.00377116
0.10825686 0.02933442 0.00457544
0.12127391 0.03398047 0.00545439
0.13436216 0.03884506 0.00641227
0.14755208 0.04393639 0.00745410
0.16087308 0.04926470 0.00858569
0.17435380 0.05484206 0.00981363
0.18802236 0.06068226 0.01114540
0.20190645 0.06680071 0.01258937
0.21603349 0.07321440 0.01415492
0.23043066 0.07994186 0.01585248
0.24512494 0.08700313 0.01769363
0.26014319 0.09441976 0.01969119
0.27540045 0.10215744 0.02184311
0.29069513 0.11011601 0.02412711
0.30602212 0.11829100 0.02654617
0.32138128 0.12668062 0.02910404
0.33677246 0.13528328 0.03180452
0.35219544 0.14409750 0.03465150
0.36764994 0.15312192 0.03764891
0.38313567 0.16235528 0.04080075
0.39865229 0.17179640 0.04411109
0.41419945 0.18144420 0.04758405
0.42977675 0.19129764 0.05122380
0.44538380 0.20135576 0.05503459
0.46102043 0.21161783 0.05902078
0.47668679 0.22208337 0.06318690
0.49238272 0.23275181 0.06753746
0.50810807 0.24362259 0.07207705
0.52386262 0.25469521 0.07681035
0.53964617 0.26596919 0.08174207
0.55545849 0.27744408 0.08687701
0.57129931 0.28911946 0.09222002
0.58716837 0.30099491 0.09777603
0.60306539 0.31307007 0.10355004
0.61899007 0.32534456 0.10954708
0.63494208 0.33781801 0.11577230
0.65092112 0.35049010 0.12223086
0.66692684 0.36336047 0.12892801
0.68295889 0.37642881 0.13586908
0.69901692 0.38969478 0.14305942
0.71510055 0.40315806 0.15050448
0.73120940 0.41681835 0.15820976
0.74734309 0.43067531 0.16618081
0.75182710 0.44472863 0.17442326
0.75182710 0.45897799 0.18294278
0.75182710 0.47340727 0.19173540
0.75182710 0.48797152 0.20077840
0.75182710 0.50266077 0.21006937
0.75182710 0.51746665 0.21960651
0.75182710 0.53238041 0.22938742
0.75182710 0.54739288 0.23940906
0.75182710 0.56249450 0.24966771
0.75182710 0.57767530 0.26015897
0.75182710 0.59292491 0.27087768
0.75182710 0.60823251 0.28181794
0.00405674 0.01643433 0.00000073
0.00305956 0.01272548 0.00000073
0.00208763 0.00894348 0.00000073
0.00487131 0.00524572 0.00000073
0.01842717 0.00384487 0.00028052
0.03201117 0.00653218 0.00085324
0.04543616 0.00992261 0.00133456
0.05876531 0.01358223 0.00188590
0.07206885 0.01749780 0.00250892
0.08540223 0.02166561 0.00320662
0.09881087 0.02608737 0.00398299
0.11233388 0.03076853 0.00484290
0.12600639 0.03571745 0.00579210
0.13986101 0.04094493 0.00683719
0.15392864 0.04646395 0.00798573
0.16823899 0.05228943 0.00924622
0.18282100 0.05843819 0.01062821
0.19770297 0.06492878 0.01214239
0.21290716 0.07177890 0.01379999
0.22824332 0.07890750 0.01558785
0.24360757 0.08626496 0.01749836
0.25900040 0.09384839 0.01953501
0.27442211 0.10165521 0.02170136
0.28987291 0.10968308 0.02400105
0.30535286 0.11792990 0.02643778
0.32086196 0.12639376 0.02901533
0.33640013 0.13507288 0.03173755
0.35196722 0.14396567 0.03460833
0.36756302 0.15307063 0.03763164
0.38318729 0.16238638 0.04081151
0.39883976 0.17191161 0.04415203
0.41452008 0.18164513 0.04765734
0.43022792 0.19158580 0.05133164
0.44596290 0.20173253 0.05517920
0.46172464 0.21208432 0.05920432
0.47751323 0.22264054 0.06341153
0.49332867 0.23340058 0.06780538
0.50917080 0.24436380 0.07239047
0.52503945 0.25552957 0.07717146
0.54093444 0.26689733 0.08215310
0.55685553 0.27846654 0.08734016
0.57280250 0.29023668 0.09273752
0.58877509 0.30220724 0.09835008
0.60477303 0.31437777 0.10418284
0.62079603 0.32674779 0.11024083
0.63684381 0.33931687 0.11652918
0.65291603 0.35208457 0.12305305
0.66901238 0.36505048 0.12981767
0.68513252 0.37821419 0.13682833
0.70127610 0.39157527 0.14409039
0.71744276 0.40513334 0.15160926
0.73363212 0.41888799 0.15939041
0.74984382 0.43283882 0.16743937
0.75182710 0.44698111 0.17575915
0.75182710 0.46127203 0.18432956
0.75182710 0.47569460 0.19314446
0.75182710 0.49024080 0.20220257
0.75182710 0.50490221 0.21150208
0.75182710 0.51967002 0.22104055
0.75182710 0.53453505 0.23081492
0.75182710 0.54948769 0.24082146
0.75182710 0.56451794 0.25105574
0.75182710 0.57961540 0.26151263
0.75182710 0.59476923 0.27218622
0.75182710 0.60996820 0.28306984
0.00567109 0.02215866 0.00000073
0.00468360 0.01869389 0.00000073
0.00372321 0.01521060 0.00000073
0.00279332 0.01170780 0.00000073
0.00783463 0.00841811 0.00000073
0.02142217 0.00665501 0.00000073
0.03524301 0.00762891 0.00083970
0.04909722 0.01090008 0.00147873
0.06299907 0.01480091 0.00207628
0.07699799 0.01901107 0.00275827
0.09114240 0.02353102 0.00352975
0.10547487 0.02836705 0.00439702
0.12003352 0.03352938 0.00536748
0.13485324 0.03903126 0.00644967
0.14996668 0.04488848 0.00765325
0.16535525 0.05109869 0.00898464
0.18079318 0.05757050 0.01043005
0.19625069 0.06428596 0.01198995
0.21172965 0.07124060 0.01366756
0.22723145 0.07843047 0.01546625
0.24275713 0.08585214 0.01738944
0.25830747 0.09350251 0.01944065
0.27388302 0.10137882 0.02162347
0.28948416 0.10947859 0.02394158
0.30511112 0.11779957 0.02639869
0.32076403 0.12633968 0.02899862
0.33644291 0.13509705 0.03174524
0.35214772 0.14406993 0.03464247
0.36787831 0.15325671 0.03769430
0.38363453 0.16265588 0.04090479
0.39941615 0.17226603 0.04427805
0.41522288 0.18208585 0.04781823
0.43105444 0.19211409 0.05152956
0.44691047 0.20234957 0.05541631
0.46279062 0.21279116 0.05948282
0.47869464 0.22343790 0.06373349
0.49462271 0.23428917 0.06817295
0.51057473 0.24534424 0.07280580
0.52655056 0.25660241 0.07763670
0.54255002 0.26806300 0.08267039
0.55857292 0.27972537 0.08791165
0.57461902 0.29158893 0.09336533
0.59068811 0.30365308 0.09903635
0.60677993 0.31591725 0.10492967
0.62289419 0.32838092 0.11105034
0.63903063 0.34104354 0.11740345
0.65518894 0.35390460 0.12399414
0.67136880 0.36696360 0.13082762
0.68756988 0.38022003 0.13790918
0.70379186 0.39367342 0.14524411
0.72003437 0.40732328 0.15283782
0.73629694 0.42116901 0.16069567
0.75182710 0.43518089 0.16880605
0.75182710 0.44933087 0.17715708
0.75182710 0.46361126 0.18574794
0.75182710 0.47801406 0.19457726
0.75182710 0.49253076 0.20364323
0.75182710 0.50715250 0.21294342
0.75182710 0.52187004 0.22247477
0.75182710 0.53667373 0.23223355
0.75182710 0.55155354 0.24221535
0.75182710 0.56649903 0.25241503
0.75182710 0.58149935 0.26282671
0.75182710 0.59654323 0.27344374
0.75182710 0.61161900 0.28425866
0.00753511 0.02843767 0.00000073
0.00657656 0.02524748 0.00000073
0.00565929 0.02211791 0.00000073
0.00479061 0.01907471 0.00000073
0.00398100 0.01615780 0.00000073
0.01278387 0.01369562 0.00000073
0.02688166 0.01240047 0.00000073
0.04140508 0.01275023 0.00000073
0.05614023 0.01479413 0.00064088
0.07107849 0.01815060 0.00200421
0.08624835 0.02241074 0.00302850
0.10168632 0.02732005 0.00403385
0.11729090 0.03268951 0.00510024
0.13288991 0.03837838 0.00625271
0.14848937 0.04435882 0.00750123
0.16409481 0.05061288 0.00885293
0.17971046 0.05712814 0.01031339
0.19533958 0.06389554 0.01188739
0.21098464 0.07090822 0.01357921
0.22664757 0.07816076 0.01539286
0.24232981 0.08564876 0.01733219
0.25803249 0.09336853 0.01940098
0.27375643 0.10131690 0.02160300
0.28950223 0.10949113 0.02394199
0.30527033 0.11788873 0.02642177
0.32106099 0.12650748 0.02904618
0.33687440 0.13534534 0.03181911
0.35271059 0.14440041 0.03474455
0.36856954 0.15367094 0.03782651
0.38445117 0.16315529 0.04106907
0.40035531 0.17285192 0.04447638
0.41628175 0.18275940 0.04805264
0.43223024 0.19287634 0.05180211
0.44820049 0.20320145 0.05572908
0.46419218 0.21373350 0.05983792
0.48020494 0.22447130 0.06413304
0.49623880 0.23541399 0.06861899
0.51229385 0.24656084 0.07330046
0.52836994 0.25791103 0.07818211
0.54446694 0.26946380 0.08326868
0.56058467 0.28121842 0.08856496
0.57672293 0.29317418 0.09407579
0.59288150 0.30533041 0.09980609
0.60906015 0.31768646 0.10576081
0.62525862 0.33024169 0.11194498
0.64147664 0.34299552 0.11836367
0.65771393 0.35594732 0.12502200
0.67397018 0.36909653 0.13192516
0.69024508 0.38244257 0.13907838
0.70653831 0.39598488 0.14648695
0.72283441 0.40971011 0.15414897
0.73909120 0.42358128 0.16204842
0.75182710 0.43758941 0.17018410
0.75182710 0.45172673 0.17855520
0.75182710 0.46598514 0.18716040
0.75182710 0.48035613 0.19599780
0.75182710 0.49483082 0.20506491
0.75182710 0.50939995 0.21435863
0.75182710 0.52405386 0.22387522
0.75182710 0.53878248 0.23361023
0.75182710 0.55357536 0.24355854
0.75182710 0.56842162 0.25371428
0.75182710 0.58330998 0.26407080
0.75182710 0.59822877 0.27462071
0.75182710 0.61316586 0.28535575
0.00979877 0.03569783 0.00000073
0.00895743 0.03304030 0.00000073
0.00818262 0.03055118 0.00000073
0.00747984 0.02825576 0.00000073
0.00685613 0.02618593 0.00000073
0.00872717 0.02441678 0.00000073
0.02186532 0.02333154 0.00000073
0.03699390 0.02320029 0.00000073
0.05268640 0.02420044 0.00000073
0.06851165 0.02616739 0.00000073
0.08433360 0.02899001 0.00000073
0.10014064 0.03258714 0.00000073
0.11593359 0.03685636 0.00114605
0.13171707 0.04170022 0.00354639
0.14749636 0.04703730 0.00538114
0.16327633 0.05280372 0.00711763
0.17906114 0.05895084 0.00885882
0.19485420 0.06544193 0.01064969
0.21065825 0.07224922 0.01251563
0.22647550 0.07935154 0.01447323
0.24230768 0.08673257 0.01653453
0.25815614 0.09437956 0.01870897
0.27402194 0.10228238 0.02100434
0.28990587 0.11043292 0.02342741
0.30580853 0.11882452 0.02598427
0.32173036 0.12745171 0.02868051
0.33767162 0.13630985 0.03152141
0.35363249 0.14539503 0.03451200
0.36961305 0.15470387 0.03765717
0.38561327 0.16423342 0.04096168
0.40163308 0.17398108 0.04443023
0.41767232 0.18394453 0.04806747
0.43373081 0.19412168 0.05187800
0.44980829 0.20451062 0.05586644
0.46590448 0.21510962 0.06003737
0.48201908 0.22591707 0.06439540
0.49815182 0.23693151 0.06894517
0.51430290 0.24815194 0.07369150
0.53047227 0.25957729 0.07863916
0.54665979 0.27120653 0.08379298
0.56286532 0.28303869 0.08915781
0.57908868 0.29507288 0.09473853
0.59532967 0.30730823 0.10054009
0.61158807 0.31974392 0.10656748
0.62786365 0.33237916 0.11282571
0.64415614 0.34521319 0.11931987
0.66046528 0.35824528 0.12605507
0.67679079 0.37147471 0.13303650
0.69312815 0.38489732 0.14026746
0.70943649 0.39847833 0.14773403
0.72570088 0.41220318 0.15543239
0.74191533 0.42606439 0.16336222
0.75182710 0.44005412 0.17152271
0.75182710 0.45416416 0.17991251
0.75182710 0.46838595 0.18852973
0.75182710 0.48271052 0.19737188
0.75182710 0.49712856 0.20643588
0.75182710 0.51163034 0.21571797
0.75182710 0.52620576 0.22521375
0.75182710 0.54084430 0.23491810
0.75182710 0.55553505 0.24482521
0.75182710 0.57026671 0.25492847
0.75182710 0.58502756 0.26522052
0.75182710 0.59980547 0.27569320
0.75182710 0.61458790 0.28633751
0.01283203 0.04494187 0.00000073
0.01222165 0.04312014 0.00000073
0.01170664 0.04156877 0.00000073
0.01129310 0.04031324 0.00000073
0.01098834 0.03938215 0.00000073
0.01115408 0.03874044 0.00000073
0.02141922 0.03832807 0.00000073
0.03602212 0.03826795 0.00000073
0.05153670 0.03866690 0.00000073
0.06733131 0.03962413 0.00000073
0.08322477 0.04121465 0.00000073
0.09915206 0.04348049 0.00000073
0.11508857 0.04642938 0.00000073
0.13102592 0.05004047 0.00000073
0.14696259 0.05427376 0.00000073
0.16289981 0.05907987 0.00000073
0.17883984 0.06440760 0.00237856
0.19478510 0.07020871 0.00603297
0.21073789 0.07644026 0.00882013
0.22670020 0.08306537 0.01139407
0.24267372 0.09005302 0.01391454
0.25865985 0.09737741 0.01645205
0.27465972 0.10501721 0.01904601
0.29067421 0.11295481 0.02172174
0.30670404 0.12117565 0.02449719
0.32274971 0.12966763 0.02738602
0.33881161 0.13842065 0.03039922
0.35488999 0.14742621 0.03354605
0.37098499 0.15667715 0.03683458
0.38709667 0.16616733 0.04027205
0.40322502 0.17589151 0.04386508
0.41936994 0.18584513 0.04761989
0.43553128 0.19602422 0.05154233
0.45170885 0.20642526 0.05563805
0.46790241 0.21704516 0.05991250
0.48411168 0.22788113 0.06437098
0.50033634 0.23893066 0.06901870
0.51657640 0.25019171 0.07386091
0.53283197 0.26166253 0.07890285
0.54910295 0.27334144 0.08414969
0.56538920 0.28522689 0.08960657
0.58169057 0.29731745 0.09527864
0.59800687 0.30961180 0.10117106
0.61433792 0.32210870 0.10728899
0.63068348 0.33480700 0.11363759
0.64704332 0.34770562 0.12022209
0.66341707 0.36080341 0.12704765
0.67977605 0.37407629 0.13410691
0.69609418 0.38750103 0.14139207
0.71236568 0.40107024 0.14890336
0.72858457 0.41477623 0.15664055
0.74474473 0.42861097 0.16460291
0.75182710 0.44256607 0.17278915
0.75182710 0.45663282 0.18119745
0.75182710 0.47080211 0.18982539
0.75182710 0.48506450 0.19866993
0.75182710 0.49941016 0.20772740
0.75182710 0.51382886 0.21699345
0.75182710 0.52831002 0.22646306
0.75182710 0.54284265 0.23613047
0.75182710 0.55741538 0.24598916
0.75182710 0.57201641 0.25603186
0.75182710 0.58663358 0.26625051
0.75182710 0.60125430 0.27663620
0.75182710 0.61586560 0.28717921
0.01709028 0.05720417 0.00000073
0.01684582 0.05651924 0.00000073
0.01666927 0.05602322 0.00000073
0.01650056 0.05554820 0.00000073
0.01633922 0.05509296 0.00000073
0.01622964 0.05465946 0.00000073
0.02345867 0.05434736 0.00000073
0.03653981 0.05425325 0.00000073
0.05143452 0.05444610 0.00000073
0.06698575 0.05500042 0.00000073
0.08281479 0.05598766 0.00000073
0.09877133 0.05747015 0.00000073
0.11478841 0.05949639 0.00000073
0.13083473 0.06209796 0.00000073
0.14689575 0.06528872 0.00000073
0.16296514 0.06906618 0.00000073
0.17904066 0.07341459 0.00000073
0.19512207 0.07830890 0.00000073
0.21121005 0.08371861 0.00000073
0.22730565 0.08961104 0.00000073
0.24341000 0.09595373 0.00636319
0.25952419 0.10271598 0.01071312
0.27564916 0.10986973 0.01437720
0.29178573 0.11738985 0.01780692
0.30793456 0.12525427 0.02115982
0.32409619 0.13344372 0.02451383
0.34027101 0.14194150 0.02791495
0.35645932 0.15073321 0.03139364
0.37266129 0.15980641 0.03497176
0.38887704 0.16915035 0.03866604
0.40510658 0.17875575 0.04248990
0.42134986 0.18861453 0.04645457
0.43760678 0.19871968 0.05056975
0.45387718 0.20906503 0.05484403
0.47016085 0.21964519 0.05928522
0.48645754 0.23045536 0.06390052
0.50276696 0.24149129 0.06869669
0.51908890 0.25274924 0.07368014
0.53542354 0.26422616 0.07885721
0.55177084 0.27591921 0.08423394
0.56813069 0.28782580 0.08981622
0.58450294 0.29994359 0.09560983
0.60088743 0.31227045 0.10162045
0.61728398 0.32480442 0.10785369
0.63369239 0.33754371 0.11431513
0.65009984 0.35047676 0.12100497
0.66647095 0.36357343 0.12791278
0.68279852 0.37682490 0.13503893
0.69907679 0.39022334 0.14238394
0.71529982 0.40376064 0.14994781
0.73146149 0.41742839 0.15773003
0.74755553 0.43121790 0.16572953
0.75182710 0.44512014 0.17394467
0.75182710 0.45912575 0.18237320
0.75182710 0.47322507 0.19101225
0.75182710 0.48740803 0.19985830
0.75182710 0.50166426 0.20890716
0.75182710 0.51598298 0.21815394
0.75182710 0.53035308 0.22759304
0.75182710 0.54476303 0.23721807
0.75182710 0.55920096 0.24702193
0.75182710 0.57365459 0.25699667
0.75182710 0.58811125 0.26713357
0.75182710 0.60255790 0.27742305
0.75182710 0.61698108 0.28785468
0.02273003 0.07247740 0.00000073
0.02259677 0.07212709 0.00000073
0.02247326 0.07180198 0.00000073
0.02235851 0.07149958 0.00000073
0.02225193 0.07121838 0.00000073
0.02215351 0.07095845 0.00000073
0.02728438 0.07077950 0.00000073
0.03856191 0.07074898 0.00000073
0.05250331 0.07091227 0.00000073
0.06757829 0.07132233 0.00000073
0.08318333 0.07203464 0.00000073
0.09905699 0.07310409 0.00000073
0.11507400 0.07458197 0.00000073
0.13117014 0.07651333 0.00000073
0.14731124 0.07893467 0.00000073
0.16347894 0.08187237 0.00000073
0.17966342 0.08534193 0.00000073
0.19585963 0.08934818 0.00000073
0.21206519 0.09388650 0.00000073
0.22827914 0.09894447 0.00000073
0.24450133 0.10450403 0.00000073
0.26073200 0.11054339 0.00000073
0.27697156 0.11703887 0.00000073
0.29322046 0.12396631 0.00722714
0.30947915 0.13130203 0.01348927
0.32574803 0.13902360 0.01840600
0.34202741 0.14711021 0.02286602
0.35831753 0.15554283 0.02713725
0.37461856 0.16430429 0.03134394
0.39093061 0.17337923 0.03555636
0.40725369 0.18275393 0.03981941
0.42358778 0.19241625 0.04416432
0.43993278 0.20235540 0.04861431
0.45628856 0.21256182 0.05318748
0.47265493 0.22302704 0.05789859
0.48903167 0.23374354 0.06276007
0.50541851 0.24470460 0.06778270
0.52181515 0.25590425 0.07297604
0.53822164 0.26733736 0.07834888
0.55463806 0.27899943 0.08390936
0.57106430 0.29088633 0.08966503
0.58750025 0.30299433 0.09562306
0.60394575 0.31532010 0.10179029
0.62039719 0.32785797 0.10817190
0.63682083 0.34057923 0.11475992
0.65320384 0.35346998 0.12155372
0.66954065 0.36652173 0.12855503
0.68582551 0.37972583 0.13576503
0.70205252 0.39307344 0.14318429
0.71821557 0.40655553 0.15081279
0.73430841 0.42016282 0.15864993
0.75032459 0.43388579 0.16669446
0.75182710 0.44771462 0.17494449
0.75182710 0.46163922 0.18339751
0.75182710 0.47564921 0.19205030
0.75182710 0.48973386 0.20089896
0.75182710 0.50388213 0.20993887
0.75182710 0.51808264 0.21916467
0.75182710 0.53232366 0.22857025
0.75182710 0.54659311 0.23814871
0.75182710 0.56087854 0.24789236
0.75182710 0.57516714 0.25779269
0.75182710 0.58944572 0.26784035
0.75182710 0.60370074 0.27802514
0.75182710 0.61791825 0.28833600
0.02894821 0.08835040 0.00000073
0.02887087 0.08815819 0.00000073
0.02880383 0.08799149 0.00000073
0.02874622 0.08784817 0.00000073
0.02869740 0.08772666 0.00000073
0.02865712 0.08762638 0.00000073
0.03250223 0.08758647 0.00000073
0.04204445 0.08765453 0.00000073
0.05480559 0.08786144 0.00000073
0.06918639 0.08824493 0.00000073
0.08439983 0.08884652 0.00000073
0.10006538 0.08970988 0.00000073
0.11598830 0.09087916 0.00000073
0.13206292 0.09239737 0.00000073
0.14822935 0.09430473 0.00000073
0.16445274 0.09663717 0.00000073
0.18071251 0.09942488 0.00000073
0.19699644 0.10269127 0.00000073
0.21329734 0.10645225 0.00000073
0.22961101 0.11071613 0.00000073
0.24593509 0.11548401 0.00000073
0.26226831 0.12075061 0.00000073
0.27861003 0.12650542 0.00000073
0.29496000 0.13273395 0.00000073
0.31131816 0.13941898 0.00000073
0.32768457 0.14654165 0.00000073
0.34405930 0.15408243 0.01016535
0.36044245 0.16202186 0.01803049
0.37683407 0.17034102 0.02416594
0.39323419 0.17902197 0.02967697
0.40964278 0.18804791 0.03490620
0.42605979 0.19740331 0.04001340
0.44248511 0.20707394 0.04508881
0.45891861 0.21704684 0.05018980
0.47536009 0.22731025 0.05535598
0.49180933 0.23785355 0.06061647
0.50826609 0.24866715 0.06599378
0.52473007 0.25974241 0.07150599
0.54120110 0.27107159 0.07716821
0.55767933 0.28264800 0.08299351
0.57416470 0.29446551 0.08899330
0.59065700 0.30651849 0.09517776
0.60713301 0.31878505 0.10154649
0.62357110 0.33124355 0.10809819
0.63996589 0.34388398 0.11483718
0.65631185 0.35669638 0.12176689
0.67260326 0.36967080 0.12888991
0.68883422 0.38279722 0.13620805
0.70499866 0.39606557 0.14372235
0.72109033 0.40946564 0.15143312
0.73710282 0.42298708 0.15933994
0.75182710 0.43661933 0.16744164
0.75182710 0.45035165 0.17573634
0.75182710 0.46417304 0.18422142
0.75182710 0.47807229 0.19289348
0.75182710 0.49203787 0.20174841
0.75182710 0.50605800 0.21078127
0.75182710 0.52012057 0.21998638
0.75182710 0.53421318 0.22935722
0.75182710 0.54832310 0.23888645
0.75182710 0.56243727 0.24856593
0.75182710 0.57654228 0.25838664
0.75182710 0.59062438 0.26833869
0.75182710 0.60466948 0.27841135
0.75182710 0.61866312 0.28859297
0.03567459 0.10463723 0.00000073
0.03565566 0.10459249 0.00000073
0.03564739 0.10457294 0.00000073
0.03564898 0.10457669 0.00000073
0.03565979 0.10460225 0.00000073
0.03567946 0.10464874 0.00000073
0.03877424 0.10474421 0.00000073
0.04683918 0.10492212 0.00000073
0.05833489 0.10520421 0.00000073
0.07185177 0.10561770 0.00000073
0.08651569 0.10619351 0.00000073
