DIT_DOCS/ARRI_HDR_Lookfiles_3DLUTs_190319/3D_LUTs_for_monitor_grading_add_P3D65/ARRI_P3D65HLG-1K-100_65.cube
LUT_3D_SIZE 65
0.00000000 0.00000000 0.00000000
0.01318661 0.00000000 0.00066075
0.02246312 0.00000000 0.00112557
0.03150035 0.00000000 0.00157840
0.04062083 0.00000000 0.00203540
0.04998430 0.00000000 0.00250458
0.05967542 0.00000000 0.00299018
0.06975588 0.00000000 0.00349529
0.08026141 0.00000000 0.00402169
0.09122857 0.00000000 0.00457123
0.10269162 0.00000000 0.00514561
0.11468409 0.00000000 0.00574652
0.12723984 0.00000000 0.00637566
0.14039367 0.00000000 0.00703476
0.15418189 0.00000000 0.00772566
0.16864269 0.00000000 0.00845025
0.18380690 0.00000000 0.00921009
0.19972100 0.00000000 0.01000750
0.21645825 0.00000000 0.01084616
0.23410028 0.00000000 0.01173016
0.25273800 0.00000000 0.01266405
0.27247278 0.00000000 0.01365291
0.29341766 0.00000000 0.01470240
0.31569883 0.00000000 0.01581885
0.33945735 0.00000000 0.01700933
0.36485103 0.00000000 0.01828174
0.39205678 0.00000000 0.01964495
0.42127318 0.00000000 0.02110891
0.45272031 0.00000000 0.02268464
0.48617896 0.00000000 0.02436117
0.52068008 0.00000000 0.02612914
0.55331574 0.00000000 0.02799367
0.58418158 0.00000000 0.02996017
0.61361017 0.00000000 0.03203450
0.64185285 0.00000000 0.03422287
0.66910406 0.00000000 0.03653192
0.69551758 0.00000000 0.03896869
0.72121721 0.00000000 0.04154073
0.74630423 0.00000000 0.04425607
0.77086262 0.00000000 0.04712332
0.79496289 0.00000000 0.05015167
0.81866493 0.00000000 0.05335095
0.84202012 0.00000000 0.05673169
0.86507296 0.00000000 0.06030518
0.88786236 0.00000000 0.06408351
0.91042262 0.00000000 0.06807965
0.93278419 0.00000000 0.07230754
0.95497437 0.00000000 0.07678214
0.97701774 0.00000000 0.08151954
0.99893665 0.00000000 0.08653707
1.00000000 0.00000000 0.09185336
1.00000000 0.00000000 0.09758426
1.00000000 0.00000000 0.10480466
1.00000000 0.00000000 0.11255629
1.00000000 0.00000000 0.12088207
1.00000000 0.00000000 0.12982882
1.00000000 0.00000000 0.13944776
1.00000000 0.00000000 0.14979488
1.00000000 0.00000000 0.16092731
1.00000000 0.00000000 0.17286790
1.00000000 0.00000000 0.18566347
1.00000000 0.00000000 0.19937271
1.00000000 0.00000000 0.21405771
1.00000000 0.00000000 0.22978402
1.00000000 0.00000000 0.24662071
0.00000000 0.00547701 0.00000000
0.00188852 0.00200784 0.00000000
0.01375384 0.00000000 0.00068917
0.02309718 0.00000000 0.00115734
0.03219885 0.00000000 0.00161340
0.04140768 0.00000000 0.00207483
0.05088694 0.00000000 0.00254981
0.06071806 0.00000000 0.00304242
0.07095743 0.00000000 0.00355549
0.08165029 0.00000000 0.00409128
0.09283668 0.00000000 0.00465181
0.10455450 0.00000000 0.00523896
0.11684010 0.00000000 0.00585456
0.12972140 0.00000000 0.00650000
0.14325152 0.00000000 0.00717796
0.15749589 0.00000000 0.00789171
0.17252678 0.00000000 0.00864487
0.18842426 0.00000000 0.00944145
0.20527727 0.00000000 0.01028591
0.22318479 0.00000000 0.01118321
0.24225715 0.00000000 0.01213888
0.26261754 0.00000000 0.01315909
0.28440368 0.00000000 0.01425073
0.30776988 0.00000000 0.01542155
0.33288928 0.00000000 0.01668022
0.35988951 0.00000000 0.01803313
0.38845710 0.00000000 0.01946458
0.41858599 0.00000000 0.02097426
0.45036182 0.00000000 0.02256647
0.48387547 0.00000000 0.02424575
0.51859219 0.00000000 0.02601695
0.55151504 0.00000000 0.02788520
0.58262454 0.00000000 0.02985598
0.61226357 0.00000000 0.03193511
0.64069139 0.00000000 0.03412887
0.66810796 0.00000000 0.03644394
0.69467098 0.00000000 0.03888742
0.72050721 0.00000000 0.04146689
0.74572014 0.00000000 0.04419045
0.77039547 0.00000000 0.04706677
0.79460509 0.00000000 0.05010509
0.81840996 0.00000000 0.05331532
0.84186234 0.00000000 0.05670806
0.86500746 0.00000000 0.06029468
0.88788480 0.00000000 0.06408735
0.91052917 0.00000000 0.06809915
0.93297143 0.00000000 0.07234411
0.95523922 0.00000000 0.07683730
0.97735745 0.00000000 0.08159493
0.99934873 0.00000000 0.08663445
1.00000000 0.00000000 0.09197464
1.00000000 0.00000000 0.09776114
1.00000000 0.00000000 0.10501794
1.00000000 0.00000000 0.11280977
1.00000000 0.00000000 0.12117992
1.00000000 0.00000000 0.13017563
1.00000000 0.00000000 0.13984846
1.00000000 0.00000000 0.15022800
1.00000000 0.00000000 0.16134452
1.00000000 0.00000000 0.17324806
1.00000000 0.00000000 0.18599154
1.00000000 0.00000000 0.19963085
1.00000000 0.00000000 0.21422483
1.00000000 0.00000000 0.22983535
1.00000000 0.00000000 0.24652724
0.00000000 0.00892206 0.00000000
0.00000000 0.00636951 0.00000000
0.00310697 0.00330327 0.00000000
0.01454072 0.00000000 0.00072860
0.02393078 0.00000000 0.00119911
0.03316124 0.00000000 0.00166162
0.04254556 0.00000000 0.00213185
0.05222628 0.00000000 0.00261692
0.06228751 0.00000000 0.00312107
0.07278581 0.00000000 0.00364711
0.08376649 0.00000000 0.00419732
0.09529068 0.00000000 0.00477477
0.10742218 0.00000000 0.00538265
0.12022854 0.00000000 0.00602434
0.13378281 0.00000000 0.00670351
0.14816486 0.00000000 0.00742416
0.16346273 0.00000000 0.00819069
0.17977397 0.00000000 0.00900801
0.19720705 0.00000000 0.00988154
0.21588296 0.00000000 0.01081734
0.23593699 0.00000000 0.01182219
0.25752077 0.00000000 0.01290370
0.28061937 0.00000000 0.01406111
0.30499647 0.00000000 0.01528258
0.33071246 0.00000000 0.01657115
0.35783974 0.00000000 0.01793042
0.38645500 0.00000000 0.01936426
0.41663955 0.00000000 0.02087673
0.44847965 0.00000000 0.02247216
0.48206683 0.00000000 0.02415512
0.51697300 0.00000000 0.02593050
0.55015096 0.00000000 0.02780348
0.58147733 0.00000000 0.02977956
0.61130460 0.00000000 0.03186460
0.63989815 0.00000000 0.03406487
0.66746309 0.00000000 0.03638713
0.69416061 0.00000000 0.03883852
0.72012001 0.00000000 0.04142668
0.74544675 0.00000000 0.04415978
0.77022805 0.00000000 0.04704652
0.79453696 0.00000000 0.05009622
0.81843540 0.00000000 0.05331887
0.84197638 0.00000000 0.05672514
0.86520576 0.00000000 0.06032647
0.88816355 0.00000000 0.06413515
0.91088496 0.00000000 0.06816432
0.93340125 0.00000000 0.07242813
0.95574034 0.00000000 0.07694177
0.97792740 0.00000000 0.08172156
0.99998528 0.00000000 0.08678510
1.00000000 0.00000000 0.09215130
1.00000000 0.00000000 0.09800728
1.00000000 0.00000000 0.10530409
1.00000000 0.00000000 0.11313996
1.00000000 0.00000000 0.12155852
1.00000000 0.00000000 0.13059691
1.00000000 0.00000000 0.14027368
1.00000000 0.00000000 0.15063039
1.00000000 0.00000000 0.16171234
1.00000000 0.00000000 0.17356735
1.00000000 0.00000000 0.18624574
1.00000000 0.00000000 0.19980043
1.00000000 0.00000000 0.21428690
1.00000000 0.00000000 0.22976314
1.00000000 0.00000000 0.24628957
0.00000000 0.01220230 0.00000000
0.00000000 0.00995438 0.00000000
0.00000000 0.00757728 0.00000000
0.00456953 0.00485825 0.00000000
0.01584382 0.00000000 0.00066772
0.02530178 0.00000000 0.00126781
0.03471317 0.00000000 0.00173939
0.04433740 0.00000000 0.00222163
0.05431642 0.00000000 0.00272166
0.06475095 0.00000000 0.00324450
0.07572556 0.00000000 0.00379441
0.08731958 0.00000000 0.00437536
0.09961275 0.00000000 0.00499134
0.11268865 0.00000000 0.00564654
0.12663713 0.00000000 0.00634546
0.14155630 0.00000000 0.00709302
0.15755434 0.00000000 0.00789464
0.17475138 0.00000000 0.00875634
0.19327391 0.00000000 0.00968446
0.21296431 0.00000000 0.01067109
0.23374568 0.00000000 0.01171239
0.25567666 0.00000000 0.01281130
0.27881905 0.00000000 0.01397090
0.30323808 0.00000000 0.01519448
0.32900268 0.00000000 0.01648547
0.35618582 0.00000000 0.01784755
0.38486477 0.00000000 0.01928458
0.41512146 0.00000000 0.02080066
0.44704277 0.00000000 0.02240016
0.48072095 0.00000000 0.02408768
0.51579927 0.00000000 0.02586815
0.54920074 0.00000000 0.02774678
0.58071772 0.00000000 0.02972912
0.61071116 0.00000000 0.03182107
0.63945175 0.00000000 0.03402893
0.66714857 0.00000000 0.03635946
0.69396601 0.00000000 0.03881990
0.72003559 0.00000000 0.04141793
0.74546443 0.00000000 0.04416176
0.77034105 0.00000000 0.04706018
0.79473951 0.00000000 0.05012258
0.81872254 0.00000000 0.05335900
0.84234380 0.00000000 0.05678020
0.86564968 0.00000000 0.06039772
0.88868064 0.00000000 0.06422391
0.91147224 0.00000000 0.06827203
0.93405606 0.00000000 0.07255634
0.95646028 0.00000000 0.07709212
0.97871031 0.00000000 0.08189586
1.00000000 0.00000000 0.08698525
1.00000000 0.00000000 0.09237937
1.00000000 0.00000000 0.09831771
1.00000000 0.00000000 0.10565787
1.00000000 0.00000000 0.11353868
1.00000000 0.00000000 0.12197701
1.00000000 0.00000000 0.13100444
1.00000000 0.00000000 0.14065986
1.00000000 0.00000000 0.15098431
1.00000000 0.00000000 0.16202102
1.00000000 0.00000000 0.17381541
1.00000000 0.00000000 0.18641511
1.00000000 0.00000000 0.19986993
1.00000000 0.00000000 0.21423180
1.00000000 0.00000000 0.22955471
1.00000000 0.00000000 0.24589453
0.00000000 0.01559385 0.00000000
0.00000000 0.01354878 0.00000000
0.00000000 0.01146682 0.00000000
0.00000000 0.00932554 0.00000000
0.00650422 0.00691517 0.00000000
0.01770448 0.00359196 0.00000000
0.02754078 0.00000000 0.00130197
0.03732376 0.00000000 0.00187020
0.04746946 0.00000000 0.00237857
0.05812085 0.00000000 0.00291229
0.06938780 0.00000000 0.00347684
0.08137085 0.00000000 0.00407728
0.09416972 0.00000000 0.00471860
0.10788836 0.00000000 0.00540601
0.12263829 0.00000000 0.00614509
0.13848534 0.00000000 0.00693914
0.15525064 0.00000000 0.00777921
0.17294971 0.00000000 0.00866606
0.19163428 0.00000000 0.00960230
0.21135824 0.00000000 0.01059061
0.23217794 0.00000000 0.01163384
0.25415260 0.00000000 0.01273493
0.27734455 0.00000000 0.01389702
0.30181958 0.00000000 0.01512340
0.32764720 0.00000000 0.01641755
0.35490094 0.00000000 0.01778317
0.38365870 0.00000000 0.01922415
0.41400303 0.00000000 0.02074462
0.44602150 0.00000000 0.02234898
0.47980709 0.00000000 0.02404189
0.51504638 0.00000000 0.02582829
0.54864063 0.00000000 0.02771345
0.58032273 0.00000000 0.02970294
0.61046079 0.00000000 0.03180274
0.63933029 0.00000000 0.03401916
0.66714312 0.00000000 0.03635898
0.69406644 0.00000000 0.03882951
0.72023367 0.00000000 0.04143848
0.74575334 0.00000000 0.04419418
0.77071502 0.00000000 0.04710544
0.79519364 0.00000000 0.05018173
0.81925260 0.00000000 0.05343317
0.84294610 0.00000000 0.05687060
0.86632097 0.00000000 0.06050563
0.88941804 0.00000000 0.06435072
0.91227320 0.00000000 0.06841923
0.93491824 0.00000000 0.07272551
0.95738161 0.00000000 0.07728499
0.97968887 0.00000000 0.08211426
1.00000000 0.00000000 0.08723116
1.00000000 0.00000000 0.09265492
1.00000000 0.00000000 0.09868752
1.00000000 0.00000000 0.10605747
1.00000000 0.00000000 0.11393912
1.00000000 0.00000000 0.12236601
1.00000000 0.00000000 0.13137349
1.00000000 0.00000000 0.14099879
1.00000000 0.00000000 0.15128105
1.00000000 0.00000000 0.16226130
1.00000000 0.00000000 0.17398248
1.00000000 0.00000000 0.18648937
1.00000000 0.00000000 0.19982854
1.00000000 0.00000000 0.21404828
1.00000000 0.00000000 0.22919841
1.00000000 0.00000000 0.24533014
0.00000000 0.01927328 0.00000000
0.00000000 0.01740588 0.00000000
0.00000000 0.01556989 0.00000000
0.00000000 0.01377454 0.00000000
0.00000000 0.01203654 0.00000000
0.00948108 0.01008012 0.00000000
0.02089754 0.00762007 0.00000000
0.03156952 0.00507157 0.00000000
0.04235510 0.00115739 0.00159055
0.05353537 0.00000000 0.00246284
0.06541730 0.00000000 0.00317502
0.07813932 0.00000000 0.00386087
0.09169662 0.00000000 0.00456274
0.10598953 0.00000000 0.00529229
0.12106829 0.00000000 0.00605591
0.13698288 0.00000000 0.00685820
0.15378326 0.00000000 0.00770289
0.17152035 0.00000000 0.00859328
0.19024660 0.00000000 0.00953244
0.21001654 0.00000000 0.01052338
0.23088718 0.00000000 0.01156916
0.25291830 0.00000000 0.01267308
0.27617284 0.00000000 0.01383831
0.30071716 0.00000000 0.01506816
0.32662135 0.00000000 0.01636615
0.35395957 0.00000000 0.01773600
0.38281033 0.00000000 0.01918164
0.41325686 0.00000000 0.02070723
0.44538743 0.00000000 0.02231721
0.47929572 0.00000000 0.02401627
0.51468863 0.00000000 0.02580939
0.54844599 0.00000000 0.02770188
0.58026871 0.00000000 0.02969937
0.61053071 0.00000000 0.03180785
0.63951142 0.00000000 0.03403373
0.66742522 0.00000000 0.03638380
0.69444096 0.00000000 0.03886537
0.72069384 0.00000000 0.04148628
0.74629350 0.00000000 0.04425487
0.77133041 0.00000000 0.04718003
0.79588017 0.00000000 0.05027131
0.82000673 0.00000000 0.05353890
0.84376473 0.00000000 0.05699372
0.86720136 0.00000000 0.06064745
0.89035774 0.00000000 0.06451265
0.91327001 0.00000000 0.06860279
0.93597019 0.00000000 0.07293234
0.95848688 0.00000000 0.07751683
0.98084581 0.00000000 0.08237300
1.00000000 0.00000000 0.08751881
1.00000000 0.00000000 0.09296827
1.00000000 0.00000000 0.09907189
1.00000000 0.00000000 0.10643763
1.00000000 0.00000000 0.11430849
1.00000000 0.00000000 0.12271664
1.00000000 0.00000000 0.13169590
1.00000000 0.00000000 0.14128176
1.00000000 0.00000000 0.15151132
1.00000000 0.00000000 0.16242335
1.00000000 0.00000000 0.17405815
1.00000000 0.00000000 0.18645756
1.00000000 0.00000000 0.19966481
1.00000000 0.00000000 0.21372438
1.00000000 0.00000000 0.22868186
1.00000000 0.00000000 0.24458367
0.00000000 0.02353187 0.00000000
0.00000000 0.02196986 0.00000000
0.00000000 0.02051062 0.00000000
0.00000000 0.01916683 0.00000000
0.00000000 0.01795540 0.00000000
0.00000000 0.01689284 0.00000000
0.01463535 0.01556004 0.00000000
0.02670225 0.01403323 0.00000000
0.03862818 0.01258125 0.00000000
0.05077978 0.01109464 0.00000000
0.06333525 0.00941672 0.00000000
0.07643093 0.00731094 0.00191083
0.09016116 0.00398973 0.00324706
0.10454711 0.00000000 0.00430551
0.11967818 0.00000000 0.00527853
0.13564422 0.00000000 0.00622722
0.15249675 0.00000000 0.00717979
0.17028788 0.00000000 0.00815259
0.18907109 0.00000000 0.00915647
0.20890177 0.00000000 0.01019942
0.22983770 0.00000000 0.01128781
0.25193940 0.00000000 0.01242708
0.27527047 0.00000000 0.01362216
0.29989796 0.00000000 0.01487768
0.32589263 0.00000000 0.01619811
0.35332931 0.00000000 0.01758792
0.38228719 0.00000000 0.01905164
0.41285021 0.00000000 0.02059390
0.44510738 0.00000000 0.02221949
0.47915315 0.00000000 0.02393342
0.51469489 0.00000000 0.02574093
0.54858790 0.00000000 0.02764753
0.58052853 0.00000000 0.02965906
0.61089528 0.00000000 0.03178168
0.63997067 0.00000000 0.03402191
0.66797126 0.00000000 0.03638670
0.69506694 0.00000000 0.03888344
0.72139423 0.00000000 0.04152008
0.74706375 0.00000000 0.04430508
0.77216664 0.00000000 0.04724745
0.79677904 0.00000000 0.05035683
0.82096532 0.00000000 0.05364351
0.84478048 0.00000000 0.05711853
0.86827199 0.00000000 0.06079369
0.89148120 0.00000000 0.06468166
0.91444444 0.00000000 0.06879603
0.93719389 0.00000000 0.07315137
0.95975831 0.00000000 0.07776337
0.98215760 0.00000000 0.08264753
1.00000000 0.00000000 0.08780801
1.00000000 0.00000000 0.09325640
1.00000000 0.00000000 0.09941519
1.00000000 0.00000000 0.10677151
1.00000000 0.00000000 0.11462549
1.00000000 0.00000000 0.12300790
1.00000000 0.00000000 0.13195095
1.00000000 0.00000000 0.14148826
1.00000000 0.00000000 0.15165485
1.00000000 0.00000000 0.16248708
1.00000000 0.00000000 0.17402255
1.00000000 0.00000000 0.18630005
1.00000000 0.00000000 0.19935934
1.00000000 0.00000000 0.21324105
1.00000000 0.00000000 0.22798640
1.00000000 0.00000000 0.24363699
0.00000000 0.02901747 0.00000000
0.00000000 0.02792861 0.00000000
0.00000000 0.02700464 0.00000000
0.00000000 0.02625895 0.00000000
0.00000000 0.02570709 0.00000000
0.00000000 0.02532111 0.00000000
0.00848476 0.02483188 0.00000000
0.02246980 0.02388950 0.00000000
0.03508878 0.02271205 0.00000000
0.04773764 0.02140298 0.00000000
0.06068800 0.02001482 0.00000000
0.07409478 0.01854369 0.00000000
0.08807230 0.01694359 0.00000000
0.10271101 0.01512922 0.00000000
0.11808579 0.01295298 0.00222711
0.13426337 0.01010908 0.00413886
0.15130660 0.00552829 0.00557013
0.16921299 0.00000000 0.00685026
0.18806990 0.00000000 0.00807223
0.20797723 0.00000000 0.00928009
0.22899375 0.00000000 0.01049809
0.25118086 0.00000000 0.01174214
0.27460299 0.00000000 0.01302380
0.29932795 0.00000000 0.01435216
0.32542726 0.00000000 0.01573487
0.35297649 0.00000000 0.01717868
0.38205557 0.00000000 0.01868984
0.41274921 0.00000000 0.02027429
0.44514718 0.00000000 0.02193788
0.47934477 0.00000000 0.02368642
0.51503182 0.00000000 0.02552583
0.54903569 0.00000000 0.02746218
0.58107370 0.00000000 0.02950174
0.61152782 0.00000000 0.03165108
0.64068288 0.00000000 0.03391706
0.66875709 0.00000000 0.03630692
0.69592136 0.00000000 0.03882827
0.72231271 0.00000000 0.04148929
0.74804270 0.00000000 0.04429863
0.77320298 0.00000000 0.04726551
0.79787010 0.00000000 0.05039974
0.82210874 0.00000000 0.05371178
0.84597416 0.00000000 0.05721283
0.86951406 0.00000000 0.06091484
0.89276994 0.00000000 0.06483065
0.91577830 0.00000000 0.06897398
0.93857129 0.00000000 0.07335955
0.96113723 0.00000000 0.07799454
0.98346637 0.00000000 0.08288615
1.00000000 0.00000000 0.08804765
1.00000000 0.00000000 0.09349280
1.00000000 0.00000000 0.09969961
1.00000000 0.00000000 0.10704191
1.00000000 0.00000000 0.11487351
1.00000000 0.00000000 0.12322367
1.00000000 0.00000000 0.13212292
1.00000000 0.00000000 0.14160295
1.00000000 0.00000000 0.15169660
1.00000000 0.00000000 0.16243774
1.00000000 0.00000000 0.17386120
1.00000000 0.00000000 0.18600260
1.00000000 0.00000000 0.19889819
1.00000000 0.00000000 0.21258465
1.00000000 0.00000000 0.22709879
1.00000000 0.00000000 0.24247732
0.00000000 0.03647382 0.00000000
0.00000000 0.03605089 0.00000000
0.00000000 0.03573782 0.00000000
0.00000000 0.03542388 0.00000000
0.00000000 0.03510857 0.00000000
0.00000000 0.03479297 0.00000000
0.00000000 0.03446351 0.00000000
0.01738766 0.03383257 0.00000000
0.03094718 0.03290250 0.00000000
0.04409584 0.03177871 0.00000000
0.05746811 0.03051949 0.00000000
0.07124928 0.02916747 0.00000000
0.08555270 0.02773777 0.00000000
0.10047170 0.02621949 0.00000000
0.11608866 0.02457955 0.00000000
0.13247816 0.02276284 0.00000000
0.14970927 0.02068489 0.00000000
0.16784649 0.01820923 0.00327299
0.18695427 0.01508134 0.00552047
0.20709699 0.01065500 0.00727095
0.22832736 0.00000000 0.00884879
0.25061499 0.00000000 0.01035157
0.27414278 0.00000000 0.01183237
0.29897945 0.00000000 0.01331990
0.32519735 0.00000000 0.01483337
0.35287289 0.00000000 0.01638693
0.38208682 0.00000000 0.01799182
0.41292463 0.00000000 0.01965753
0.44547696 0.00000000 0.02139248
0.47983992 0.00000000 0.02320447
0.51566841 0.00000000 0.02510092
0.54976067 0.00000000 0.02708909
0.58187740 0.00000000 0.02917623
0.61240301 0.00000000 0.03136967
0.64162400 0.00000000 0.03367695
0.66975973 0.00000000 0.03610585
0.69698193 0.00000000 0.03866446
0.72342784 0.00000000 0.04136130
0.74920958 0.00000000 0.04420542
0.77441924 0.00000000 0.04720634
0.79913364 0.00000000 0.05037415
0.82341771 0.00000000 0.05371958
0.84732689 0.00000000 0.05725406
0.87090901 0.00000000 0.06098978
0.89420572 0.00000000 0.06493976
0.91723537 0.00000000 0.06911450
0.93998030 0.00000000 0.07351816
0.96246113 0.00000000 0.07816221
0.98469745 0.00000000 0.08305901
1.00000000 0.00000000 0.08822130
1.00000000 0.00000000 0.09366229
1.00000000 0.00000000 0.09990951
1.00000000 0.00000000 0.10723348
1.00000000 0.00000000 0.11503739
1.00000000 0.00000000 0.12334898
1.00000000 0.00000000 0.13219701
1.00000000 0.00000000 0.14161116
1.00000000 0.00000000 0.15162203
1.00000000 0.00000000 0.16226094
1.00000000 0.00000000 0.17355984
1.00000000 0.00000000 0.18555116
1.00000000 0.00000000 0.19826756
1.00000000 0.00000000 0.21174170
1.00000000 0.00000000 0.22600599
1.00000000 0.00000000 0.24109219
0.00000000 0.04609003 0.00000000
0.00000000 0.04582099 0.00000000
0.00000000 0.04555430 0.00000000
0.00000000 0.04528859 0.00000000
0.00000000 0.04502312 0.00000000
0.00000000 0.04475819 0.00000000
0.00000000 0.04448538 0.00000000
0.00969145 0.04412696 0.00000000
0.02611341 0.04340596 0.00000000
0.03996234 0.04248726 0.00000000
0.05376709 0.04139588 0.00000000
0.06792511 0.04016830 0.00000000
0.08258106 0.03883665 0.00000000
0.09782677 0.03741915 0.00000000
0.11374155 0.03591746 0.00000000
0.13040027 0.03431750 0.00000000
0.14787492 0.03259039 0.00000000
0.16623526 0.03069163 0.00000000
0.18554955 0.02855668 0.00000000
0.20588543 0.02609006 0.00000000
0.22730868 0.02313932 0.00514193
0.24989043 0.01942592 0.00756020
0.27370146 0.01428151 0.00958178
0.29881490 0.00352801 0.01144483
0.32517424 0.00000000 0.01323558
0.35298963 0.00000000 0.01500680
0.38235168 0.00000000 0.01678870
0.41334677 0.00000000 0.01860208
0.44606641 0.00000000 0.02046270
0.48060760 0.00000000 0.02238339
0.51657265 0.00000000 0.02437519
0.55073337 0.00000000 0.02644805
0.58291219 0.00000000 0.02861126
0.61349508 0.00000000 0.03087374
0.64276963 0.00000000 0.03324429
0.67095593 0.00000000 0.03573172
0.69822624 0.00000000 0.03834499
0.72471806 0.00000000 0.04109330
0.75054351 0.00000000 0.04398628
0.77579513 0.00000000 0.04703399
0.80054991 0.00000000 0.05024697
0.82487294 0.00000000 0.05363636
0.84881975 0.00000000 0.05721393
0.87243319 0.00000000 0.06099135
0.89570601 0.00000000 0.06497296
0.91865821 0.00000000 0.06916786
0.94131629 0.00000000 0.07358727
0.96370281 0.00000000 0.07824277
0.98583695 0.00000000 0.08314630
1.00000000 0.00000000 0.08831014
1.00000000 0.00000000 0.09374690
1.00000000 0.00000000 0.10002675
1.00000000 0.00000000 0.10732853
1.00000000 0.00000000 0.11509988
1.00000000 0.00000000 0.12336694
1.00000000 0.00000000 0.13215665
1.00000000 0.00000000 0.14149666
1.00000000 0.00000000 0.15141522
1.00000000 0.00000000 0.16194106
1.00000000 0.00000000 0.17310323
1.00000000 0.00000000 0.18493086
1.00000000 0.00000000 0.19745301
1.00000000 0.00000000 0.21069832
1.00000000 0.00000000 0.22469474
1.00000000 0.00000000 0.23946914
0.00000000 0.05642759 0.00000000
0.00000000 0.05620276 0.00000000
0.00000000 0.05598144 0.00000000
0.00000000 0.05576241 0.00000000
0.00000000 0.05554486 0.00000000
0.00000000 0.05532866 0.00000000
0.00000000 0.05510806 0.00000000
0.00000000 0.05487500 0.00000000
0.01988839 0.05439715 0.00000000
0.03522663 0.05366367 0.00000000
0.04961895 0.05275400 0.00000000
0.06417517 0.05168339 0.00000000
0.07918363 0.05047606 0.00000000
0.09476732 0.04915608 0.00000000
0.11100715 0.04774042 0.00000000
0.12797415 0.04623548 0.00000000
0.14573785 0.04463619 0.00000000
0.16436784 0.04292613 0.00000000
0.18393395 0.04107747 0.00000000
0.20450635 0.03904968 0.00000000
0.22615581 0.03678601 0.00000000
0.24895424 0.03420610 0.00000000
0.27297382 0.03119033 0.00440219
0.29829040 0.02754485 0.00779680
0.32498363 0.02290405 0.01035804
0.35313519 0.01634137 0.01263358
0.38282056 0.00000000 0.01478335
0.41398562 0.00000000 0.01687629
0.44688498 0.00000000 0.01896182
0.48161660 0.00000000 0.02106889
0.51771194 0.00000000 0.02321863
0.55192389 0.00000000 0.02542776
0.58415031 0.00000000 0.02771033
0.61477804 0.00000000 0.03007872
0.64409522 0.00000000 0.03254432
0.67232233 0.00000000 0.03511797
0.69963193 0.00000000 0.03781021
0.72616172 0.00000000 0.04063151
0.75202361 0.00000000 0.04359252
0.77731038 0.00000000 0.04670417
0.80209918 0.00000000 0.04997775
0.82645501 0.00000000 0.05342501
0.85039885 0.00000000 0.05705267
0.87394823 0.00000000 0.06086739
0.89713946 0.00000000 0.06487972
0.92000328 0.00000000 0.06910043
0.94256578 0.00000000 0.07354057
0.96484909 0.00000000 0.07821146
0.98687198 0.00000000 0.08312468
1.00000000 0.00000000 0.08829205
1.00000000 0.00000000 0.09372565
1.00000000 0.00000000 0.10003041
1.00000000 0.00000000 0.10730682
1.00000000 0.00000000 0.11504135
1.00000000 0.00000000 0.12325849
1.00000000 0.00000000 0.13198333
1.00000000 0.00000000 0.14124141
1.00000000 0.00000000 0.15105863
1.00000000 0.00000000 0.16146107
1.00000000 0.00000000 0.17247482
1.00000000 0.00000000 0.18412574
1.00000000 0.00000000 0.19643922
1.00000000 0.00000000 0.20943990
1.00000000 0.00000000 0.22315130
1.00000000 0.00000000 0.23759544
0.00000000 0.06745036 0.00000000
0.00000000 0.06727052 0.00000000
0.00000000 0.06709502 0.00000000
0.00000000 0.06692276 0.00000000
0.00000000 0.06675294 0.00000000
0.00000000 0.06658519 0.00000000
0.00000000 0.06641524 0.00000000
0.00000000 0.06623629 0.00000000
0.00918192 0.06600482 0.00000000
0.02945961 0.06542745 0.00000000
0.04491129 0.06468821 0.00000000
