DIT_DOCS/ARRI_HDR_Lookfiles_3DLUTs_190319/3D_LUTs_for_monitor_grading_add_P3D65/ARRI_Rec2100HLG-1K-200_65.cube
LUT_3D_SIZE 65
0.00000000 0.00000000 0.00000000
0.01159740 0.00251614 0.00043653
0.01975593 0.00428620 0.00074362
0.02770403 0.00601060 0.00104278
0.03572533 0.00775088 0.00134471
0.04396034 0.00953753 0.00165467
0.05248353 0.01138669 0.00197549
0.06134912 0.01331015 0.00230919
0.07058855 0.01531471 0.00265696
0.08023399 0.01740736 0.00302002
0.09031554 0.01959463 0.00339949
0.10086272 0.02188292 0.00379649
0.11190528 0.02427869 0.00421213
0.12347386 0.02678858 0.00464758
0.13560036 0.02941951 0.00510402
0.14831839 0.03217878 0.00558273
0.16165506 0.03507227 0.00608472
0.17565124 0.03810885 0.00661154
0.19037137 0.04130249 0.00716561
0.20588723 0.04466878 0.00774963
0.22227880 0.04822505 0.00836661
0.23963520 0.05199065 0.00901991
0.25805587 0.05598715 0.00971326
0.27765179 0.06023863 0.01045086
0.29854700 0.06477200 0.01123736
0.32088031 0.06961738 0.01207799
0.34480731 0.07480853 0.01297860
0.37050264 0.08038332 0.01394578
0.39816004 0.08638380 0.01498681
0.42761234 0.09277370 0.01609540
0.45871801 0.09952231 0.01726622
0.49157341 0.10665053 0.01850290
0.52512187 0.11418067 0.01980931
0.55684314 0.12213675 0.02118962
0.58699608 0.13054444 0.02264828
0.61587040 0.13943109 0.02419003
0.64368775 0.14882596 0.02581996
0.67062162 0.15876034 0.02754348
0.69681042 0.16926774 0.02936642
0.72236646 0.18038406 0.03129500
0.74738222 0.19214778 0.03333590
0.77193489 0.20460020 0.03549628
0.79608963 0.21778565 0.03778384
0.81990209 0.23175174 0.04020683
0.84342025 0.24654968 0.04277414
0.86668588 0.26223456 0.04549532
0.88973567 0.27886570 0.04838067
0.91260212 0.29650703 0.05144128
0.93531425 0.31522748 0.05468911
0.95789818 0.33510148 0.05813707
0.98037760 0.35620941 0.06179911
1.00000000 0.37863821 0.06569030
1.00000000 0.40248196 0.06982698
1.00000000 0.42997044 0.07459598
1.00000000 0.46202318 0.08015684
1.00000000 0.49641769 0.08612398
1.00000000 0.53149346 0.09252725
1.00000000 0.56490798 0.09939861
1.00000000 0.59697365 0.10676947
1.00000000 0.62784682 0.11464808
1.00000000 0.65769992 0.12305687
1.00000000 0.68668391 0.13202446
1.00000000 0.71491577 0.14158015
1.00000000 0.74248733 0.15175394
1.00000000 0.76947152 0.16257658
0.00148186 0.00530841 0.00000000
0.00186648 0.00199227 0.00000000
0.01209627 0.00262438 0.00045531
0.02031358 0.00440718 0.00076461
0.02831835 0.00614388 0.00106591
0.03641735 0.00790102 0.00137075
0.04475420 0.00970976 0.00168456
0.05340051 0.01158564 0.00201000
0.06240586 0.01353942 0.00234897
0.07181005 0.01557973 0.00270294
0.08164829 0.01771421 0.00307325
0.09195392 0.01995009 0.00346116
0.10275889 0.02229431 0.00386786
0.11408778 0.02475220 0.00429428
0.12598729 0.02733388 0.00474218
0.13851497 0.03005186 0.00521373
0.15173438 0.03291991 0.00571131
0.16571595 0.03595332 0.00623757
0.18053789 0.03916905 0.00679547
0.19628725 0.04258599 0.00738828
0.21306107 0.04622519 0.00801965
0.23096768 0.05011017 0.00869366
0.25012823 0.05426719 0.00941487
0.27067841 0.05872571 0.01018838
0.29277049 0.06351875 0.01101993
0.31652046 0.06867148 0.01191388
0.34168095 0.07413024 0.01286093
0.36825695 0.07989610 0.01386125
0.39632965 0.08598668 0.01491791
0.42598540 0.09242072 0.01603416
0.45731618 0.09921817 0.01721345
0.49041996 0.10640028 0.01845949
0.52431576 0.11398972 0.01977618
0.55636675 0.12201070 0.02116775
0.58680824 0.13048937 0.02263872
0.61594003 0.13945356 0.02419393
0.64399071 0.14893301 0.02583853
0.67113874 0.15895953 0.02757804
0.69752618 0.16956721 0.02941838
0.72326811 0.18079255 0.03136587
0.74845913 0.19267470 0.03342732
0.77317807 0.20525568 0.03561000
0.79749141 0.21858059 0.03792175
0.82145585 0.23269789 0.04037098
0.84512021 0.24765972 0.04296672
0.86852698 0.26352214 0.04571871
0.89171344 0.28034557 0.04863742
0.91471258 0.29819511 0.05173415
0.93755385 0.31714098 0.05502109
0.96026372 0.33725900 0.05851138
0.98286620 0.35863108 0.06221925
1.00000000 0.38134582 0.06616005
1.00000000 0.40549911 0.07035043
1.00000000 0.43393764 0.07528425
1.00000000 0.46645527 0.08092577
1.00000000 0.50135234 0.08698066
1.00000000 0.53635992 0.09347927
1.00000000 0.56963898 0.10043666
1.00000000 0.60146876 0.10786736
1.00000000 0.63210160 0.11579760
1.00000000 0.66172729 0.12425417
1.00000000 0.69049096 0.13326444
1.00000000 0.71850522 0.14285625
1.00000000 0.74585853 0.15305797
1.00000000 0.77262119 0.16389851
0.00241395 0.00864741 0.00000000
0.00172333 0.00617343 0.00000000
0.00307071 0.00327766 0.00000000
0.01278832 0.00277452 0.00048135
0.02104672 0.00456624 0.00079220
0.02916475 0.00632751 0.00109777
0.03741810 0.00811814 0.00140842
0.04593213 0.00996532 0.00172889
0.05478081 0.01188511 0.00206196
0.06401389 0.01388829 0.00240949
0.07367121 0.01598352 0.00277300
0.08380655 0.01818246 0.00315449
0.09447599 0.02049727 0.00355609
0.10573897 0.02294086 0.00398003
0.11765972 0.02552716 0.00442873
0.13030849 0.02827140 0.00490483
0.14376271 0.03119039 0.00541125
0.15810817 0.03430275 0.00595122
0.17344027 0.03762916 0.00652832
0.18986542 0.04119272 0.00714656
0.20750259 0.04501924 0.00781043
0.22648516 0.04913765 0.00852494
0.24681016 0.05354731 0.00928997
0.26829160 0.05820787 0.01009854
0.29098771 0.06313196 0.01095282
0.31496725 0.06833450 0.01185542
0.34030325 0.07383134 0.01280907
0.36707329 0.07963930 0.01381670
0.39535992 0.08577629 0.01488141
0.42525095 0.09226138 0.01600651
0.45683989 0.09911483 0.01719553
0.49022639 0.10635828 0.01845220
0.52442169 0.11401478 0.01978053
0.55673798 0.12210890 0.02118479
0.58741393 0.13066706 0.02266955
0.61675718 0.13971764 0.02423975
0.64500145 0.14929090 0.02590062
0.67232884 0.15941920 0.02765779
0.69888413 0.17013721 0.02951727
0.72478440 0.18148206 0.03148549
0.75012581 0.19349360 0.03356939
0.77498839 0.20621459 0.03577636
0.79943957 0.21969092 0.03811439
0.82353682 0.23397195 0.04059202
0.84732961 0.24911074 0.04321846
0.87086092 0.26516440 0.04600362
0.89416846 0.28219446 0.04895818
0.91728560 0.30026721 0.05209364
0.94024209 0.31945422 0.05542242
0.96306468 0.33983273 0.05895790
0.98577761 0.36148622 0.06271459
1.00000000 0.38450500 0.06670814
1.00000000 0.40898683 0.07095551
1.00000000 0.43849040 0.07607411
1.00000000 0.47150298 0.08180150
1.00000000 0.50681667 0.08794267
1.00000000 0.54152076 0.09450665
1.00000000 0.57448203 0.10151668
1.00000000 0.60602686 0.10899745
1.00000000 0.63639630 0.11697409
1.00000000 0.66577203 0.12547220
1.00000000 0.69429324 0.13451772
1.00000000 0.72206803 0.14413694
1.00000000 0.74918141 0.15435649
1.00000000 0.77570094 0.16520331
0.00330145 0.01182667 0.00000000
0.00269325 0.00964795 0.00000000
0.00205011 0.00734402 0.00000000
0.00451620 0.00482057 0.00000000
0.01392045 0.00331741 0.00035171
0.02225249 0.00482784 0.00083759
0.03052965 0.00662364 0.00114914
0.03899400 0.00846004 0.00146774
0.04777037 0.01036414 0.00179808
0.05694736 0.01235516 0.00214351
0.06659935 0.01444923 0.00250681
0.07679610 0.01666149 0.00289062
0.08760773 0.01900715 0.00329757
0.09910776 0.02150217 0.00373043
0.11137521 0.02416369 0.00419218
0.12449637 0.02701042 0.00468606
0.13856638 0.03006301 0.00521566
0.15369089 0.03334439 0.00578495
0.16998156 0.03687877 0.00639813
0.18731643 0.04063970 0.00705062
0.20563925 0.04461497 0.00774029
0.22500564 0.04881666 0.00846925
0.24547438 0.05325750 0.00923969
0.26710767 0.05795101 0.01005398
0.28997142 0.06291147 0.01091457
0.31413557 0.06815406 0.01182411
0.33967437 0.07369490 0.01278540
0.36666673 0.07955109 0.01380139
0.39519659 0.08574086 0.01487526
0.42535328 0.09228358 0.01601037
0.45723192 0.09919989 0.01721028
0.49093388 0.10651178 0.01847883
0.52538330 0.11424271 0.01982008
0.55790220 0.12241769 0.02123836
0.58876078 0.13106346 0.02273832
0.61827131 0.14020883 0.02432496
0.64667107 0.14988466 0.02600363
0.67414454 0.16012385 0.02778004
0.70083822 0.17096168 0.02966030
0.72687049 0.18243596 0.03165099
0.75233850 0.19458722 0.03375912
0.77732306 0.20745899 0.03599226
0.80189221 0.22109801 0.03835850
0.82610392 0.23555451 0.04086658
0.85000805 0.25088253 0.04352585
0.87364793 0.26714024 0.04634641
0.89706156 0.28439030 0.04933914
0.92028253 0.30270027 0.05251576
0.94334081 0.32214305 0.05588890
0.96626331 0.34279734 0.05947224
0.98907444 0.36474825 0.06328052
1.00000000 0.38808782 0.06732972
1.00000000 0.41291570 0.07163714
1.00000000 0.44358407 0.07695782
1.00000000 0.47699584 0.08275446
1.00000000 0.51241989 0.08894882
1.00000000 0.54673541 0.09556357
1.00000000 0.57935754 0.10262194
1.00000000 0.61059631 0.11014754
1.00000000 0.64068141 0.11816436
1.00000000 0.66978639 0.12669664
1.00000000 0.69804443 0.13576884
1.00000000 0.72555909 0.14540557
1.00000000 0.75241187 0.15563157
1.00000000 0.77866756 0.16647169
0.00421907 0.01511381 0.00000000
0.00366575 0.01313170 0.00000000
0.00310246 0.01111383 0.00000000
0.00252312 0.00903847 0.00000000
0.00642831 0.00686155 0.00000000
0.01561057 0.00519813 0.00000000
0.02421243 0.00545326 0.00081177
0.03282561 0.00712176 0.00123556
0.04174858 0.00905767 0.00157142
0.05111630 0.01109006 0.00192403
0.06102540 0.01323992 0.00229701
0.07156428 0.01552641 0.00269369
0.08282068 0.01796857 0.00311738
0.09488599 0.02058623 0.00357152
0.10785830 0.02340067 0.00405980
0.12179862 0.02642512 0.00458452
0.13656618 0.02962905 0.00514037
0.15217983 0.03301655 0.00572807
0.16868864 0.03659826 0.00634947
0.18614383 0.04038530 0.00700648
0.20459920 0.04438933 0.00770115
0.22411140 0.04862265 0.00843559
0.24474026 0.05309823 0.00921206
0.26654907 0.05782982 0.01003295
0.28960491 0.06283195 0.01090077
0.31397890 0.06812007 0.01181822
0.33974659 0.07371056 0.01278812
0.36698825 0.07962085 0.01381350
0.39578928 0.08586945 0.01489757
0.42624056 0.09247608 0.01604376
0.45843888 0.09946175 0.01725571
0.49248739 0.10684882 0.01853730
0.52714040 0.11466118 0.01989268
0.55980223 0.12292429 0.02132625
0.59079425 0.13166533 0.02284274
0.62043029 0.14091344 0.02444721
0.64894951 0.15070007 0.02614510
0.67653755 0.16105874 0.02794223
0.70334172 0.17202533 0.02984484
0.72948102 0.18363832 0.03185959
0.75505306 0.19593899 0.03399364
0.78013902 0.20897163 0.03625469
0.80480723 0.22278383 0.03865098
0.82911589 0.23742675 0.04119139
0.85311506 0.25295541 0.04388547
0.87684825 0.26942905 0.04674350
0.90035357 0.28691152 0.04977655
0.92366475 0.30547162 0.05299656
0.94681185 0.32518364 0.05641642
0.96982190 0.34612778 0.06005004
0.99271938 0.36839077 0.06391246
1.00000000 0.39206622 0.06801994
1.00000000 0.41740616 0.07241619
1.00000000 0.44894715 0.07788827
1.00000000 0.48264885 0.08373517
1.00000000 0.51804046 0.08997818
1.00000000 0.55194994 0.09663918
1.00000000 0.58421481 0.10374041
1.00000000 0.61512903 0.11130437
1.00000000 0.64491104 0.11935379
1.00000000 0.67372629 0.12791146
1.00000000 0.70170197 0.13700026
1.00000000 0.72893713 0.14664297
1.00000000 0.75550974 0.15686236
1.00000000 0.78148182 0.16768106
0.00521457 0.01867998 0.00000000
0.00470933 0.01687006 0.00000000
0.00421258 0.01509059 0.00000000
0.00372683 0.01335051 0.00000000
0.00325660 0.01166601 0.00000000
0.00937043 0.01000196 0.00000000
0.01860059 0.00870637 0.00000000
0.02779392 0.00844342 0.00000000
0.03720147 0.00923468 0.00059035
0.04705794 0.01076123 0.00148698
0.05752105 0.01274927 0.00203543
0.06871559 0.01505336 0.00251833
0.08064891 0.01758342 0.00299557
0.09324683 0.02028213 0.00348593
0.10655693 0.02314937 0.00399646
0.12062652 0.02618965 0.00453170
0.13550310 0.02940995 0.00509503
0.15123518 0.03281883 0.00568918
0.16787298 0.03642600 0.00631659
0.18546882 0.04024212 0.00697957
0.20407756 0.04427865 0.00768036
0.22375695 0.04854787 0.00842126
0.24456789 0.05306288 0.00920463
0.26657484 0.05783756 0.01003292
0.28984605 0.06288671 0.01090872
0.31445390 0.06822600 0.01183477
0.34047527 0.07387211 0.01281395
0.36799183 0.07984274 0.01384935
0.39709049 0.08615675 0.01494424
0.42786372 0.09283418 0.01610212
0.46041002 0.09989639 0.01732668
0.49483438 0.10736615 0.01862189
0.52962936 0.11526775 0.01999197
0.56237843 0.12362708 0.02144142
0.59345761 0.13247183 0.02297505
0.62318032 0.14183154 0.02459800
0.65178529 0.15173809 0.02631580
0.67945839 0.16222565 0.02813439
0.70634689 0.17333074 0.03006012
0.73256975 0.18509251 0.03209977
0.75822457 0.19755295 0.03426066
0.78339251 0.21075716 0.03655060
0.80814190 0.22475358 0.03897800
0.83253092 0.23959428 0.04155191
0.85660964 0.25533529 0.04428205
0.88042157 0.27203694 0.04717889
0.90400484 0.28976423 0.05025371
0.92739318 0.30858728 0.05351868
0.95061667 0.32858173 0.05698693
0.97370236 0.34982931 0.06067264
0.99665352 0.37239683 0.06458739
1.00000000 0.39631246 0.06873604
1.00000000 0.42264836 0.07330455
1.00000000 0.45446782 0.07882423
1.00000000 0.48843960 0.08471732
1.00000000 0.52365551 0.09100438
1.00000000 0.55714087 0.09770631
1.00000000 0.58902954 0.10484426
1.00000000 0.61959972 0.11243951
1.00000000 0.64905882 0.12051339
1.00000000 0.67756431 0.12908717
1.00000000 0.70523745 0.13818198
1.00000000 0.73217276 0.14781872
1.00000000 0.75844472 0.15801802
1.00000000 0.78411257 0.16880019
0.00636677 0.02280747 0.00000000
0.00594416 0.02129355 0.00000000
0.00554935 0.01987923 0.00000000
0.00518577 0.01857680 0.00000000
0.00485801 0.01740266 0.00000000
0.00610409 0.01636728 0.00000000
0.01446454 0.01543939 0.00000000
0.02413684 0.01484731 0.00000000
0.03428600 0.01486316 0.00000000
0.04481451 0.01545207 0.00000000
0.05577858 0.01654288 0.00000000
0.06726678 0.01807343 0.00000000
0.07934995 0.01997899 0.00083127
0.09208776 0.02220693 0.00211888
0.10553493 0.02471978 0.00297130
0.11974281 0.02749298 0.00371925
0.13476191 0.03051203 0.00443091
0.15064312 0.03376987 0.00513511
0.16743859 0.03726487 0.00584761
0.18520236 0.04099938 0.00657848
0.20399079 0.04497882 0.00733488
0.22386305 0.04921096 0.00812243
0.24488145 0.05370556 0.00894578
0.26711178 0.05847402 0.00980909
0.29062366 0.06352927 0.01071621
0.31549089 0.06888563 0.01167080
0.34179178 0.07455877 0.01267653
0.36960954 0.08056570 0.01373706
0.39903265 0.08692479 0.01485614
0.43015526 0.09365580 0.01603763
0.46307766 0.10077997 0.01728559
0.49790674 0.10832004 0.01860425
0.53276994 0.11630039 0.01999807
0.56555768 0.12474711 0.02147178
0.59668343 0.13368816 0.02303037
0.62645845 0.14315343 0.02467917
0.65511943 0.15317502 0.02642387
0.68285136 0.16378761 0.02827056
0.70980081 0.17502830 0.03022578
0.73608616 0.18693681 0.03229647
0.76180457 0.19955584 0.03449010
0.78703686 0.21293121 0.03681467
0.81185109 0.22711218 0.03927877
0.83630524 0.24215173 0.04189161
0.86044921 0.25810685 0.04466313
0.88432637 0.27503895 0.04760400
0.90797475 0.29301420 0.05072572
0.93142801 0.31210396 0.05404070
0.95471020 0.33237993 0.05756137
0.97779118 0.35386936 0.06129239
1.00000000 0.37662978 0.06524374
1.00000000 0.40073294 0.06942788
1.00000000 0.42806606 0.07417184
1.00000000 0.46013897 0.07973738
1.00000000 0.49435186 0.08567411
1.00000000 0.52924133 0.09200170
1.00000000 0.56228149 0.09874003
1.00000000 0.59377280 0.10590908
1.00000000 0.62397785 0.11352883
1.00000000 0.65309306 0.12161915
1.00000000 0.68126789 0.13019964
1.00000000 0.70861765 0.13928964
1.00000000 0.73523234 0.14890802
1.00000000 0.76118287 0.15907321
1.00000000 0.78652568 0.16980308
0.00785096 0.02812421 0.00000000
0.00755635 0.02706886 0.00000000
0.00730637 0.02617334 0.00000000
0.00710461 0.02545060 0.00000000
0.00695530 0.02491574 0.00000000
0.00707283 0.02454369 0.00000000
0.01319644 0.02415030 0.00000000
0.02225096 0.02375059 0.00000000
0.03229930 0.02346473 0.00000000
0.04294379 0.02343138 0.00000000
0.05410341 0.02374903 0.00000000
0.06579970 0.02446441 0.00000000
0.07808449 0.02558672 0.00000000
0.09101528 0.02710398 0.00000000
0.10464871 0.02899489 0.00000000
0.11903971 0.03123629 0.00000000
0.13424200 0.03380728 0.00139202
0.15030918 0.03669119 0.00306061
0.16729660 0.03987639 0.00422114
0.18526052 0.04335579 0.00524144
0.20425932 0.04712647 0.00620732
0.22435395 0.05118921 0.00715626
0.24560842 0.05554795 0.00810922
0.26809012 0.06020937 0.00907982
0.29187028 0.06518255 0.01007792
0.31702426 0.07047874 0.01111127
0.34363199 0.07611114 0.01218638
0.37177831 0.08209480 0.01330902
0.40155341 0.08844655 0.01448454
0.43305322 0.09518496 0.01571804
0.46637991 0.10233034 0.01701455
0.50163751 0.10990478 0.01837909
0.53648568 0.11793217 0.01981679
0.56927058 0.12643832 0.02133292
0.60040791 0.13545104 0.02293295
0.63020514 0.14500021 0.02462263
0.65889618 0.15511798 0.02640798
0.68666374 0.16583911 0.02829543
0.71365330 0.17720107 0.03029180
0.73998222 0.18924401 0.03240433
0.76574685 0.20201110 0.03464076
0.79102742 0.21554876 0.03700935
0.81589150 0.22990694 0.03951892
0.84039670 0.24513938 0.04217897
0.86459261 0.26130398 0.04499965
0.88852237 0.27846309 0.04799191
0.91222365 0.29668385 0.05116749
0.93568936 0.31600442 0.05453295
0.95891368 0.33646351 0.05809499
0.98191705 0.35812471 0.06186473
1.00000000 0.38105459 0.06585378
1.00000000 0.40532269 0.07007428
1.00000000 0.43364343 0.07499575
1.00000000 0.46593947 0.08060532
1.00000000 0.50035881 0.08658294
1.00000000 0.53476940 0.09294731
1.00000000 0.56734284 0.09971722
1.00000000 0.59841520 0.10691140
1.00000000 0.62823360 0.11454846
1.00000000 0.65698354 0.12264667
1.00000000 0.68480646 0.13122396
1.00000000 0.71181172 0.14029771
1.00000000 0.73808473 0.14988472
1.00000000 0.76369282 0.16000109
1.00000000 0.78868957 0.17066218
0.00986834 0.03535103 0.00000000
0.00975391 0.03494111 0.00000000
0.00967118 0.03464475 0.00000000
0.00959206 0.03436132 0.00000000
0.00951634 0.03409005 0.00000000
0.00946886 0.03383161 0.00000000
0.01360237 0.03355695 0.00000000
0.02142883 0.03325796 0.00000000
0.03089252 0.03297456 0.00000000
0.04134277 0.03278123 0.00000000
0.05253208 0.03276700 0.00000000
0.06437112 0.03301104 0.00000000
0.07684860 0.03357041 0.00000000
0.08999110 0.03447960 0.00000000
0.10384213 0.03575535 0.00000000
0.11845228 0.03740223 0.00000000
0.13387517 0.03941744 0.00000000
0.15016606 0.04179443 0.00000000
0.16738166 0.04452561 0.00000000
0.18558035 0.04760404 0.00000000
0.20482189 0.05102442 0.00301523
0.22516976 0.05478413 0.00475510
0.24669010 0.05888311 0.00616146
0.26945215 0.06332393 0.00744539
0.29352891 0.06811178 0.00867971
0.31899750 0.07325436 0.00990079
0.34593960 0.07876176 0.01113064
0.37444184 0.08464632 0.01238438
0.40459622 0.09092258 0.01367341
0.43650057 0.09760717 0.01500705
0.47025900 0.10471881 0.01639330
0.50591918 0.11227828 0.01783943
0.54070234 0.12030843 0.01935228
0.57344942 0.12883428 0.02093847
0.60456854 0.13788303 0.02260456
0.63436210 0.14748416 0.02435718
0.66306046 0.15766956 0.02620311
0.69084341 0.16847373 0.02814938
0.71785466 0.17993420 0.03020337
0.74421025 0.19209128 0.03237283
0.77000550 0.20498844 0.03466593
0.79531977 0.21867247 0.03709133
0.82022002 0.23319384 0.03965824
0.84476333 0.24860691 0.04237649
0.86899887 0.26497029 0.04525661
0.89295117 0.28233363 0.04830738
0.91660774 0.30072229 0.05153317
0.93999357 0.32019097 0.05494371
0.96313192 0.34079864 0.05854948
0.98604255 0.36260696 0.06236136
1.00000000 0.38568027 0.06639071
1.00000000 0.41008556 0.07064931
1.00000000 0.43937256 0.07574938
1.00000000 0.47185542 0.08140143
1.00000000 0.50636786 0.08741734
1.00000000 0.54021859 0.09381480
1.00000000 0.57230232 0.10061143
1.00000000 0.60293288 0.10782465
1.00000000 0.63234206 0.11547158
1.00000000 0.66070442 0.12356889
1.00000000 0.68815341 0.13213266
1.00000000 0.71479236 0.14117832
1.00000000 0.74070205 0.15072047
1.00000000 0.76594619 0.16077284
1.00000000 0.79057542 0.17134816
0.01248147 0.04471193 0.00000000
0.01242014 0.04449223 0.00000000
0.01236328 0.04428854 0.00000000
0.01231044 0.04409928 0.00000000
0.01226136 0.04392345 0.00000000
0.01221603 0.04376106 0.00000000
0.01508390 0.04359263 0.00000000
0.02165807 0.04340417 0.00000000
0.03031871 0.04320747 0.00000000
0.04031765 0.04303490 0.00000000
0.05131593 0.04293930 0.00000000
0.06314544 0.04298477 0.00000000
0.07572907 0.04323494 0.00000000
0.08904567 0.04374444 0.00000000
0.10310842 0.04455554 0.00000000
0.11795071 0.04569837 0.00000000
0.13361737 0.04719297 0.00000000
0.15015989 0.04905164 0.00000000
0.16763397 0.05128126 0.00000000
0.18609848 0.05388521 0.00000000
0.20561512 0.05686505 0.00000000
0.22624843 0.06022174 0.00000000
0.24806608 0.06395669 0.00000000
0.27113852 0.06807226 0.00319474
0.29554069 0.07257256 0.00558889
0.32135211 0.07746370 0.00741943
0.34865633 0.08275373 0.00905826
0.37754185 0.08845285 0.01061624
0.40810260 0.09457347 0.01214561
0.44043839 0.10113026 0.01367691
0.47465537 0.10814014 0.01523064
0.51066053 0.11562228 0.01682201
0.54534521 0.12359817 0.01846323
0.57802618 0.13209165 0.02016474
0.60910262 0.14112894 0.02193593
0.63887092 0.15073878 0.02378554
0.66755728 0.16095246 0.02572205
0.69533833 0.17180401 0.02775381
0.72235529 0.18333056 0.02988929
0.74872276 0.19557238 0.03213717
0.77453476 0.20857296 0.03450639
0.79986970 0.22237926 0.03700632
0.82479374 0.23704202 0.03964675
0.84935822 0.25261274 0.04243744
0.87356286 0.26911584 0.04538283
0.89743344 0.28659428 0.04849094
0.92100126 0.30510013 0.05177143
0.94429287 0.32468790 0.05523430
0.96733076 0.34541456 0.05888993
0.99013402 0.36733947 0.06274904
1.00000000 0.39052440 0.06682272
1.00000000 0.41503341 0.07112243
1.00000000 0.44525305 0.07640128
1.00000000 0.47788000 0.08209478
1.00000000 0.51230957 0.08814679
1.00000000 0.54557491 0.09457393
1.00000000 0.57714366 0.10139258
1.00000000 0.60730764 0.10861880
1.00000000 0.63628338 0.11626817
1.00000000 0.66423447 0.12435564
1.00000000 0.69128630 0.13289545
1.00000000 0.71753610 0.14190094
1.00000000 0.74305995 0.15138449
1.00000000 0.76791788 0.16135736
1.00000000 0.79215749 0.17182963
0.01533552 0.05493591 0.00000000
0.01530005 0.05480883 0.00000000
0.01526930 0.05469870 0.00000000
0.01524288 0.05460406 0.00000000
0.01522050 0.05452386 0.00000000
0.01520203 0.05445769 0.00000000
0.01733264 0.05439126 0.00000000
0.02281942 0.05431119 0.00000000
0.03061495 0.05421952 0.00000000
0.04001827 0.05412890 0.00000000
0.05065252 0.05406631 0.00000000
0.06230922 0.05407248 0.00000000
0.07486955 0.05419726 0.00000000
0.08827198 0.05449332 0.00000000
0.10249545 0.05501052 0.00000000
0.11754766 0.05579247 0.00000000
0.13345610 0.05687529 0.00000000
0.15026153 0.05828773 0.00000000
0.16801365 0.06005215 0.00000000
0.18676837 0.06218563 0.00000000
0.20658644 0.06470121 0.00000000
0.22753260 0.06760908 0.00000000
0.24967545 0.07091754 0.00000000
0.27308737 0.07463401 0.00000000
0.29784479 0.07876573 0.00000000
0.32402841 0.08332043 0.00000000
0.35172283 0.08830666 0.00413940
0.38101872 0.09373458 0.00702390
0.41201254 0.09961614 0.00925956
0.44480610 0.10596501 0.01126678
0.47950767 0.11279696 0.01317584
0.51577893 0.12012994 0.01504901
0.55034011 0.12798422 0.01692300
0.58293328 0.13638248 0.01882263
0.61394783 0.14534990 0.02076641
0.64367357 0.15491428 0.02276929
0.67233210 0.16510615 0.02484410
0.70009675 0.17595888 0.02700242
0.72710592 0.18750897 0.02925516
0.75347251 0.19979637 0.03161291
0.77928918 0.21286434 0.03408617
0.80463310 0.22675972 0.03668554
0.82953493 0.24151267 0.03941763
0.85402006 0.25715356 0.04228901
0.87813121 0.27372797 0.04530917
0.90190437 0.29128372 0.04848779
0.92536991 0.30987093 0.05183473
0.94855357 0.32954195 0.05536011
0.97147709 0.35035135 0.05907430
0.99415883 0.37235585 0.06298794
1.00000000 0.39561427 0.06711193
1.00000000 0.42053120 0.07151591
1.00000000 0.45129322 0.07691453
1.00000000 0.48401478 0.08264931
1.00000000 0.51818126 0.08873593
1.00000000 0.55083199 0.09518989
1.00000000 0.58185739 0.10202630
1.00000000 0.61152741 0.10925980
1.00000000 0.64004326 0.11690436
1.00000000 0.66755749 0.12497321
1.00000000 0.69418731 0.13347864
1.00000000 0.72002375 0.14243189
1.00000000 0.74513807 0.15184305
1.00000000 0.76958647 0.16172089
1.00000000 0.79341347 0.17207277
0.01842744 0.06601198 0.00000000
0.01841871 0.06598069 0.00000000
0.01841489 0.06596702 0.00000000
0.01841562 0.06596965 0.00000000
0.01842061 0.06598752 0.00000000
0.01842969 0.06602003 0.00000000
0.02014627 0.06605565 0.00000000
0.02477017 0.06608309 0.00000000
0.03173403 0.06610086 0.00000000
0.04048185 0.06611284 0.00000000
0.05064561 0.06613169 0.00000000
