DIT_DOCS/ARRI_HDR_Lookfiles_3DLUTs_190319/3D_LUTs_for_monitor_grading_add_P3D65/ARRI_P3D65PQ-4K-200_65.cube
LUT_3D_SIZE 65
0.00000073 0.00000073 0.00000073
0.01700107 0.00000073 0.00056389
0.03200717 0.00000073 0.00119519
0.04651084 0.00000073 0.00192749
0.06068005 0.00000073 0.00275465
0.07464166 0.00000073 0.00367589
0.08845930 0.00000073 0.00469080
0.10217872 0.00000073 0.00580006
0.11581541 0.00000073 0.00700336
0.12938829 0.00000073 0.00830148
0.14291289 0.00000073 0.00969557
0.15640242 0.00000073 0.01118711
0.16986841 0.00000073 0.01277788
0.18332117 0.00000073 0.01446993
0.19677009 0.00000073 0.01626558
0.21022383 0.00000073 0.01816735
0.22368216 0.00000073 0.02017679
0.23715670 0.00000073 0.02229735
0.25067697 0.00000073 0.02453596
0.26427198 0.00000073 0.02690051
0.27797034 0.00000073 0.02939987
0.29180026 0.00000073 0.03204393
0.30578963 0.00000073 0.03484368
0.31996602 0.00000073 0.03781121
0.33435676 0.00000073 0.04095985
0.34898891 0.00000073 0.04430417
0.36388930 0.00000073 0.04786013
0.37908455 0.00000073 0.05164512
0.39459959 0.00000073 0.05567770
0.41025979 0.00000073 0.05992285
0.42593179 0.00000073 0.06434986
0.44161585 0.00000073 0.06896210
0.45731219 0.00000073 0.07376295
0.47302147 0.00000073 0.07875600
0.48874426 0.00000073 0.08394486
0.50448090 0.00000073 0.08933315
0.52023172 0.00000073 0.09492453
0.53599696 0.00000073 0.10072268
0.55177683 0.00000073 0.10673133
0.56757149 0.00000073 0.11295423
0.58338108 0.00000073 0.11939519
0.59920568 0.00000073 0.12605802
0.61504536 0.00000073 0.13294658
0.63090013 0.00000073 0.14006475
0.64677000 0.00000073 0.14741645
0.66265494 0.00000073 0.15500563
0.67855489 0.00000073 0.16283624
0.69446977 0.00000073 0.17091229
0.71039950 0.00000073 0.17923779
0.72634394 0.00000073 0.18781681
0.74230295 0.00000073 0.19665339
0.75827639 0.00000073 0.20575165
0.77426408 0.00000073 0.21511569
0.79026582 0.00000073 0.22474964
0.80628141 0.00000073 0.23465767
0.82231064 0.00000073 0.24484395
0.83835327 0.00000073 0.25531267
0.85440906 0.00000073 0.26606805
0.87047208 0.00000073 0.27711035
0.88648772 0.00000073 0.28840473
0.90243742 0.00000073 0.29993876
0.90257239 0.00000073 0.31170787
0.90257239 0.00000073 0.32370681
0.90257239 0.00000073 0.33592969
0.90257239 0.00000073 0.34836992
0.00000073 0.00603311 0.00000073
0.00144127 0.00154918 0.00000073
0.01790605 0.00000073 0.00059818
0.03303519 0.00000073 0.00124321
0.04761465 0.00000073 0.00198800
0.06187658 0.00000073 0.00282949
0.07595557 0.00000073 0.00376798
0.08990853 0.00000073 0.00480318
0.10377161 0.00000073 0.00593542
0.11757054 0.00000073 0.00716556
0.13132502 0.00000073 0.00849493
0.14505100 0.00000073 0.00992522
0.15876077 0.00000073 0.01145833
0.17245571 0.00000073 0.01309528
0.18616148 0.00000073 0.01484045
0.19990990 0.00000073 0.01669992
0.21373185 0.00000073 0.01868076
0.22765739 0.00000073 0.02079101
0.24171596 0.00000073 0.02303976
0.25593645 0.00000073 0.02543713
0.27034727 0.00000073 0.02799442
0.28497646 0.00000073 0.03072406
0.29985166 0.00000073 0.03363979
0.31500022 0.00000073 0.03675667
0.33044918 0.00000073 0.04009119
0.34618970 0.00000073 0.04365314
0.36198517 0.00000073 0.04739718
0.37778772 0.00000073 0.05131578
0.39359795 0.00000073 0.05541219
0.40941637 0.00000073 0.05968969
0.42524339 0.00000073 0.06415161
0.44107934 0.00000073 0.06880129
0.45692449 0.00000073 0.07364212
0.47277912 0.00000073 0.07867752
0.48864402 0.00000073 0.08391116
0.50451963 0.00000073 0.08934665
0.52040631 0.00000073 0.09498763
0.53630435 0.00000073 0.10083776
0.55221402 0.00000073 0.10690075
0.56813551 0.00000073 0.11318035
0.58406898 0.00000073 0.11968031
0.60001456 0.00000073 0.12640445
0.61597233 0.00000073 0.13335658
0.63194236 0.00000073 0.14054057
0.64792467 0.00000073 0.14796030
0.66391926 0.00000073 0.15561967
0.67992609 0.00000073 0.16352263
0.69594512 0.00000073 0.17167314
0.71197627 0.00000073 0.18007517
0.72801943 0.00000073 0.18873274
0.74407450 0.00000073 0.19764986
0.76014132 0.00000073 0.20683060
0.77621975 0.00000073 0.21627900
0.79230962 0.00000073 0.22599916
0.80841074 0.00000073 0.23599519
0.82452289 0.00000073 0.24627120
0.84064573 0.00000073 0.25683122
0.85674014 0.00000073 0.26765293
0.87277168 0.00000073 0.27871450
0.88873422 0.00000073 0.29001192
0.90257239 0.00000073 0.30154058
0.90257239 0.00000073 0.31329523
0.90257239 0.00000073 0.32526994
0.90257239 0.00000073 0.33745815
0.90257239 0.00000073 0.34985255
0.00000073 0.01147806 0.00000073
0.00000073 0.00738552 0.00000073
0.00290381 0.00311797 0.00000073
0.01916687 0.00000073 0.00064677
0.03438510 0.00000073 0.00130718
0.04913067 0.00000073 0.00207219
0.06359940 0.00000073 0.00293860
0.07789486 0.00000073 0.00390561
0.09207665 0.00000073 0.00497343
0.10617869 0.00000073 0.00614258
0.12022415 0.00000073 0.00741399
0.13425520 0.00000073 0.00879154
0.14831108 0.00000073 0.01028027
0.16242796 0.00000073 0.01188627
0.17663986 0.00000073 0.01361665
0.19097923 0.00000073 0.01547956
0.20547729 0.00000073 0.01748426
0.22016431 0.00000073 0.01964113
0.23506981 0.00000073 0.02196174
0.25022266 0.00000073 0.02445892
0.26565118 0.00000073 0.02714682
0.28138327 0.00000073 0.03004103
0.29732978 0.00000073 0.03313543
0.31328085 0.00000073 0.03639534
0.32923251 0.00000073 0.03982282
0.34518593 0.00000073 0.04342098
0.36114210 0.00000073 0.04719300
0.37710185 0.00000073 0.05114207
0.39306590 0.00000073 0.05527144
0.40903482 0.00000073 0.05958439
0.42500913 0.00000073 0.06408423
0.44098921 0.00000073 0.06877430
0.45697540 0.00000073 0.07365798
0.47296795 0.00000073 0.07873866
0.48896734 0.00000073 0.08401987
0.50497429 0.00000073 0.08950527
0.52098922 0.00000073 0.09519848
0.53701246 0.00000073 0.10110315
0.55304430 0.00000073 0.10722295
0.56908500 0.00000073 0.11356161
0.58513474 0.00000073 0.12012286
0.60119370 0.00000073 0.12691048
0.61726197 0.00000073 0.13392826
0.63333967 0.00000073 0.14118003
0.64942683 0.00000073 0.14866963
0.66552349 0.00000073 0.15640094
0.68162963 0.00000073 0.16437785
0.69774523 0.00000073 0.17260429
0.71387024 0.00000073 0.18108419
0.73000457 0.00000073 0.18982151
0.74614814 0.00000073 0.19882023
0.76230081 0.00000073 0.20808435
0.77846246 0.00000073 0.21761787
0.79463293 0.00000073 0.22742484
0.81081205 0.00000073 0.23750928
0.82698203 0.00000073 0.24786385
0.84309431 0.00000073 0.25845947
0.85914068 0.00000073 0.26929125
0.87511501 0.00000073 0.28035517
0.89101103 0.00000073 0.29164659
0.90257239 0.00000073 0.30316023
0.90257239 0.00000073 0.31489017
0.90257239 0.00000073 0.32682982
0.90257239 0.00000073 0.33897191
0.90257239 0.00000073 0.35130841
0.00000073 0.01703020 0.00000073
0.00000073 0.01319938 0.00000073
0.00000073 0.00928720 0.00000073
0.00494666 0.00530273 0.00000073
0.02126539 0.00000073 0.00059585
0.03660036 0.00000073 0.00141439
0.05156332 0.00000073 0.00220990
0.06629426 0.00000073 0.00311248
0.08089680 0.00000073 0.00412263
0.09544773 0.00000073 0.00524317
0.11000710 0.00000073 0.00647852
0.12462460 0.00000073 0.00783441
0.13934333 0.00000073 0.00931782
0.15420203 0.00000073 0.01093688
0.16923643 0.00000073 0.01270093
0.18448009 0.00000073 0.01462055
0.19996497 0.00000073 0.01670759
0.21572181 0.00000073 0.01897523
0.23177444 0.00000073 0.02143717
0.24792288 0.00000073 0.02407087
0.26405967 0.00000073 0.02686270
0.28018742 0.00000073 0.02981553
0.29630830 0.00000073 0.03293231
0.31242419 0.00000073 0.03621603
0.32853665 0.00000073 0.03966977
0.34464702 0.00000073 0.04329663
0.36075645 0.00000073 0.04709977
0.37686590 0.00000073 0.05108239
0.39297619 0.00000073 0.05524773
0.40908802 0.00000073 0.05959906
0.42520196 0.00000073 0.06413969
0.44131851 0.00000073 0.06887295
0.45743805 0.00000073 0.07380220
0.47356091 0.00000073 0.07893083
0.48968735 0.00000073 0.08426226
0.50581808 0.00000073 0.08980009
0.52195369 0.00000073 0.09554796
0.53809455 0.00000073 0.10150951
0.55424101 0.00000073 0.10768837
0.57039335 0.00000073 0.11408823
0.58655181 0.00000073 0.12071281
0.60271657 0.00000073 0.12756584
0.61888780 0.00000073 0.13465107
0.63506561 0.00000073 0.14197231
0.65125008 0.00000073 0.14953336
0.66744126 0.00000073 0.15733804
0.68363918 0.00000073 0.16539022
0.69984383 0.00000073 0.17369376
0.71605517 0.00000073 0.18225254
0.73227316 0.00000073 0.19107049
0.74849772 0.00000073 0.20015153
0.76472874 0.00000073 0.20949959
0.78096611 0.00000073 0.21911862
0.79720475 0.00000073 0.22900955
0.81339696 0.00000073 0.23914594
0.82952617 0.00000073 0.24951836
0.84558644 0.00000073 0.26012334
0.86157167 0.00000073 0.27095681
0.87747562 0.00000073 0.28201413
0.89329186 0.00000073 0.29329000
0.90257239 0.00000073 0.30477850
0.90257239 0.00000073 0.31647305
0.90257239 0.00000073 0.32836635
0.90257239 0.00000073 0.34045042
0.90257239 0.00000073 0.35271654
0.00000073 0.02293388 0.00000073
0.00000073 0.01936174 0.00000073
0.00000073 0.01576678 0.00000073
0.00000073 0.01214730 0.00000073
0.00795222 0.00850677 0.00000073
0.02451978 0.00443251 0.00000073
0.04020182 0.00000073 0.00148887
0.05562059 0.00000073 0.00244677
0.07095139 0.00000073 0.00342219
0.08628522 0.00000073 0.00452431
0.10168901 0.00000073 0.00575871
0.11721827 0.00000073 0.00713288
0.13292049 0.00000073 0.00865585
0.14883752 0.00000073 0.01033816
0.16500732 0.00000073 0.01219182
0.18141216 0.00000073 0.01422352
0.19781437 0.00000073 0.01640940
0.21418614 0.00000073 0.01874778
0.23053279 0.00000073 0.02124122
0.24685870 0.00000073 0.02389241
0.26316751 0.00000073 0.02670412
0.27946222 0.00000073 0.02967923
0.29574538 0.00000073 0.03282066
0.31201913 0.00000073 0.03613142
0.32828528 0.00000073 0.03961456
0.34454539 0.00000073 0.04327320
0.36080076 0.00000073 0.04711048
0.37705251 0.00000073 0.05112959
0.39330159 0.00000073 0.05533377
0.40954881 0.00000073 0.05972627
0.42579485 0.00000073 0.06431040
0.44204027 0.00000073 0.06908946
0.45828555 0.00000073 0.07406682
0.47453107 0.00000073 0.07924583
0.49077715 0.00000073 0.08462990
0.50702418 0.00000073 0.09022248
0.52327295 0.00000073 0.09602723
0.53952392 0.00000073 0.10204776
0.55577748 0.00000073 0.10828768
0.57203395 0.00000073 0.11475064
0.58829360 0.00000073 0.12144032
0.60455667 0.00000073 0.12836041
0.62082333 0.00000073 0.13551465
0.63709374 0.00000073 0.14290676
0.65336802 0.00000073 0.15054053
0.66964623 0.00000073 0.15841972
0.68592843 0.00000073 0.16654814
0.70221464 0.00000073 0.17492962
0.71850484 0.00000073 0.18356798
0.73479901 0.00000073 0.19246708
0.75109709 0.00000073 0.20163079
0.76739887 0.00000073 0.21106290
0.78367051 0.00000073 0.22074695
0.79988188 0.00000073 0.23066648
0.81602722 0.00000073 0.24081853
0.83210063 0.00000073 0.25119951
0.84809604 0.00000073 0.26180540
0.86400721 0.00000073 0.27263154
0.87982776 0.00000073 0.28367265
0.89555111 0.00000073 0.29492281
0.90257239 0.00000073 0.30637543
0.90257239 0.00000073 0.31802325
0.90257239 0.00000073 0.32985829
0.90257239 0.00000073 0.34187188
0.90257239 0.00000073 0.35405457
0.00000073 0.02939939 0.00000073
0.00000073 0.02611565 0.00000073
0.00000073 0.02289187 0.00000073
0.00000073 0.01975453 0.00000073
0.00000073 0.01674475 0.00000073
0.01296793 0.01383382 0.00000073
0.03030867 0.01084539 0.00000073
0.04688689 0.00741750 0.00000073
0.06332060 0.00143470 0.00208533
0.07977793 0.00000073 0.00366282
0.09635269 0.00000073 0.00512792
0.11311257 0.00000073 0.00665197
0.12996316 0.00000073 0.00829445
0.14672993 0.00000073 0.01006781
0.16342795 0.00000073 0.01197995
0.18006979 0.00000073 0.01403648
0.19666527 0.00000073 0.01624185
0.21322221 0.00000073 0.01859982
0.22974690 0.00000073 0.02111381
0.24624445 0.00000073 0.02378701
0.26271910 0.00000073 0.02662254
0.27917434 0.00000073 0.02962345
0.29561312 0.00000073 0.03279277
0.31203790 0.00000073 0.03613356
0.32845076 0.00000073 0.03964890
0.34485349 0.00000073 0.04334191
0.36124759 0.00000073 0.04721574
0.37763435 0.00000073 0.05127359
0.39401485 0.00000073 0.05551868
0.41039003 0.00000073 0.05995428
0.42676068 0.00000073 0.06458367
0.44312745 0.00000073 0.06941019
0.45949092 0.00000073 0.07443717
0.47585154 0.00000073 0.07966797
0.49220969 0.00000073 0.08510599
0.50856568 0.00000073 0.09075462
0.52492014 0.00000073 0.09661742
0.54127375 0.00000073 0.10269802
0.55762694 0.00000073 0.10900003
0.57398006 0.00000073 0.11552705
0.59033344 0.00000073 0.12228274
0.60668733 0.00000073 0.12927074
0.62304197 0.00000073 0.13649474
0.63939753 0.00000073 0.14395843
0.65575415 0.00000073 0.15166555
0.67211194 0.00000073 0.15961981
0.68847097 0.00000073 0.16782496
0.70483129 0.00000073 0.17628477
0.72119292 0.00000073 0.18500301
0.73755583 0.00000073 0.19398347
0.75390486 0.00000073 0.20322125
0.77019806 0.00000073 0.21269469
0.78642796 0.00000073 0.22240026
0.80258883 0.00000073 0.23233495
0.81867480 0.00000073 0.24249525
0.83467982 0.00000073 0.25287705
0.85059769 0.00000073 0.26347567
0.86642203 0.00000073 0.27428580
0.88214631 0.00000073 0.28530151
0.89776383 0.00000073 0.29651622
0.90257239 0.00000073 0.30792266
0.90257239 0.00000073 0.31951289
0.90257239 0.00000073 0.33127823
0.90257239 0.00000073 0.34320930
0.90257239 0.00000073 0.35529594
0.00000073 0.03686424 0.00000073
0.00000073 0.03413303 0.00000073
0.00000073 0.03157361 0.00000073
0.00000073 0.02921221 0.00000073
0.00000073 0.02708187 0.00000073
0.00000073 0.02521393 0.00000073
0.02216197 0.02355310 0.00000073
0.04081890 0.02206322 0.00000073
0.05883634 0.02067308 0.00000073
0.07653269 0.01901696 0.00000073
0.09397344 0.01677109 0.00000073
0.11123111 0.01346438 0.00292642
0.12834965 0.00759935 0.00562035
0.14535901 0.00000073 0.00797650
0.16228087 0.00000073 0.01028225
0.17913150 0.00000073 0.01262833
0.19592340 0.00000073 0.01505799
0.21266637 0.00000073 0.01759627
0.22936820 0.00000073 0.02025958
0.24603515 0.00000073 0.02305966
0.26267236 0.00000073 0.02600552
0.27928403 0.00000073 0.02910443
0.29587367 0.00000073 0.03236256
0.31244421 0.00000073 0.03578531
0.32899811 0.00000073 0.03937757
0.34553745 0.00000073 0.04314382
0.36206400 0.00000073 0.04708832
0.37857927 0.00000073 0.05121510
0.39508451 0.00000073 0.05552805
0.41158083 0.00000073 0.06003099
0.42806915 0.00000073 0.06472760
0.44455024 0.00000073 0.06962155
0.46102477 0.00000073 0.07471645
0.47749329 0.00000073 0.08001587
0.49395624 0.00000073 0.08552335
0.51041402 0.00000073 0.09124244
0.52686701 0.00000073 0.09717667
0.54331601 0.00000073 0.10332979
0.55976156 0.00000073 0.10970543
0.57620406 0.00000073 0.11630727
0.59264387 0.00000073 0.12313895
0.60908129 0.00000073 0.13020414
0.62551658 0.00000073 0.13750651
0.64194995 0.00000073 0.14504974
0.65838159 0.00000073 0.15283755
0.67481162 0.00000073 0.16087361
0.69124014 0.00000073 0.16916165
0.70766723 0.00000073 0.17770539
0.72408871 0.00000073 0.18650625
0.74046388 0.00000073 0.19554491
0.75677823 0.00000073 0.20481453
0.77302625 0.00000073 0.21431264
0.78920225 0.00000073 0.22403627
0.80530039 0.00000073 0.23398187
0.82131465 0.00000073 0.24414535
0.83723886 0.00000073 0.25452202
0.85306667 0.00000073 0.26510661
0.86879157 0.00000073 0.27589320
0.88440689 0.00000073 0.28687521
0.89990579 0.00000073 0.29804543
0.90257239 0.00000073 0.30939593
0.90257239 0.00000073 0.32091809
0.90257239 0.00000073 0.33260256
0.90257239 0.00000073 0.34443926
0.90257239 0.00000073 0.35641734
0.00000073 0.04635472 0.00000073
0.00000073 0.04448555 0.00000073
0.00000073 0.04289337 0.00000073
0.00000073 0.04160451 0.00000073
0.00000073 0.04064854 0.00000073
0.00000073 0.03998387 0.00000073
0.01362381 0.03932072 0.00000073
0.03647756 0.03860618 0.00000073
0.05573015 0.03781374 0.00000073
0.07407271 0.03690282 0.00000073
0.09197168 0.03581526 0.00000073
0.10959372 0.03446915 0.00000073
0.12702043 0.03274713 0.00000073
0.14430008 0.03047140 0.00000073
0.16146467 0.02734439 0.00329498
0.17853695 0.02277403 0.00777512
0.19553376 0.01506619 0.01125427
0.21246799 0.00000073 0.01448461
0.22934969 0.00000073 0.01765667
0.24618686 0.00000073 0.02085425
0.26298592 0.00000073 0.02412348
0.27975210 0.00000073 0.02749340
0.29648971 0.00000073 0.03098400
0.31320233 0.00000073 0.03461005
0.32989294 0.00000073 0.03838302
0.34656405 0.00000073 0.04231226
0.36321777 0.00000073 0.04640564
0.37985589 0.00000073 0.05066999
0.39647994 0.00000073 0.05511138
0.41309120 0.00000073 0.05973535
0.42969078 0.00000073 0.06454699
0.44627961 0.00000073 0.06955108
0.46285847 0.00000073 0.07475215
0.47942803 0.00000073 0.08015452
0.49598884 0.00000073 0.08576238
0.51254136 0.00000073 0.09157978
0.52908597 0.00000073 0.09761066
0.54562332 0.00000073 0.10385902
0.56215413 0.00000073 0.11032887
0.57867887 0.00000073 0.11702411
0.59519794 0.00000073 0.12394860
0.61171169 0.00000073 0.13110617
0.62822042 0.00000073 0.13850063
0.64472438 0.00000073 0.14613578
0.66122377 0.00000073 0.15401539
0.67771877 0.00000073 0.16214323
0.69420940 0.00000073 0.17052302
0.71066720 0.00000073 0.17914322
0.72706640 0.00000073 0.18799201
0.74340171 0.00000073 0.19706749
0.75966767 0.00000073 0.20636726
0.77585861 0.00000073 0.21588840
0.79196875 0.00000073 0.22562743
0.80799208 0.00000073 0.23558031
0.82392247 0.00000073 0.24574242
0.83975361 0.00000073 0.25610853
0.85547900 0.00000073 0.26667277
0.87109201 0.00000073 0.27742865
0.88658582 0.00000073 0.28836898
0.90195347 0.00000073 0.29948593
0.90257239 0.00000073 0.31077094
0.90257239 0.00000073 0.32221473
0.90257239 0.00000073 0.33380730
0.90257239 0.00000073 0.34553790
0.90257239 0.00000073 0.35739502
0.00000073 0.05892349 0.00000073
0.00000073 0.05822198 0.00000073
0.00000073 0.05771393 0.00000073
0.00000073 0.05722735 0.00000073
0.00000073 0.05676101 0.00000073
0.00000073 0.05631630 0.00000073
0.00000073 0.05586960 0.00000073
0.03036777 0.05540101 0.00000073
0.05204637 0.05489849 0.00000073
0.07145400 0.05434388 0.00000073
0.09000509 0.05371141 0.00000073
0.10809705 0.05296578 0.00000073
0.12589559 0.05206005 0.00000073
0.14348665 0.05093229 0.00000073
0.16092165 0.04949972 0.00000073
0.17823456 0.04764807 0.00000073
0.19544929 0.04521106 0.00000073
0.21258348 0.04192746 0.00474714
0.22965056 0.03733543 0.01098193
0.24666096 0.03043609 0.01565147
0.26362296 0.01775913 0.01988244
0.28054323 0.00000073 0.02395676
0.29742717 0.00000073 0.02799727
0.31427924 0.00000073 0.03207091
0.33110313 0.00000073 0.03621931
0.34790192 0.00000073 0.04047074
0.36467817 0.00000073 0.04484576
0.38143408 0.00000073 0.04936009
0.39817147 0.00000073 0.05402626
0.41489192 0.00000073 0.05885465
0.43159673 0.00000073 0.06385406
0.44828704 0.00000073 0.06903217
0.46496379 0.00000073 0.07439580
0.48162780 0.00000073 0.07995114
0.49827973 0.00000073 0.08570389
0.51492016 0.00000073 0.09165932
0.53154955 0.00000073 0.09782241
0.54816837 0.00000073 0.10419794
0.56477748 0.00000073 0.11079063
0.58137745 0.00000073 0.11760501
0.59796873 0.00000073 0.12464545
0.61455172 0.00000073 0.13191620
0.63112677 0.00000073 0.13942143
0.64769416 0.00000073 0.14716525
0.66425415 0.00000073 0.15515169
0.68079426 0.00000073 0.16337827
0.69727933 0.00000073 0.17182976
0.71370266 0.00000073 0.18050418
0.73005901 0.00000073 0.18939986
0.74634296 0.00000073 0.19851458
0.76254890 0.00000073 0.20784559
0.77867107 0.00000073 0.21738957
0.79470352 0.00000073 0.22714264
0.81064014 0.00000073 0.23710030
0.82647466 0.00000073 0.24725746
0.84220061 0.00000073 0.25760838
0.85781139 0.00000073 0.26814668
0.87330021 0.00000073 0.27886529
0.88866013 0.00000073 0.28975650
0.90257239 0.00000073 0.30081186
0.90257239 0.00000073 0.31202221
0.90257239 0.00000073 0.32337767
0.90257239 0.00000073 0.33486761
0.90257239 0.00000073 0.34648065
0.90257239 0.00000073 0.35820463
0.00000073 0.07455151 0.00000073
0.00000073 0.07419335 0.00000073
0.00000073 0.07386095 0.00000073
0.00000073 0.07355177 0.00000073
0.00000073 0.07326424 0.00000073
0.00000073 0.07299846 0.00000073
0.00000073 0.07273944 0.00000073
0.01888860 0.07247240 0.00000073
0.04705573 0.07219040 0.00000073
0.06834009 0.07188354 0.00000073
0.08787567 0.07153815 0.00000073
0.10660792 0.07113552 0.00000073
0.12487667 0.07065076 0.00000073
0.14284051 0.07005172 0.00000073
0.16058631 0.06929743 0.00000073
0.17816732 0.06833572 0.00000073
0.19561897 0.06709929 0.00000073
0.21296626 0.06549917 0.00000073
0.23022758 0.06341350 0.00000073
0.24741691 0.06066689 0.00000073
0.26454512 0.05698909 0.00861580
0.28162081 0.05192005 0.01600876
0.29865091 0.04453991 0.02178479
0.31564104 0.03231566 0.02701471
0.33259582 0.00000073 0.03201736
0.34951908 0.00000073 0.03693900
0.36641400 0.00000073 0.04186126
0.38328326 0.00000073 0.04683550
0.40012911 0.00000073 0.05189679
0.41695345 0.00000073 0.05707062
0.43375789 0.00000073 0.06237641
0.45054380 0.00000073 0.06782957
0.46731234 0.00000073 0.07344270
0.48406449 0.00000073 0.07922644
0.50080108 0.00000073 0.08518996
0.51752280 0.00000073 0.09134129
0.53423023 0.00000073 0.09768766
0.55092387 0.00000073 0.10423561
0.56760446 0.00000073 0.11099131
0.58427277 0.00000073 0.11796057
0.60092932 0.00000073 0.12514880
0.61757457 0.00000073 0.13256114
0.63420891 0.00000073 0.14020250
0.65082920 0.00000073 0.14807589
0.66740192 0.00000073 0.15616864
0.68391472 0.00000073 0.16447705
0.70036260 0.00000073 0.17300049
0.71674036 0.00000073 0.18173772
0.73304264 0.00000073 0.19068697
0.74926389 0.00000073 0.19984584
0.76539839 0.00000073 0.20921135
0.78144023 0.00000073 0.21877993
0.79738336 0.00000073 0.22854734
0.81322152 0.00000073 0.23850876
0.82894831 0.00000073 0.24865867
0.84455714 0.00000073 0.25899091
0.86004126 0.00000073 0.26949864
0.87539375 0.00000073 0.28017432
0.89060752 0.00000073 0.29100968
0.90257239 0.00000073 0.30199578
0.90257239 0.00000073 0.31312289
0.90257239 0.00000073 0.32438056
0.90257239 0.00000073 0.33575759
0.90257239 0.00000073 0.34724200
0.90257239 0.00000073 0.35882105
0.00000073 0.09076677 0.00000073
0.00000073 0.09057055 0.00000073
0.00000073 0.09040039 0.00000073
0.00000073 0.09025408 0.00000073
0.00000073 0.09013003 0.00000073
0.00000073 0.09002766 0.00000073
0.00000073 0.08993632 0.00000073
0.00000073 0.08984472 0.00000073
0.03925570 0.08974798 0.00000073
0.06420773 0.08963977 0.00000073
0.08530575 0.08951184 0.00000073
0.10495069 0.08935315 0.00000073
0.12384025 0.08914897 0.00000073
0.14226806 0.08888018 0.00000073
0.16038327 0.08852253 0.00000073
0.17827169 0.08804577 0.00000073
0.19598731 0.08741225 0.00000073
0.21356655 0.08657504 0.00000073
0.23103524 0.08547473 0.00000073
0.24841244 0.08403466 0.00000073
0.26571266 0.08215305 0.00000073
0.28294718 0.07968965 0.00000073
0.30012494 0.07644155 0.00000073
0.31725312 0.07209478 0.01535147
0.33433756 0.06611415 0.02345068
0.35138307 0.05743418 0.03018115
0.36839362 0.04318654 0.03635477
0.38537252 0.00000073 0.04227128
0.40232255 0.00000073 0.04808019
0.41924605 0.00000073 0.05386885
0.43614499 0.00000073 0.05969378
0.45302103 0.00000073 0.06559423
0.46987560 0.00000073 0.07159906
0.48670990 0.00000073 0.07773039
0.50352494 0.00000073 0.08400580
0.52032158 0.00000073 0.09043971
0.53710054 0.00000073 0.09704423
0.55386243 0.00000073 0.10382974
0.57060786 0.00000073 0.11080539
0.58733778 0.00000073 0.11797951
0.60405280 0.00000073 0.12535955
0.62075335 0.00000073 0.13295229
0.63741655 0.00000073 0.14075253
0.65402120 0.00000073 0.14875441
0.67056259 0.00000073 0.15695909
0.68703578 0.00000073 0.16536701
0.70343566 0.00000073 0.17397789
0.71975692 0.00000073 0.18279075
0.73599409 0.00000073 0.19180394
0.75214149 0.00000073 0.20101511
0.76819328 0.00000073 0.21042123
0.78414343 0.00000073 0.22001862
0.79998576 0.00000073 0.22980287
0.81571388 0.00000073 0.23976890
0.83132125 0.00000073 0.24991094
0.84680116 0.00000073 0.26022247
0.86214672 0.00000073 0.27069630
0.87735089 0.00000073 0.28132446
0.89240643 0.00000073 0.29209828
0.90257239 0.00000073 0.30300831
0.90257239 0.00000073 0.31404438
0.90257239 0.00000073 0.32519551
0.90257239 0.00000073 0.33644997
0.90257239 0.00000073 0.34779527
0.90257239 0.00000073 0.35921810
0.00000073 0.10738096 0.00000073
0.00000073 0.10733534 0.00000073
0.00000073 0.10731541 0.00000073
0.00000073 0.10731924 0.00000073
0.00000073 0.10734530 0.00000073
0.00000073 0.10739269 0.00000073
0.00000073 0.10745307 0.00000073
0.00000073 0.10751785 0.00000073
0.02353017 0.10758315 0.00000073
0.05814597 0.10764434 0.00000073
0.08189043 0.10769583 0.00000073
