DIT_DOCS/ARRI_HDR_Lookfiles_3DLUTs_190319/3D_LUTs_for_monitor_grading_add_P3D65/ARRI_Rec2100PQ-1K-100_65.cube
LUT_3D_SIZE 65
0.00000073 0.00000073 0.00000073
0.01466225 0.00266861 0.00034335
0.02791784 0.00556370 0.00072140
0.04088883 0.00873917 0.00116318
0.05367364 0.01215183 0.00166668
0.06636004 0.01578680 0.00223265
0.07898963 0.01963176 0.00286187
0.09159330 0.02367932 0.00355572
0.10417733 0.02791900 0.00431493
0.11675308 0.03234480 0.00514086
0.12933013 0.03695232 0.00603512
0.14191690 0.04173840 0.00699951
0.15452100 0.04670090 0.00803605
0.16714944 0.05183855 0.00914694
0.17980881 0.05715075 0.01033456
0.19250540 0.06263755 0.01160151
0.20523733 0.06829599 0.01294967
0.21801421 0.07412859 0.01438231
0.23086285 0.08014676 0.01590506
0.24380997 0.08636331 0.01752434
0.25688221 0.09279239 0.01924737
0.27010611 0.09944947 0.02108221
0.28350814 0.10635130 0.02303786
0.29711472 0.11351590 0.02512428
0.31095223 0.12096256 0.02735248
0.32504698 0.12871185 0.02973463
0.33942528 0.13678562 0.03228408
0.35411338 0.14520705 0.03501555
0.36913599 0.15399973 0.03794487
0.38431149 0.16306410 0.04104623
0.39950138 0.17231846 0.04429670
0.41470559 0.18176142 0.04769977
0.42992407 0.19139171 0.05125900
0.44515723 0.20120842 0.05497808
0.46040543 0.21121074 0.05886078
0.47566887 0.22139781 0.06291089
0.49094772 0.23176887 0.06713227
0.50624212 0.24232318 0.07152880
0.52155222 0.25306009 0.07610447
0.53687812 0.26397896 0.08086327
0.55221993 0.27507924 0.08580929
0.56757772 0.28636037 0.09094666
0.58295156 0.29782187 0.09627957
0.59834152 0.30946326 0.10181226
0.61374762 0.32128412 0.10754905
0.62916990 0.33328404 0.11349429
0.64460838 0.34546265 0.11965240
0.66006307 0.35781958 0.12602786
0.67553395 0.37035451 0.13262520
0.69102102 0.38306713 0.13944902
0.70652426 0.39595713 0.14650398
0.72204363 0.40902425 0.15379477
0.73757910 0.42226822 0.16132618
0.75182710 0.43568880 0.16910302
0.75182710 0.44928576 0.17713020
0.75182710 0.46305886 0.18541264
0.75182710 0.47700791 0.19395536
0.75182710 0.49113270 0.20276343
0.75182710 0.50542780 0.21183861
0.75182710 0.51984204 0.22115267
0.75182710 0.53435597 0.23069614
0.75182710 0.54896106 0.24046606
0.75182710 0.56364841 0.25045888
0.75182710 0.57840876 0.26067038
0.75182710 0.59323243 0.27109568
0.00132000 0.00580311 0.00000073
0.00141852 0.00153186 0.00000073
0.01545558 0.00283043 0.00036384
0.02883272 0.00577733 0.00075026
0.04188112 0.00899446 0.00119985
0.05475765 0.01245308 0.00171246
0.06755797 0.01614207 0.00228951
0.08031812 0.02004870 0.00293189
0.09306044 0.02416360 0.00364080
0.10580077 0.02847990 0.00441775
0.11855138 0.03299266 0.00526452
0.13132241 0.03769837 0.00618311
0.14412155 0.04259430 0.00717567
0.15694698 0.04767515 0.00824380
0.16982019 0.05294590 0.00939128
0.18276906 0.05841592 0.01062311
0.19582115 0.06409622 0.01194505
0.20900373 0.06999942 0.01336362
0.22234387 0.07613958 0.01488616
0.23586848 0.08253223 0.01652092
0.24960434 0.08919429 0.01827706
0.26357811 0.09614405 0.02016478
0.27781638 0.10340121 0.02219537
0.29234567 0.11098682 0.02438130
0.30719241 0.11892332 0.02673632
0.32234634 0.12721430 0.02926929
0.33756317 0.13573048 0.03194702
0.35279298 0.14444287 0.03476468
0.36803582 0.15334969 0.03772563
0.38329170 0.16244928 0.04083328
0.39856062 0.17174007 0.04409108
0.41384255 0.18122063 0.04750255
0.42913743 0.19088958 0.05107122
0.44444530 0.20074571 0.05480073
0.45976667 0.21078822 0.05869488
0.47510181 0.22101624 0.06275746
0.49045092 0.23142893 0.06699234
0.50581416 0.24202552 0.07140343
0.52119168 0.25280528 0.07599468
0.53658362 0.26376754 0.08077012
0.55199008 0.27491169 0.08573383
0.56741117 0.28623712 0.09088993
0.58284695 0.29774331 0.09624263
0.59829751 0.30942973 0.10179616
0.61376288 0.32129591 0.10755483
0.62924312 0.33334141 0.11352300
0.64473825 0.34556580 0.11970508
0.66024828 0.35796867 0.12610556
0.67577323 0.37054967 0.13272895
0.69131308 0.38330844 0.13957984
0.70686782 0.39624464 0.14666289
0.72243744 0.40935796 0.15398279
0.73802190 0.42264809 0.16154430
0.75182710 0.43611476 0.16935224
0.75182710 0.44975769 0.17741148
0.75182710 0.46357663 0.18572696
0.75182710 0.47757118 0.19430358
0.75182710 0.49170563 0.20312404
0.75182710 0.50594681 0.21217114
0.75182710 0.52028659 0.22144253
0.75182710 0.53471643 0.23093526
0.75182710 0.54922743 0.24064580
0.75182710 0.56381032 0.25056997
0.75182710 0.57845543 0.26070293
0.75182710 0.59315270 0.27103915
0.00262578 0.01106067 0.00000073
0.00163415 0.00710757 0.00000073
0.00285857 0.00308364 0.00000073
0.01656236 0.00305882 0.00039289
0.03003518 0.00606061 0.00078872
0.04324504 0.00934806 0.00125092
0.05631957 0.01289027 0.00177927
0.06932728 0.01667046 0.00237457
0.08230692 0.02067720 0.00303808
0.09527894 0.02490096 0.00377116
0.10825686 0.02933442 0.00457544
0.12127391 0.03398047 0.00545439
0.13436216 0.03884506 0.00641227
0.14755208 0.04393639 0.00745410
0.16087308 0.04926470 0.00858569
0.17435380 0.05484206 0.00981363
0.18802236 0.06068226 0.01114540
0.20190645 0.06680071 0.01258937
0.21603349 0.07321440 0.01415492
0.23043066 0.07994186 0.01585248
0.24512494 0.08700313 0.01769363
0.26014319 0.09441976 0.01969119
0.27539301 0.10215362 0.02184203
0.29065881 0.11009688 0.02412153
0.30593548 0.11824423 0.02653212
0.32122324 0.12659330 0.02907703
0.33652231 0.13514191 0.03175951
0.35183281 0.14388805 0.03458292
0.36715485 0.15282986 0.03755061
0.38248848 0.16196560 0.04066601
0.39783374 0.17129365 0.04393260
0.41319063 0.18081250 0.04735389
0.42855912 0.19052072 0.05093344
0.44393917 0.20041698 0.05467486
0.45933098 0.21050020 0.05858188
0.47473507 0.22076958 0.06265835
0.49015165 0.23122424 0.06690814
0.50558090 0.24186333 0.07133515
0.52102300 0.25268610 0.07594335
0.53647810 0.26369181 0.08073676
0.55194632 0.27487979 0.08571946
0.56742778 0.28624941 0.09089559
0.58292256 0.29780009 0.09626933
0.59843076 0.30953125 0.10184492
0.61395243 0.32144239 0.10762667
0.62948763 0.33353301 0.11361893
0.64503640 0.34580265 0.11982610
0.66059875 0.35825086 0.12625267
0.67617472 0.37087723 0.13290315
0.69176430 0.38368138 0.13978211
0.70736749 0.39666292 0.14689420
0.72298427 0.40982151 0.15424411
0.73861462 0.42315679 0.16183657
0.75182710 0.43666846 0.16967641
0.75182710 0.45035621 0.17776846
0.75182710 0.46420404 0.18610813
0.75182710 0.47816745 0.19467247
0.75182710 0.49223663 0.20345850
0.75182710 0.50640342 0.21246387
0.75182710 0.52065929 0.22168565
0.75182710 0.53499533 0.23112035
0.75182710 0.54940226 0.24076380
0.75182710 0.56387042 0.25061122
0.75182710 0.57838977 0.26065713
0.75182710 0.59294986 0.27089536
0.00405674 0.01643433 0.00000073
0.00305956 0.01272548 0.00000073
0.00208763 0.00894348 0.00000073
0.00487131 0.00524572 0.00000073
0.01842717 0.00384487 0.00028052
0.03201117 0.00653218 0.00085324
0.04543616 0.00992261 0.00133456
0.05876531 0.01358223 0.00188590
0.07206885 0.01749780 0.00250892
0.08540223 0.02166561 0.00320662
0.09881087 0.02608737 0.00398299
0.11233388 0.03076853 0.00484290
0.12600639 0.03571745 0.00579210
0.13986101 0.04094493 0.00683719
0.15392864 0.04646395 0.00798573
0.16823899 0.05228943 0.00924622
0.18282100 0.05843819 0.01062821
0.19770297 0.06492878 0.01214239
0.21290678 0.07177873 0.01379995
0.22822788 0.07890021 0.01558599
0.24355541 0.08623962 0.01749167
0.25889021 0.09379336 0.01951999
0.27423296 0.10155820 0.02167401
0.28958421 0.10953121 0.02395687
0.30494439 0.11770970 0.02637175
0.32031386 0.12609123 0.02892188
0.33569291 0.13467355 0.03161056
0.35108173 0.14345458 0.03444112
0.36648050 0.15243237 0.03741696
0.38188933 0.16160514 0.04054151
0.39730830 0.17097120 0.04381825
0.41273745 0.18052898 0.04725072
0.42817679 0.19027701 0.05084248
0.44362631 0.20021389 0.05459715
0.45908600 0.21033832 0.05851840
0.47455630 0.22064939 0.06261008
0.49003758 0.23114624 0.06687606
0.50553005 0.24182798 0.07132027
0.52103391 0.25269380 0.07594667
0.53654932 0.26374292 0.08075928
0.55207642 0.27497462 0.08576217
0.56761535 0.28638822 0.09095948
0.58316622 0.29798308 0.09635539
0.59872912 0.30975861 0.10195415
0.61430412 0.32171424 0.10776003
0.62989130 0.33384943 0.11377741
0.64549071 0.34616367 0.12001066
0.66110238 0.35865650 0.12646427
0.67672634 0.37132745 0.13314273
0.69236261 0.38417610 0.14005061
0.70801118 0.39720202 0.14719255
0.72367206 0.41040483 0.15457320
0.73934523 0.42378416 0.16219732
0.75182710 0.43733533 0.17006716
0.75182710 0.45101598 0.17816231
0.75182710 0.46480936 0.18647617
0.75182710 0.47870765 0.19500692
0.75182710 0.49270269 0.20375223
0.75182710 0.50678592 0.21270921
0.75182710 0.52094845 0.22187436
0.75182710 0.53518098 0.23124358
0.75182710 0.54947387 0.24081213
0.75182710 0.56381707 0.25057460
0.75182710 0.57820015 0.26052488
0.75182710 0.59261231 0.27065616
0.00567109 0.02215866 0.00000073
0.00468360 0.01869389 0.00000073
0.00372321 0.01521060 0.00000073
0.00279332 0.01170780 0.00000073
0.00783463 0.00841811 0.00000073
0.02142217 0.00665501 0.00000073
0.03524301 0.00762891 0.00083970
0.04909722 0.01090008 0.00147873
0.06299907 0.01480091 0.00207628
0.07699799 0.01901107 0.00275827
0.09114240 0.02353102 0.00352975
0.10547487 0.02836705 0.00439702
0.12003352 0.03352938 0.00536748
0.13485324 0.03903126 0.00644967
0.14996668 0.04488848 0.00765325
0.16535192 0.05109732 0.00898434
0.18076686 0.05755926 0.01042750
0.19617987 0.06425467 0.01198254
0.21159315 0.07117828 0.01365226
0.22700847 0.07832549 0.01543953
0.24242723 0.08569217 0.01734729
0.25785056 0.09327466 0.01937857
0.27327937 0.10106963 0.02153645
0.28871440 0.10907406 0.02382406
0.30415626 0.11728522 0.02624461
0.31960542 0.12570058 0.02880135
0.33506228 0.13431782 0.03149758
0.35052715 0.14313479 0.03433665
0.36600026 0.15214951 0.03732196
0.38148180 0.16136012 0.04045696
0.39697191 0.17076488 0.04374514
0.41247068 0.18036216 0.04719005
0.42797816 0.19015044 0.05079526
0.44349440 0.20012827 0.05456440
0.45901937 0.21029430 0.05850115
0.47455320 0.22064731 0.06260924
0.49009645 0.23118649 0.06689262
0.50564937 0.24191093 0.07135519
0.52121217 0.25281976 0.07600092
0.53678506 0.26391215 0.08083383
0.55236819 0.27518733 0.08585799
0.56796171 0.28664459 0.09107753
0.58356575 0.29828324 0.09649662
0.59918042 0.31010264 0.10211951
0.61480582 0.32210218 0.10795047
0.63044202 0.33428128 0.11399384
0.64608908 0.34663940 0.12025402
0.66174707 0.35917601 0.12673546
0.67741601 0.37189064 0.13344266
0.69309593 0.38478279 0.14038016
0.70878685 0.39785203 0.14755258
0.72448864 0.41109780 0.15496452
0.74016759 0.42449074 0.16260400
0.75182710 0.43800315 0.17045883
0.75182710 0.45162757 0.17852772
0.75182710 0.46535615 0.18680888
0.75182710 0.47918072 0.19529999
0.75182710 0.49309271 0.20399818
0.75182710 0.50708323 0.21289998
0.75182710 0.52114299 0.22200135
0.75182710 0.53526233 0.23129759
0.75182710 0.54943123 0.24078335
0.75182710 0.56363927 0.25045261
0.75182710 0.57787566 0.26029863
0.75182710 0.59212920 0.27031394
0.00753511 0.02843767 0.00000073
0.00657656 0.02524748 0.00000073
0.00565929 0.02211791 0.00000073
0.00479061 0.01907471 0.00000073
0.00398100 0.01615780 0.00000073
0.01278387 0.01369562 0.00000073
0.02688166 0.01240047 0.00000073
0.04140508 0.01275023 0.00000073
0.05614023 0.01479413 0.00064088
0.07107849 0.01815060 0.00200421
0.08624835 0.02241074 0.00302850
0.10168632 0.02732005 0.00403385
0.11728171 0.03268526 0.00510010
0.13284986 0.03836035 0.00625126
0.14839706 0.04431767 0.00749631
0.16392923 0.05053889 0.00884166
0.17945093 0.05701095 0.01029237
0.19496580 0.06372406 0.01185270
0.21047666 0.07067062 0.01352648
0.22598580 0.07784458 0.01531724
0.24149503 0.08524068 0.01722849
0.25700581 0.09285390 0.01926409
0.27251935 0.10068079 0.02142716
0.28803660 0.10871828 0.02372086
0.30355837 0.11696355 0.02614840
0.31908528 0.12541402 0.02871304
0.33461787 0.13406732 0.03141810
0.35015656 0.14292125 0.03426693
0.36570168 0.15197375 0.03726296
0.38125351 0.16122292 0.04040964
0.39681224 0.17066698 0.04371046
0.41237804 0.18030425 0.04716899
0.42795101 0.19013314 0.05078881
0.44353123 0.20015218 0.05457354
0.45911873 0.21035995 0.05852688
0.47471354 0.22075511 0.06265254
0.49031602 0.23133665 0.06695438
0.50592662 0.24210373 0.07143636
0.52154559 0.25305540 0.07610245
0.53717314 0.26419082 0.08095665
0.55280945 0.27550915 0.08600303
0.56845469 0.28700965 0.09124572
0.58410902 0.29869158 0.09668886
0.59977255 0.31055429 0.10233665
0.61544541 0.32259712 0.10819339
0.63112767 0.33481943 0.11426342
0.64681943 0.34722064 0.12055113
0.66252074 0.35980018 0.12706094
0.67823165 0.37255752 0.13379736
0.69395221 0.38549214 0.14076491
0.70966734 0.39859090 0.14796117
0.72533520 0.41181729 0.15536998
0.74094823 0.42516255 0.16298965
0.75182710 0.43861917 0.17081890
0.75182710 0.45217933 0.17885594
0.75182710 0.46583481 0.18709849
0.75182710 0.47957706 0.19554368
0.75182710 0.49339718 0.20418811
0.75182710 0.50728588 0.21302777
0.75182710 0.52123352 0.22205802
0.75182710 0.53523006 0.23127359
0.75182710 0.54926512 0.24066852
0.75182710 0.56332790 0.25023617
0.75182710 0.57740724 0.25996919
0.75182710 0.59149159 0.26985946
0.00979877 0.03569783 0.00000073
0.00895743 0.03304030 0.00000073
0.00818262 0.03055118 0.00000073
0.00747984 0.02825576 0.00000073
0.00685613 0.02618593 0.00000073
0.00872717 0.02441678 0.00000073
0.02186532 0.02333154 0.00000073
0.03699390 0.02320029 0.00000073
0.05268553 0.02419954 0.00000073
0.06849351 0.02614961 0.00000073
0.08427652 0.02893777 0.00000073
0.10002338 0.03248761 0.00000073
0.11573531 0.03670008 0.00127667
0.13141729 0.04147937 0.00362565
0.14707495 0.04674435 0.00544952
0.16271351 0.05243069 0.00717566
0.17833748 0.05848889 0.00890311
0.19395062 0.06488122 0.01067547
0.20955605 0.07157892 0.01251731
0.22515631 0.07855985 0.01444462
0.24075350 0.08580683 0.01646893
0.25634933 0.09330631 0.01859916
0.27194522 0.10104747 0.02084262
0.28754232 0.10902154 0.02320558
0.30314159 0.11722133 0.02569362
0.31874382 0.12564084 0.02831182
0.33434966 0.13427503 0.03106490
0.34995964 0.14311956 0.03395736
0.36557419 0.15217070 0.03699351
0.38119366 0.16142520 0.04017754
0.39681834 0.17088017 0.04351354
0.41244843 0.18053305 0.04700554
0.42808411 0.19038153 0.05065755
0.44372551 0.20042351 0.05447352
0.45937269 0.21065709 0.05845741
0.47502571 0.22108051 0.06261317
0.49068468 0.23169220 0.06694478
0.50635016 0.24249105 0.07145638
0.52202245 0.25347589 0.07615206
0.53770180 0.26464565 0.08103596
0.55338842 0.27599931 0.08611222
0.56908249 0.28753593 0.09138506
0.58478419 0.29925464 0.09685869
0.60049365 0.31115463 0.10253740
0.61621101 0.32323511 0.10842550
0.63193637 0.33549538 0.11452736
0.64766984 0.34793475 0.12084738
0.66341148 0.36055257 0.12739001
0.67915716 0.37334480 0.13415791
0.69486637 0.38627714 0.14113707
0.71052453 0.39933534 0.14832329
0.72612604 0.41251217 0.15571576
0.74166511 0.42580009 0.16331325
0.75182710 0.43919122 0.17111400
0.75182710 0.45267732 0.17911577
0.75182710 0.46624981 0.18731576
0.75182710 0.47989977 0.19571061
0.75182710 0.49361790 0.20429638
0.75182710 0.50739455 0.21306850
0.75182710 0.52121968 0.22202179
0.75182710 0.53508289 0.23115038
0.75182710 0.54897342 0.24044774
0.75182710 0.56288010 0.24990662
0.75182710 0.57679141 0.25951905
0.75182710 0.59069542 0.26927630
0.01283203 0.04494187 0.00000073
0.01222165 0.04312014 0.00000073
0.01170664 0.04156877 0.00000073
0.01129310 0.04031324 0.00000073
0.01098834 0.03938215 0.00000073
0.01115131 0.03873556 0.00000073
0.02138929 0.03829606 0.00000073
0.03594354 0.03818527 0.00000073
0.05138921 0.03851135 0.00000073
0.06709469 0.03937635 0.00000073
0.08287898 0.04085952 0.00000073
0.09867729 0.04300766 0.00000073
0.11446530 0.04583278 0.00000073
0.13023494 0.04931687 0.00000073
0.14598501 0.05342110 0.00000073
0.16171708 0.05809583 0.00000073
0.17743376 0.06328864 0.00330405
0.19313781 0.06894955 0.00654961
0.20883187 0.07503376 0.00919814
0.22451831 0.08150258 0.01167619
0.24019917 0.08832335 0.01411201
0.25587621 0.09546882 0.01656588
0.27155091 0.10291646 0.01907261
0.28722453 0.11064759 0.02165497
0.30289813 0.11864676 0.02432927
0.31857259 0.12690114 0.02710798
0.33424866 0.13539999 0.03000113
0.34992695 0.14413431 0.03301718
0.36560797 0.15309647 0.03616344
0.38129214 0.16227998 0.03944645
0.39697981 0.17167926 0.04287217
0.41267125 0.18128951 0.04644616
0.42836668 0.19110651 0.05017362
0.44406627 0.20112661 0.05405956
0.45977014 0.21134654 0.05810876
0.47547837 0.22176341 0.06232589
0.49119103 0.23237463 0.06671550
0.50690847 0.24317809 0.07128218
0.52263117 0.25417201 0.07603049
0.53835941 0.26535468 0.08096494
0.55409339 0.27672457 0.08608999
0.56983335 0.28828027 0.09141011
0.58557946 0.30002051 0.09692978
0.60133189 0.31194410 0.10265346
0.61709078 0.32404997 0.10858565
0.63285625 0.33633713 0.11473087
0.64862831 0.34880456 0.12109360
0.66437865 0.36142854 0.12766626
0.68008154 0.37418626 0.13444087
0.69573157 0.38707064 0.14141720
0.71132314 0.40007429 0.14859458
0.72685048 0.41318954 0.15597186
0.74230765 0.42640838 0.16354743
0.75182710 0.43972247 0.17131914
0.75182710 0.45312315 0.17928429
0.75182710 0.46660142 0.18743964
0.75182710 0.48014793 0.19578136
0.75182710 0.49375295 0.20430500
0.75182710 0.50740644 0.21300550
0.75182710 0.52109795 0.22187712
0.75182710 0.53481670 0.23091346
0.75182710 0.54855151 0.24010741
0.75182710 0.56229085 0.24945116
0.75182710 0.57602279 0.25893615
0.75182710 0.58973506 0.26855307
0.01709028 0.05720417 0.00000073
0.01684582 0.05651923 0.00000073
0.01666506 0.05601137 0.00000073
0.01648395 0.05550138 0.00000073
0.01630222 0.05498842 0.00000073
0.01615003 0.05447467 0.00000073
0.02320383 0.05405842 0.00000073
0.03614493 0.05383783 0.00000073
0.05089704 0.05388310 0.00000073
0.06629109 0.05427116 0.00000073
0.08194546 0.05507698 0.00000073
0.09770916 0.05636734 0.00000073
0.11351520 0.05819545 0.00000073
0.12933247 0.06059722 0.00000073
0.14514672 0.06358966 0.00000073
0.16095192 0.06717197 0.00000073
0.17674619 0.07132849 0.00000073
0.19252965 0.07603296 0.00000073
0.20830332 0.08125279 0.00000073
0.22406863 0.08695273 0.00270331
0.23982707 0.09309765 0.00805374
0.25558008 0.09965430 0.01180403
0.27132899 0.10659231 0.01514591
0.28707496 0.11388456 0.01833465
0.30281904 0.12150728 0.02147826
0.31856213 0.12943981 0.02463520
0.33430498 0.13766432 0.02784190
0.35004825 0.14616548 0.03112337
0.36579251 0.15493010 0.03449803
0.38153821 0.16394689 0.03798020
0.39728574 0.17320607 0.04158153
0.41303542 0.18269925 0.04531184
0.42878751 0.19241912 0.04917965
0.44454222 0.20235935 0.05319254
0.46029971 0.21251439 0.05735738
0.47606009 0.22287938 0.06168054
0.49182344 0.23345002 0.06616794
0.50758991 0.24422257 0.07082527
0.52336006 0.25519400 0.07565807
0.53913420 0.26636152 0.08067167
0.55491259 0.27772263 0.08587123
0.57069546 0.28927508 0.09126183
0.58648300 0.30101688 0.09684843
0.60227540 0.31294620 0.10263596
0.61807283 0.32506140 0.10862928
0.63386283 0.33735120 0.11482815
0.64961039 0.34978597 0.12122218
0.66530868 0.36235725 0.12781126
0.68095230 0.37505757 0.13459547
0.69653567 0.38787923 0.14157439
0.71205306 0.40081424 0.14874714
0.72749853 0.41385434 0.15611230
0.74286601 0.42699098 0.16366795
0.75182710 0.44021531 0.17141161
0.75182710 0.45351815 0.17934022
0.75182710 0.46689002 0.18745013
0.75182710 0.48032108 0.19573710
0.75182710 0.49380117 0.20419623
0.75182710 0.50731976 0.21282197
0.75182710 0.52086600 0.22160812
0.75182710 0.53442867 0.23054775
0.75182710 0.54799617 0.23963324
0.75182710 0.56155657 0.24885623
0.75182710 0.57509754 0.25820762
0.75182710 0.58860642 0.26767755
0.02270533 0.07241250 0.00000073
0.02254718 0.07199660 0.00000073
0.02239045 0.07158379 0.00000073
0.02223435 0.07117196 0.00000073
0.02207842 0.07075996 0.00000073
0.02192286 0.07034826 0.00000073
0.02664665 0.06999297 0.00000073
0.03764440 0.06976514 0.00000073
0.05135378 0.06971090 0.00000073
0.06620117 0.06988511 0.00000073
0.08156845 0.07034603 0.00000073
0.09718953 0.07115216 0.00000073
0.11293769 0.07235908 0.00000073
0.12874836 0.07401638 0.00000073
0.14458745 0.07616489 0.00000073
0.16043681 0.07883447 0.00000073
0.17628697 0.08204291 0.00000073
0.19213324 0.08579587 0.00000073
0.20797357 0.09008810 0.00000073
0.22380742 0.09490542 0.00000073
0.23963499 0.10022711 0.00000073
0.25545690 0.10602828 0.00000073
0.27127394 0.11228199 0.00371102
0.28708694 0.11896092 0.01077227
0.30289674 0.12603854 0.01559093
0.31870408 0.13348987 0.01981116
0.33450967 0.14129194 0.02378279
0.35031412 0.14942397 0.02765273
0.36611798 0.15786734 0.03149976
0.38192170 0.16660554 0.03537250
0.39772569 0.17562399 0.03930388
0.41353029 0.18490986 0.04331785
0.42933577 0.19445189 0.04743279
0.44514238 0.20424019 0.05166338
0.46095028 0.21426607 0.05602185
0.47675962 0.22452187 0.06051863
0.49257052 0.23500087 0.06516286
0.50838303 0.24569709 0.06996274
0.52419757 0.25660551 0.07492584
0.54001459 0.26772174 0.08005921
0.55583436 0.27904181 0.08536943
0.57165711 0.29056220 0.09086274
0.58748307 0.30227978 0.09654512
0.60330898 0.31418915 0.10242099
0.61910149 0.32626209 0.10848238
0.63484811 0.33848517 0.11472820
0.65054366 0.35085035 0.12115966
0.66618275 0.36334945 0.12777741
0.68175983 0.37597414 0.13458158
0.69726919 0.38871591 0.14157174
0.71270492 0.40156603 0.14874692
0.72806095 0.41451552 0.15610559
0.74333103 0.42755519 0.16364563
0.75182710 0.44067554 0.17136431
0.75182710 0.45386681 0.17925831
0.75182710 0.46711893 0.18732368
0.75182710 0.48042154 0.19555579
0.75182710 0.49376395 0.20394940
0.75182710 0.50713514 0.21249854
0.75182710 0.52052377 0.22119656
0.75182710 0.53391815 0.23003610
0.75182710 0.54730624 0.23900905
0.75182710 0.56067568 0.24810658
0.75182710 0.57401372 0.25731908
0.75182710 0.58730728 0.26663616
0.02879886 0.08797914 0.00000073
0.02866622 0.08764903 0.00000073
0.02853564 0.08732371 0.00000073
0.02840641 0.08700140 0.00000073
0.02827806 0.08668093 0.00000073
0.02815050 0.08636210 0.00000073
0.03137665 0.08607909 0.00000073
0.04045066 0.08588424 0.00000073
0.05285688 0.08580896 0.00000073
0.06692602 0.08589243 0.00000073
0.08183520 0.08617830 0.00000073
0.09718970 0.08671310 0.00000073
0.11278931 0.08754449 0.00000073
0.12852632 0.08871954 0.00000073
0.14434017 0.09028277 0.00000073
0.16019591 0.09227431 0.00000073
0.17607313 0.09472801 0.00000073
0.19195993 0.09767000 0.00000073
0.20784947 0.10111769 0.00000073
0.22373792 0.10507956 0.00000073
0.23962332 0.10955556 0.00000073
0.25550479 0.11453819 0.00000073
0.27138208 0.12001390 0.00000073
0.28725534 0.12596470 0.00000073
0.30312491 0.13236968 0.00000073
0.31899121 0.13920640 0.00776335
0.33485472 0.14645201 0.01538744
0.35071591 0.15408407 0.02107329
0.36657522 0.16208111 0.02610428
0.38243304 0.17042306 0.03083803
0.39828974 0.17909140 0.03543551
0.41414564 0.18806924 0.03998594
0.43000100 0.19734131 0.04454536
0.44585607 0.20689390 0.04915212
0.46171102 0.21671474 0.05383420
0.47756600 0.22679286 0.05861307
0.49342115 0.23711851 0.06350588
0.50927654 0.24768300 0.06852682
0.52513235 0.25847867 0.07368798
0.54098913 0.26949898 0.07900006
0.55684717 0.28073800 0.08447251
0.57270664 0.29219037 0.09011387
0.58854468 0.30383462 0.09592298
0.60434003 0.31564962 0.10189789
0.62008769 0.32762591 0.10804194
0.63578249 0.33975412 0.11435770
0.65141908 0.35202488 0.12084701
0.66699193 0.36442883 0.12751103
0.68249533 0.37695654 0.13435024
0.69792341 0.38959848 0.14136446
0.71327011 0.40234498 0.14855286
0.72852922 0.41518622 0.15591396
0.74369432 0.42811216 0.16344561
0.75182710 0.44111257 0.17114502
0.75182710 0.45417698 0.17900872
0.75182710 0.46729466 0.18703254
0.75182710 0.48045461 0.19521163
0.75182710 0.49364554 0.20354044
0.75182710 0.50685588 0.21201270
0.75182710 0.52007374 0.22062139
0.75182710 0.53328692 0.22935878
0.75182710 0.54648290 0.23821635
0.75182710 0.55964882 0.24718484
0.75182710 0.57277152 0.25625419
0.75182710 0.58583747 0.26541359
0.03528841 0.10372353 0.00000073
0.03518287 0.10347339 0.00000073
0.03507986 0.10322907 0.00000073
0.03497874 0.10298907 0.00000073
0.03487903 0.10275226 0.00000073
0.03478054 0.10251816 0.00000073
0.03707151 0.10230891 0.00000073
0.04446159 0.10216349 0.00000073
0.05544258 0.10210401 0.00000073
0.06853932 0.10215879 0.00000073
0.08282108 0.10236043 0.00000073
