DIT_DOCS/ARRI_HDR_Lookfiles_3DLUTs_190319/3D_LUTs_for_monitor_grading_add_P3D65/ARRI_Rec2100HLG-1K-100_65.cube
LUT_3D_SIZE 65
0.00000000 0.00000000 0.00000000
0.01159740 0.00251614 0.00043653
0.01975593 0.00428620 0.00074362
0.02770403 0.00601060 0.00104278
0.03572533 0.00775088 0.00134471
0.04396034 0.00953753 0.00165467
0.05248353 0.01138669 0.00197549
0.06134912 0.01331015 0.00230919
0.07058855 0.01531471 0.00265696
0.08023399 0.01740736 0.00302002
0.09031554 0.01959463 0.00339949
0.10086272 0.02188292 0.00379649
0.11190528 0.02427869 0.00421213
0.12347386 0.02678858 0.00464758
0.13560036 0.02941951 0.00510402
0.14831839 0.03217878 0.00558273
0.16165506 0.03507227 0.00608472
0.17565124 0.03810885 0.00661154
0.19037137 0.04130249 0.00716561
0.20588723 0.04466878 0.00774963
0.22227880 0.04822505 0.00836661
0.23963520 0.05199065 0.00901991
0.25805587 0.05598715 0.00971326
0.27765179 0.06023863 0.01045086
0.29854700 0.06477200 0.01123736
0.32088031 0.06961738 0.01207799
0.34480731 0.07480853 0.01297860
0.37050264 0.08038332 0.01394578
0.39815986 0.08638376 0.01498680
0.42758617 0.09276802 0.01609441
0.45861755 0.09950051 0.01726244
0.49134357 0.10660066 0.01849425
0.52473586 0.11408916 0.01979344
0.55628185 0.12198826 0.02116386
0.58623542 0.13032166 0.02260963
0.61488787 0.13911457 0.02413512
0.64246190 0.14839388 0.02574499
0.66913175 0.15818826 0.02744423
0.69503636 0.16852837 0.02923815
0.72028842 0.17944693 0.03113242
0.74498068 0.19097896 0.03313312
0.76919052 0.20316190 0.03524675
0.79298322 0.21603587 0.03748027
0.81641449 0.22964381 0.03984112
0.83953234 0.24403179 0.04233731
0.86237853 0.25924922 0.04497739
0.88498968 0.27534914 0.04777058
0.90739823 0.29238854 0.05072677
0.92963308 0.31042871 0.05385657
0.95172020 0.32953558 0.05717144
0.97368309 0.34978016 0.06068369
0.99554320 0.37123897 0.06440660
1.00000000 0.39399456 0.06835449
1.00000000 0.41850739 0.07260724
1.00000000 0.44884371 0.07787032
1.00000000 0.48130916 0.08350278
1.00000000 0.51560976 0.08953062
1.00000000 0.54877197 0.09598155
1.00000000 0.58049535 0.10288250
1.00000000 0.61095179 0.11023774
1.00000000 0.64032620 0.11806506
1.00000000 0.66877904 0.12638791
1.00000000 0.69643437 0.13523005
1.00000000 0.72338932 0.14461549
1.00000000 0.74972075 0.15456850
0.00148186 0.00530841 0.00000000
0.00186648 0.00199227 0.00000000
0.01209627 0.00262438 0.00045531
0.02031358 0.00440718 0.00076461
0.02831835 0.00614388 0.00106591
0.03641735 0.00790102 0.00137075
0.04475420 0.00970976 0.00168456
0.05340051 0.01158564 0.00201000
0.06240586 0.01353942 0.00234897
0.07181005 0.01557973 0.00270294
0.08164829 0.01771421 0.00307325
0.09195392 0.01995009 0.00346116
0.10275889 0.02229431 0.00386786
0.11408778 0.02475220 0.00429428
0.12598729 0.02733388 0.00474218
0.13851497 0.03005186 0.00521373
0.15173438 0.03291991 0.00571131
0.16571595 0.03595332 0.00623757
0.18053789 0.03916905 0.00679547
0.19628725 0.04258599 0.00738828
0.21306107 0.04622519 0.00801965
0.23096768 0.05011017 0.00869366
0.25012823 0.05426719 0.00941487
0.27067841 0.05872571 0.01018838
0.29277049 0.06351875 0.01101993
0.31651674 0.06867068 0.01191374
0.34164145 0.07412167 0.01285944
0.36813930 0.07987058 0.01385682
0.39608560 0.08593374 0.01490873
0.42556029 0.09232849 0.01601816
0.45664828 0.09907326 0.01718831
0.48943980 0.10618763 0.01842259
0.52305603 0.11369240 0.01972460
0.55484628 0.12160978 0.02109820
0.58500910 0.12996370 0.02254753
0.61384440 0.13877954 0.02407699
0.64158082 0.14808437 0.02569130
0.66839684 0.15790707 0.02739545
0.69443454 0.16827848 0.02919479
0.71980897 0.17923156 0.03109505
0.74461468 0.19080157 0.03310235
0.76893045 0.20302622 0.03522321
0.79282268 0.21594588 0.03746466
0.81634799 0.22960383 0.03983419
0.83955509 0.24404644 0.04233985
0.86248634 0.25932349 0.04499028
0.88517888 0.27548840 0.04779474
0.90766554 0.29259858 0.05076320
0.92997557 0.31071577 0.05390637
0.95213524 0.32990640 0.05723577
0.97416831 0.35024201 0.06076382
0.99609645 0.37179971 0.06450388
1.00000000 0.39466267 0.06847040
1.00000000 0.41943269 0.07276777
1.00000000 0.44992678 0.07805822
1.00000000 0.48256477 0.08372062
1.00000000 0.51697193 0.08978108
1.00000000 0.55007642 0.09625081
1.00000000 0.58161693 0.10314031
1.00000000 0.61186960 0.11047111
1.00000000 0.64104104 0.11826500
1.00000000 0.66928872 0.12654399
1.00000000 0.69673438 0.13533024
1.00000000 0.72347332 0.14464598
1.00000000 0.74958094 0.15451351
0.00241395 0.00864741 0.00000000
0.00172333 0.00617343 0.00000000
0.00307071 0.00327766 0.00000000
0.01278832 0.00277452 0.00048135
0.02104672 0.00456624 0.00079220
0.02916475 0.00632751 0.00109777
0.03741810 0.00811814 0.00140842
0.04593213 0.00996532 0.00172889
0.05478081 0.01188511 0.00206196
0.06401389 0.01388829 0.00240949
0.07367121 0.01598352 0.00277300
0.08380655 0.01818246 0.00315449
0.09447599 0.02049727 0.00355609
0.10573897 0.02294086 0.00398003
0.11765972 0.02552716 0.00442873
0.13030849 0.02827140 0.00490483
0.14376271 0.03119039 0.00541125
0.15810817 0.03430275 0.00595122
0.17344027 0.03762916 0.00652832
0.18986542 0.04119272 0.00714656
0.20750259 0.04501924 0.00781043
0.22648516 0.04913765 0.00852494
0.24679999 0.05354510 0.00928959
0.26823924 0.05819651 0.01009657
0.29085601 0.06310339 0.01094787
0.31471400 0.06827956 0.01184588
0.33988064 0.07373965 0.01279316
0.36642744 0.07949918 0.01379239
0.39443026 0.08557460 0.01484642
0.42396963 0.09198338 0.01595828
0.45513106 0.09874409 0.01713121
0.48800545 0.10587644 0.01836860
0.52181760 0.11340139 0.01967412
0.55382352 0.12134128 0.02105161
0.58417130 0.12971999 0.02250524
0.61316871 0.13856321 0.02403946
0.64104957 0.14789818 0.02565899
0.66799602 0.15775398 0.02736889
0.69415284 0.16816167 0.02917453
0.71963713 0.17915445 0.03108168
0.74454498 0.19076782 0.03309649
0.76895639 0.20303975 0.03522556
0.79293872 0.21601092 0.03747594
0.81654934 0.22972491 0.03985519
0.83983760 0.24422844 0.04237142
0.86284636 0.25957164 0.04503333
0.88561319 0.27580835 0.04785025
0.90817127 0.29299641 0.05083222
0.93055015 0.31119801 0.05399004
0.95277636 0.33048010 0.05733530
0.97487388 0.35091475 0.06088053
0.99686457 0.37257968 0.06463920
1.00000000 0.39555872 0.06862586
1.00000000 0.42063786 0.07297686
1.00000000 0.45130329 0.07829704
1.00000000 0.48408974 0.08398519
1.00000000 0.51841003 0.09004682
1.00000000 0.55128279 0.09650091
1.00000000 0.58260203 0.10336756
1.00000000 0.61263815 0.11066707
1.00000000 0.64159369 0.11841989
1.00000000 0.66962308 0.12664652
1.00000000 0.69684573 0.13536745
1.00000000 0.72335513 0.14460308
1.00000000 0.74922517 0.15437368
0.00330145 0.01182667 0.00000000
0.00269325 0.00964795 0.00000000
0.00205011 0.00734402 0.00000000
0.00451620 0.00482057 0.00000000
0.01392045 0.00331741 0.00035171
0.02225249 0.00482784 0.00083759
0.03052965 0.00662364 0.00114914
0.03899400 0.00846004 0.00146774
0.04777037 0.01036414 0.00179808
0.05694736 0.01235516 0.00214351
0.06659935 0.01444923 0.00250681
0.07679610 0.01666149 0.00289062
0.08760773 0.01900715 0.00329757
0.09910776 0.02150217 0.00373043
0.11137521 0.02416369 0.00419218
0.12449637 0.02701042 0.00468606
0.13856638 0.03006301 0.00521566
0.15369089 0.03334439 0.00578495
0.16998114 0.03687868 0.00639812
0.18729851 0.04063581 0.00704995
0.20557537 0.04460111 0.00773789
0.22486330 0.04878578 0.00846389
0.24521664 0.05320158 0.00922999
0.26669276 0.05786099 0.01003836
0.28935229 0.06277715 0.01089127
0.31325941 0.06796397 0.01179113
0.33848206 0.07343622 0.01274052
0.36509230 0.07920951 0.01374213
0.39316655 0.08530043 0.01479885
0.42278595 0.09172658 0.01591373
0.45403666 0.09850665 0.01709001
0.48701027 0.10566052 0.01833114
0.52099725 0.11320932 0.01964079
0.55319042 0.12117554 0.02102286
0.58369973 0.12958311 0.02248150
0.61283912 0.13845785 0.02402118
0.64084699 0.14782726 0.02564669
0.66790862 0.15772062 0.02736310
0.69417106 0.16816922 0.02917584
0.71975311 0.17920649 0.03109070
0.74475218 0.19086819 0.03311390
0.76924928 0.20319257 0.03525207
0.79331257 0.21622061 0.03751232
0.81700006 0.22999621 0.03990226
0.84036164 0.24456644 0.04243006
0.86344059 0.25998181 0.04510449
0.88627482 0.27629656 0.04793495
0.90889782 0.29356897 0.05093156
0.93133939 0.31186172 0.05410519
0.95362628 0.33124226 0.05746753
0.97578265 0.35178324 0.06103121
0.99783050 0.37356297 0.06480979
1.00000000 0.39666596 0.06881795
1.00000000 0.42209294 0.07322930
1.00000000 0.45282451 0.07856095
1.00000000 0.48556460 0.08424106
1.00000000 0.51970954 0.09028811
1.00000000 0.55233954 0.09672085
1.00000000 0.58342606 0.10355823
1.00000000 0.61323383 0.11081930
1.00000000 0.64196134 0.11852308
1.00000000 0.66975998 0.12668853
1.00000000 0.69674689 0.13533442
1.00000000 0.72301371 0.14447925
1.00000000 0.74863288 0.15414123
0.00421907 0.01511381 0.00000000
0.00366575 0.01313170 0.00000000
0.00310246 0.01111383 0.00000000
0.00252312 0.00903847 0.00000000
0.00642831 0.00686155 0.00000000
0.01561057 0.00519813 0.00000000
0.02421243 0.00545326 0.00081177
0.03282561 0.00712176 0.00123556
0.04174858 0.00905767 0.00157142
0.05111630 0.01109006 0.00192403
0.06102540 0.01323992 0.00229701
0.07156428 0.01552641 0.00269369
0.08282068 0.01796857 0.00311738
0.09488599 0.02058623 0.00357152
0.10785830 0.02340067 0.00405980
0.12179552 0.02642445 0.00458440
0.13654032 0.02962344 0.00513940
0.15210634 0.03300061 0.00572531
0.16853911 0.03656582 0.00634384
0.18588600 0.04032936 0.00699678
0.20419657 0.04430197 0.00768599
0.22352291 0.04849497 0.00841344
0.24391984 0.05292023 0.00918118
0.26544522 0.05759033 0.00999140
0.28816017 0.06251850 0.01084639
0.31212938 0.06771880 0.01174860
0.33742134 0.07320608 0.01270059
0.36410866 0.07899610 0.01370511
0.39226837 0.08510556 0.01476504
0.42198222 0.09155220 0.01588348
0.45333705 0.09835487 0.01706368
0.48642517 0.10553358 0.01830912
0.52057055 0.11310964 0.01962350
0.55292327 0.12110571 0.02101074
0.58357142 0.12954591 0.02247504
0.61283341 0.13845603 0.02402087
0.64095154 0.14786386 0.02565304
0.66811368 0.15779890 0.02737668
0.69446875 0.16829267 0.02919725
0.72013693 0.17937885 0.03112061
0.74521672 0.19109345 0.03315298
0.76978992 0.20347503 0.03530108
0.79392538 0.21656485 0.03757204
0.81768162 0.23040714 0.03997355
0.84110894 0.24504935 0.04251384
0.86425098 0.26054235 0.04520174
0.88714595 0.27694080 0.04804672
0.90982756 0.29430343 0.05105898
0.93232584 0.31269340 0.05424947
0.95466769 0.33217870 0.05763000
0.97687744 0.35283253 0.06121325
0.99897704 0.37473365 0.06501290
1.00000000 0.39791587 0.06903480
1.00000000 0.42355405 0.07348279
1.00000000 0.45423827 0.07880623
1.00000000 0.48689995 0.08447273
1.00000000 0.52084492 0.09049983
1.00000000 0.55322243 0.09690521
1.00000000 0.58406583 0.10370663
1.00000000 0.61363431 0.11092181
1.00000000 0.64212237 0.11856832
1.00000000 0.66967846 0.12666351
1.00000000 0.69641743 0.13522439
1.00000000 0.72242914 0.14426754
1.00000000 0.74778456 0.15380903
0.00521457 0.01867998 0.00000000
0.00470933 0.01687006 0.00000000
0.00421258 0.01509059 0.00000000
0.00372683 0.01335051 0.00000000
0.00325660 0.01166601 0.00000000
0.00937043 0.01000196 0.00000000
0.01860059 0.00870637 0.00000000
0.02779392 0.00844342 0.00000000
0.03720147 0.00923468 0.00059035
0.04705794 0.01076123 0.00148698
0.05752105 0.01274927 0.00203543
0.06871559 0.01505336 0.00251833
0.08064173 0.01758133 0.00299555
0.09321373 0.02027327 0.00348547
0.10647623 0.02312909 0.00399471
0.12047343 0.02615285 0.00452760
0.13524944 0.02935090 0.00508734
0.15084910 0.03273098 0.00567654
0.16731862 0.03630190 0.00629750
0.18470600 0.04007338 0.00695235
0.20306137 0.04405568 0.00764326
0.22243737 0.04825945 0.00837258
0.24288935 0.05269666 0.00914239
0.26447566 0.05737997 0.00995491
0.28725796 0.06232276 0.01081244
0.31130146 0.06753918 0.01171744
0.33667521 0.07304421 0.01267251
0.36345242 0.07885372 0.01368041
0.39171071 0.08498457 0.01474405
0.42153248 0.09145463 0.01586655
0.45300528 0.09828289 0.01705119
0.48622212 0.10548953 0.01830148
0.52051220 0.11309602 0.01962114
0.55299788 0.12112520 0.02101413
0.58376277 0.12960140 0.02248467
0.61312903 0.13855052 0.02403726
0.64134139 0.14800042 0.02567673
0.66859003 0.15798092 0.02740826
0.69502530 0.16852377 0.02923735
0.72076849 0.17966290 0.03116989
0.74591892 0.19143458 0.03321217
0.77055906 0.20387765 0.03537093
0.79475824 0.21703372 0.03765338
0.81857540 0.23094738 0.04006723
0.84206117 0.24566641 0.04262078
0.86525948 0.26124207 0.04532295
0.88820874 0.27772942 0.04818327
0.91094286 0.29518766 0.05121202
0.93349204 0.31368042 0.05442025
0.95588330 0.33327621 0.05781985
0.97811980 0.35402828 0.06142004
1.00000000 0.37595225 0.06522354
1.00000000 0.39910730 0.06924062
1.00000000 0.42490532 0.07371621
1.00000000 0.45551667 0.07902686
1.00000000 0.48807126 0.08467463
1.00000000 0.52179430 0.09067604
1.00000000 0.55391072 0.09704767
1.00000000 0.58450156 0.10380604
1.00000000 0.61382061 0.11096749
1.00000000 0.64205850 0.11854812
1.00000000 0.66936080 0.12656362
1.00000000 0.69584016 0.13502918
1.00000000 0.72158467 0.14395942
1.00000000 0.74666388 0.15336828
0.00636677 0.02280747 0.00000000
0.00594416 0.02129355 0.00000000
0.00554935 0.01987923 0.00000000
0.00518577 0.01857680 0.00000000
0.00485801 0.01740266 0.00000000
0.00610409 0.01636728 0.00000000
0.01446454 0.01543939 0.00000000
0.02413684 0.01484731 0.00000000
0.03428550 0.01486266 0.00000000
0.04480325 0.01544237 0.00000000
0.05574062 0.01651478 0.00000000
0.06718342 0.01802053 0.00000000
0.07919959 0.01989657 0.00091133
0.09184583 0.02209087 0.00216114
0.10517359 0.02456575 0.00300693
0.11923072 0.02729598 0.00374999
0.13406394 0.03026612 0.00445609
0.14972005 0.03346803 0.00515331
0.16624675 0.03689892 0.00585707
0.18369324 0.04055990 0.00657719
0.20211068 0.04445506 0.00732064
0.22155253 0.04859081 0.00809280
0.24207493 0.05297542 0.00889813
0.26373698 0.05761874 0.00974055
0.28660101 0.06253203 0.01062364
0.31073293 0.06772782 0.01155082
0.33620244 0.07321986 0.01252541
0.36308341 0.07902307 0.01355074
0.39145417 0.08515360 0.01463020
0.42139783 0.09162878 0.01576724
0.45300266 0.09846719 0.01696548
0.48636246 0.10568874 0.01822865
0.52078634 0.11331469 0.01956069
0.55338148 0.12136777 0.02096574
0.58424344 0.12987225 0.02244817
0.61369743 0.13885403 0.02401262
0.64198975 0.14834085 0.02566401
0.66931225 0.15836262 0.02740763
0.69581650 0.16895124 0.02924908
0.72162459 0.18014078 0.03119436
0.74683647 0.19196771 0.03324983
0.77153511 0.20447107 0.03542233
0.79579022 0.21769271 0.03771916
0.81966106 0.23167747 0.04014813
0.84319851 0.24647345 0.04271762
0.86644668 0.26213228 0.04543661
0.88944418 0.27870943 0.04831474
0.91222506 0.29626450 0.05136238
0.93481363 0.31485650 0.05458978
0.95717959 0.33450139 0.05799967
0.97932802 0.35524326 0.06159972
1.00000000 0.37713882 0.06539977
1.00000000 0.40024695 0.06941006
1.00000000 0.42616316 0.07390730
1.00000000 0.45667295 0.07920120
1.00000000 0.48908864 0.08482568
1.00000000 0.52256606 0.09079621
1.00000000 0.55440920 0.09712822
1.00000000 0.58473508 0.10383696
1.00000000 0.61379214 0.11093737
1.00000000 0.64176712 0.11844401
1.00000000 0.66880270 0.12637088
1.00000000 0.69500932 0.13473137
1.00000000 0.72047332 0.14353809
1.00000000 0.74526280 0.15280280
0.00785096 0.02812421 0.00000000
0.00755635 0.02706886 0.00000000
0.00730637 0.02617334 0.00000000
0.00710461 0.02545060 0.00000000
0.00695530 0.02491574 0.00000000
0.00707136 0.02454090 0.00000000
0.01318013 0.02413228 0.00000000
0.02220755 0.02370426 0.00000000
0.03221488 0.02337753 0.00000000
0.04280076 0.02329263 0.00000000
0.05388039 0.02355090 0.00000000
0.06547197 0.02420190 0.00000000
0.07762415 0.02525691 0.00000000
0.09039121 0.02670492 0.00000000
0.10382629 0.02852458 0.00000000
0.11798054 0.03069188 0.00000000
0.13290339 0.03318452 0.00185032
0.14864433 0.03598432 0.00330145
0.16525366 0.03907785 0.00439809
0.18278233 0.04245621 0.00537809
0.20128297 0.04611469 0.00631072
0.22081031 0.05005224 0.00722830
0.24142157 0.05427095 0.00814948
0.26317682 0.05877558 0.00908663
0.28613929 0.06357325 0.01004875
0.31037571 0.06867311 0.01104297
0.33595660 0.07408616 0.01207524
0.36295661 0.07982512 0.01315083
0.39145485 0.08590430 0.01427459
0.42153523 0.09233957 0.01545111
0.45328682 0.09914835 0.01668488
0.48680426 0.10634957 0.01798038
0.52135336 0.11396374 0.01934211
0.55403840 0.12201297 0.02077472
0.58498090 0.13052107 0.02228297
0.61450839 0.13951359 0.02387185
0.64286857 0.14901793 0.02554656
0.67025404 0.15906371 0.02731263
0.69681747 0.16968276 0.02917591
0.72268157 0.18090911 0.03114257
0.74794676 0.19277924 0.03321918
0.77269636 0.20533227 0.03541274
0.79700038 0.21861013 0.03773069
0.82091831 0.23265784 0.04018099
0.84450120 0.24752371 0.04277216
0.86779334 0.26325964 0.04551332
0.89083329 0.27992127 0.04841421
0.91361433 0.29753595 0.05147959
0.93613097 0.31613100 0.05471421
0.95840417 0.33575663 0.05812688
0.98045171 0.35646499 0.06172671
1.00000000 0.37831012 0.06552314
1.00000000 0.40134787 0.06952592
1.00000000 0.42733391 0.07403930
1.00000000 0.45771009 0.07931330
1.00000000 0.48995192 0.08491065
1.00000000 0.52315877 0.09084577
1.00000000 0.55471400 0.09713289
1.00000000 0.58476066 0.10378597
1.00000000 0.61354166 0.11081852
1.00000000 0.64123980 0.11824353
1.00000000 0.66799481 0.12607332
1.00000000 0.69391484 0.13431941
1.00000000 0.71908444 0.14299242
1.00000000 0.74357023 0.15210195
0.00986834 0.03535103 0.00000000
0.00975391 0.03494111 0.00000000
0.00966921 0.03463768 0.00000000
0.00958427 0.03433341 0.00000000
0.00949896 0.03402780 0.00000000
0.00943014 0.03372186 0.00000000
0.01346769 0.03338738 0.00000000
0.02121266 0.03301588 0.00000000
0.03058599 0.03264737 0.00000000
0.04092649 0.03235750 0.00000000
0.05197991 0.03223775 0.00000000
0.06365185 0.03237042 0.00000000
0.07592702 0.03281544 0.00000000
0.08882843 0.03360929 0.00000000
0.10239600 0.03476968 0.00000000
0.11667645 0.03630107 0.00000000
0.13171911 0.03819966 0.00000000
0.14757449 0.04045721 0.00000000
0.16429408 0.04306397 0.00000000
0.18193036 0.04601058 0.00146149
0.20053702 0.04928923 0.00374452
0.22017106 0.05289486 0.00523026
0.24089100 0.05682480 0.00650924
0.26275811 0.06107910 0.00770191
0.28583669 0.06566039 0.00885909
0.31019448 0.07057381 0.01000864
0.33590294 0.07582681 0.01116832
0.36303764 0.08142898 0.01235078
0.39167858 0.08739198 0.01356578
0.42191053 0.09372940 0.01482135
0.45382346 0.10045671 0.01612450
0.48751292 0.10759123 0.01748157
0.52217915 0.11515210 0.01889851
0.55493742 0.12316029 0.02038110
0.58594629 0.13163866 0.02193503
0.61553494 0.14061199 0.02356602
0.64395224 0.15010706 0.02527989
0.67139116 0.16015282 0.02708265
0.69800508 0.17078073 0.02898061
0.72391722 0.18202453 0.03098033
0.74922836 0.19392050 0.03308870
0.77402207 0.20650761 0.03531300
0.79836857 0.21982775 0.03766094
0.82232750 0.23392594 0.04014073
0.84595008 0.24885057 0.04276108
0.86926221 0.26464080 0.04552901
0.89225224 0.28131224 0.04844729
0.91494625 0.29890772 0.05152359
0.93736843 0.31747339 0.05476614
0.95953928 0.33705714 0.05818345
0.98147616 0.35770849 0.06178430
1.00000000 0.37947859 0.06557771
1.00000000 0.40242011 0.06957296
1.00000000 0.42842230 0.07409696
1.00000000 0.45863056 0.07934833
1.00000000 0.49066143 0.08491512
1.00000000 0.52357199 0.09081065
1.00000000 0.55482281 0.09704795
1.00000000 0.58457444 0.10363966
1.00000000 0.61306411 0.11059785
1.00000000 0.64047048 0.11793392
1.00000000 0.66693022 0.12565849
1.00000000 0.69254911 0.13378123
1.00000000 0.71740984 0.14231075
1.00000000 0.74157750 0.15125450
0.01247010 0.04467121 0.00000000
0.01239731 0.04441045 0.00000000
0.01232515 0.04415197 0.00000000
0.01225326 0.04389444 0.00000000
0.01218144 0.04363714 0.00000000
0.01210976 0.04338037 0.00000000
0.01475583 0.04310637 0.00000000
0.02116321 0.04279997 0.00000000
0.02966757 0.04247290 0.00000000
0.03949594 0.04215781 0.00000000
0.05029670 0.04190895 0.00000000
0.06189329 0.04179299 0.00000000
0.07420222 0.04187669 0.00000000
0.08719736 0.04221755 0.00000000
0.10088762 0.04285993 0.00000000
0.11530223 0.04383510 0.00000000
0.13048163 0.04516315 0.00000000
0.14647244 0.04685549 0.00000000
0.16332496 0.04891726 0.00000000
0.18109204 0.05134947 0.00000000
0.19982878 0.05415083 0.00000000
0.21959249 0.05731921 0.00000000
0.24044270 0.06085269 0.00181662
0.26244122 0.06475028 0.00463356
0.28565446 0.06901299 0.00646473
0.31015126 0.07364343 0.00803671
0.33600414 0.07864630 0.00949799
0.36328968 0.08402840 0.01091122
0.39208886 0.08979871 0.01231069
0.42248744 0.09596829 0.01371835
0.45457634 0.10255035 0.01514977
0.48845207 0.10956014 0.01661702
0.52322768 0.11701499 0.01813003
0.55604582 0.12493430 0.01969744
0.58710950 0.13333955 0.02132710
0.61674912 0.14225434 0.02302639
0.64521440 0.15170446 0.02480245
0.67269874 0.16171796 0.02666232
0.69935566 0.17232547 0.02861314
0.72530891 0.18356022 0.03066219
0.75065951 0.19545799 0.03281696
0.77549123 0.20805740 0.03508525
0.79987442 0.22140007 0.03747520
0.82386367 0.23552772 0.03999482
0.84746068 0.25045582 0.04264710
0.87069331 0.26621703 0.04543829
0.89359470 0.28285197 0.04837599
0.91619286 0.30040291 0.05146807
0.93851154 0.31891365 0.05472256
0.96057079 0.33842950 0.05814773
0.98238756 0.35899718 0.06175203
1.00000000 0.38066474 0.06554411
1.00000000 0.40348139 0.06953279
1.00000000 0.42944065 0.07406218
1.00000000 0.45944426 0.07928882
1.00000000 0.49122481 0.08482218
1.00000000 0.52381164 0.09067449
1.00000000 0.55473892 0.09685756
1.00000000 0.58417761 0.10338268
1.00000000 0.61235891 0.11026048
1.00000000 0.63945714 0.11750079
1.00000000 0.66560571 0.12511250
1.00000000 0.69090792 0.13310343
1.00000000 0.71544448 0.14148023
1.00000000 0.73927887 0.15024820
0.01526703 0.05469054 0.00000000
0.01520620 0.05447264 0.00000000
0.01514632 0.05425813 0.00000000
0.01508706 0.05404584 0.00000000
0.01502820 0.05383499 0.00000000
0.01496970 0.05362544 0.00000000
0.01676382 0.05340526 0.00000000
0.02197080 0.05315945 0.00000000
0.02952025 0.05288998 0.00000000
0.03867600 0.05260932 0.00000000
0.04903984 0.05234494 0.00000000
0.06039016 0.05213903 0.00000000
0.07259857 0.05204391 0.00000000
0.08559598 0.05211522 0.00000000
0.09935519 0.05240561 0.00000000
0.11387863 0.05296090 0.00000000
0.12918883 0.05381847 0.00000000
0.14532140 0.05500734 0.00000000
0.16232043 0.05654916 0.00000000
0.18023569 0.05845938 0.00000000
0.19912102 0.06074863 0.00000000
0.21903362 0.06342404 0.00000000
0.24003371 0.06649039 0.00000000
0.26218456 0.06995126 0.00000000
0.28555262 0.07380983 0.00000000
0.31020720 0.07806953 0.00331720
0.33622176 0.08273487 0.00617581
0.36367466 0.08781189 0.00827344
0.39264793 0.09330807 0.01011820
0.42322836 0.09923276 0.01184995
0.45550789 0.10559728 0.01353264
0.48958405 0.11241498 0.01520288
0.52446178 0.11970139 0.01688474
0.55732992 0.12747415 0.01859575
0.58843965 0.13575319 0.02034970
0.61812233 0.14456065 0.02215814
0.64662832 0.15392106 0.02403124
0.67415146 0.16386132 0.02597833
0.70084522 0.17441093 0.02800827
0.72683374 0.18560229 0.03012976
0.75221825 0.19747047 0.03235142
0.77708252 0.21005339 0.03468194
0.80146178 0.22337263 0.03712637
0.82538521 0.23744962 0.03968965
0.84889894 0.25231970 0.04237931
0.87204176 0.26801978 0.04520296
0.89484632 0.28458825 0.04816832
0.91734022 0.30206498 0.05128321
0.93954673 0.32049119 0.05455560
0.96148550 0.33990938 0.05799357
0.98317302 0.36036322 0.06160532
1.00000000 0.38189743 0.06539917
1.00000000 0.40455757 0.06938351
1.00000000 0.43040946 0.07391364
1.00000000 0.46016915 0.07911430
1.00000000 0.49165769 0.08461216
1.00000000 0.52389056 0.09041833
1.00000000 0.55447181 0.09654343
1.00000000 0.58357689 0.10299741
1.00000000 0.61143051 0.10978944
1.00000000 0.63820233 0.11692779
1.00000000 0.66402226 0.12441964
1.00000000 0.68899093 0.13227100
1.00000000 0.71318690 0.14048654
1.00000000 0.73667194 0.14906947
0.01824934 0.06537400 0.00000000
0.01820069 0.06519969 0.00000000
0.01815320 0.06502959 0.00000000
0.01810660 0.06486264 0.00000000
0.01806065 0.06469804 0.00000000
0.01801526 0.06453545 0.00000000
0.01929275 0.06436625 0.00000000
0.02351370 0.06417720 0.00000000
0.03011964 0.06396678 0.00000000
0.03852382 0.06373865 0.00000000
0.04832948 0.06350538 0.00000000
