uploads/pati_day_wnetrze.cube
TITLE "Generated by Resolve"
LUT_3D_SIZE 5
0.012604 0.0207523 0.0341955
0.302419 0.0448615 0.00866712
0.682734 0.122087 0.0380713
0.979019 0.630091 0.38851
1 0.891066 0.652598
0 0.0915236 0.0565499
0.128588 0.171221 0.0421607
0.711025 0.264744 0
0.961196 0.588251 0.317296
1 0.892805 0.65333
0 0.618982 0.00175479
0 0.624964 0
0.784253 0.695872 0
1 0.770291 0.302449
1 0.903899 0.661448
0.00228885 0.725185 0.486412
0.0122835 0.725246 0.471107
0.421836 0.777508 0.495888
0.990814 0.919585 0.559274
1 0.968185 0.767086
0.807034 0.977737 0.790814
0.809644 0.97818 0.790982
0.827909 0.981247 0.792218
0.932509 0.985855 0.803601
1 0.985962 0.815473
0.0203708 0.0226139 0.182864
0.270069 0.0348821 0.187213
0.667872 0.0641947 0.186358
0.971237 0.612497 0.412848
1 0.890227 0.658244
0 0.110262 0.194949
0.113878 0.150027 0.179324
0.694835 0.210391 0.141161
0.951873 0.568551 0.348455
1 0.891737 0.657176
0 0.587671 0.145113
0 0.596963 0.0738994
0.746227 0.688655 0.00407416
0.997772 0.768856 0.338369
1 0.901976 0.662898
0 0.722072 0.478019
0.00834669 0.722286 0.463035
0.408927 0.773709 0.48777
0.989242 0.916304 0.551995
1 0.966873 0.76762
0.806729 0.977676 0.790784
0.809277 0.978103 0.790951
0.826978 0.98117 0.792142
0.929564 0.985748 0.803311
1 0.985962 0.815503
0.0254368 0.224674 0.597436
0.23241 0.283757 0.624872
0.689021 0.1467 0.572442
0.977981 0.625635 0.629999
1 0.885664 0.702739
0.0217136 0.200671 0.583978
0.196689 0.211215 0.593423
0.643046 0.103883 0.522301
0.952148 0.566369 0.57615
1 0.887419 0.689113
0 0.517708 0.475578
0 0.547173 0.508339
0.703532 0.729366 0.633555
0.980896 0.760372 0.59646
1 0.897658 0.691615
0 0.715434 0.546532
0 0.714183 0.533669
0.253742 0.770977 0.561257
0.982742 0.925521 0.639811
1 0.965316 0.776699
0.804486 0.977218 0.790494
0.807263 0.977707 0.790692
0.824857 0.980728 0.791791
0.928771 0.985718 0.803174
1 0.985962 0.815534
0.562112 0.810178 0.808865
0.557046 0.807523 0.807477
0.777676 0.813825 0.833616
0.975769 0.711101 0.845853
1 0.884657 0.852262
0.481117 0.771328 0.78909
0.448463 0.752285 0.781277
0.702037 0.765759 0.806821
0.94519 0.660166 0.821347
1 0.891447 0.835554
0.463203 0.776532 0.789303
0.468711 0.762539 0.784665
0.714519 0.773342 0.810162
0.960601 0.691142 0.821485
1 0.895048 0.835081
0 0.786221 0.743435
0 0.781247 0.734142
0.0799115 0.854322 0.787717
0.972717 0.941955 0.842008
1 0.932189 0.836027
0.769818 0.983261 0.824628
0.772839 0.982452 0.819211
0.794675 0.983322 0.818845
0.919936 0.985397 0.825544
1 0.986252 0.823911
1 0.961547 0.942916
1 0.961501 0.942901
1 0.960678 0.94313
1 0.90132 0.946044
1 0.853651 0.927047
1 0.961639 0.942931
1 0.961578 0.942916
1 0.961532 0.942916
1 0.919417 0.948409
1 0.853697 0.927108
1 0.961624 0.942931
1 0.961624 0.942931
1 0.961517 0.942962
1 0.919203 0.94847
1 0.853681 0.927184
0.986969 0.967895 0.942718
0.993088 0.965759 0.942824
0.999878 0.963211 0.943603
1 0.922515 0.947768
1 0.866163 0.924392
0.881849 0.984588 0.95108
0.884855 0.984588 0.951064
0.906004 0.984085 0.950835
0.999664 0.983597 0.943908
1 0.981659 0.864057
