uploads/pati_day_plener.cube
TITLE "Generated by Resolve"
LUT_3D_SIZE 33
0.012604 0.0207523 0.0341955
0.012604 0.0207523 0.0341955
0.0129549 0.0208133 0.034226
0.0140993 0.0218967 0.0360723
0.0220035 0.0239261 0.0368811
0.0426032 0.0276188 0.036759
0.0767681 0.033463 0.0352178
0.117708 0.0398566 0.032517
0.171908 0.0441138 0.0236973
0.234012 0.0450752 0.0137484
0.294804 0.0441901 0.00895705
0.351202 0.0431525 0.00733959
0.401984 0.0449989 0.00877394
0.451606 0.049836 0.0112459
0.503075 0.0575265 0.0145418
0.555596 0.0670939 0.0180362
0.603067 0.0781872 0.0212406
0.641199 0.0920272 0.0252232
0.674174 0.113634 0.0337835
0.708461 0.148623 0.0490883
0.748028 0.198703 0.0728466
0.793606 0.262242 0.105821
0.84271 0.337224 0.152316
0.889342 0.418891 0.212161
0.928801 0.500938 0.277913
0.960266 0.577996 0.342367
0.985336 0.647135 0.402747
0.998611 0.707332 0.45832
1 0.758206 0.507744
1 0.798505 0.544945
1 0.830106 0.569482
1 0.859083 0.601694
1 0.887831 0.647044
0.0125582 0.0207523 0.034226
0.0125582 0.0207675 0.034226
0.0131533 0.0208743 0.0342718
0.014313 0.0221561 0.0364385
0.0236057 0.0243229 0.0370336
0.0455329 0.0282139 0.0366369
0.0791638 0.0340581 0.0352178
0.119142 0.0401465 0.0324559
0.171542 0.0443427 0.0238956
0.231693 0.0456092 0.0141451
0.290425 0.0451972 0.00923171
0.345159 0.0446021 0.0074464
0.39556 0.0467384 0.00848402
0.445274 0.0525368 0.0104677
0.498863 0.0614023 0.0137331
0.553704 0.0721904 0.0169223
0.604135 0.0844434 0.0199588
0.644327 0.0991531 0.0233921
0.678264 0.121309 0.0321202
0.712413 0.155734 0.0471046
0.751369 0.204608 0.0708782
0.796597 0.26772 0.104387
0.844831 0.341558 0.151232
0.890608 0.422004 0.211383
0.92961 0.503258 0.27747
0.960601 0.579293 0.341787
0.98558 0.648066 0.402396
0.998611 0.708034 0.458198
1 0.758312 0.507286
1 0.798627 0.544701
1 0.830289 0.569421
1 0.859037 0.601465
1 0.887831 0.646922
0.0116884 0.0210269 0.034699
0.0116884 0.0210727 0.0347601
0.0122835 0.0212406 0.0349126
0.0145113 0.022385 0.0365301
0.0247196 0.0247044 0.0371252
0.0473487 0.028809 0.0366217
0.0796521 0.0344244 0.0353246
0.117601 0.0403754 0.0327611
0.166461 0.0449073 0.0252232
0.224018 0.0466773 0.0155184
0.280842 0.0468605 0.0100862
0.335409 0.0468757 0.00790417
0.387213 0.049485 0.00830091
0.439841 0.0562448 0.00987259
0.49514 0.0659648 0.0128176
0.552285 0.0778821 0.0158083
0.60531 0.0910506 0.0186618
0.64741 0.106188 0.0220951
0.682368 0.129091 0.0304265
0.716701 0.163439 0.0448768
0.754986 0.210971 0.0687877
0.799649 0.273289 0.102831
0.84744 0.346685 0.150637
0.892302 0.425864 0.211124
0.930602 0.50602 0.277333
0.961257 0.581415 0.341863
0.98587 0.649058 0.402075
0.998611 0.708583 0.457908
1 0.758968 0.507362
1 0.798825 0.544472
1 0.830411 0.569314
1 0.859281 0.601587
1 0.887861 0.646799
0.0112459 0.0230716 0.037171
0.0111086 0.0231479 0.0372015
0.011017 0.02327 0.037232
0.012192 0.0236057 0.0373236
0.0208133 0.0255283 0.0375067
0.0397498 0.0293431 0.0376898
0.0674754 0.0342718 0.0364691
0.101442 0.0400854 0.0344854
0.144915 0.0454871 0.0296635
0.200549 0.0489052 0.0198215
0.259327 0.0505074 0.0124666
0.318639 0.0515908 0.00895705
0.377447 0.0546273 0.00863661
0.434699 0.0616312 0.00953689
0.492409 0.071809 0.0119783
0.551049 0.0845197 0.0149081
0.606088 0.0981918 0.0173495
0.650767 0.114214 0.0208133
0.686427 0.13724 0.0283207
0.721233 0.171756 0.0417639
0.759411 0.218906 0.0659953
0.80322 0.279866 0.10103
0.849973 0.351904 0.149477
0.894102 0.430121 0.210666
0.931746 0.509224 0.27715
0.961898 0.583551 0.34165
0.986343 0.65069 0.402121
0.998672 0.709529 0.457847
1 0.759335 0.507073
1 0.799161 0.544396
1 0.83064 0.569284
1 0.859342 0.601465
1 0.887984 0.64686
0.00546273 0.0263676 0.0377813
0.0052491 0.0265812 0.0377966
0.00515755 0.0268101 0.0378729
0.00628672 0.0274052 0.0381781
0.0124819 0.0292515 0.0389563
0.0302281 0.0336156 0.0399634
0.0547189 0.0391546 0.0401465
0.0854505 0.0448768 0.0380713
0.123796 0.0506142 0.0344396
0.171511 0.0554208 0.0268254
0.231586 0.0586252 0.0168002
0.298573 0.0599832 0.0108034
0.365927 0.0629282 0.00975052
0.429145 0.069688 0.00941482
0.489921 0.0797894 0.010956
0.550195 0.0926833 0.013901
0.607141 0.106981 0.0157321
0.65391 0.123033 0.019028
0.690883 0.146181 0.025864
0.725856 0.180468 0.038407
0.763867 0.226993 0.062501
0.807034 0.286854 0.0989853
0.852811 0.357641 0.148425
0.896132 0.434775 0.210391
0.932921 0.512383 0.27686
0.96257 0.585763 0.341421
0.986755 0.65211 0.401938
0.998718 0.71043 0.457755
1 0.760082 0.507195
1 0.799634 0.544411
1 0.830915 0.569268
1 0.859632 0.601602
1 0.888197 0.647074
0.000640879 0.0319219 0.0385901
0.000579843 0.0321965 0.0386511
0.000656138 0.0326085 0.0387732
0.00166323 0.0335088 0.0390326
0.00628672 0.0354925 0.0401007
0.0215 0.0395514 0.0416266
0.0483558 0.0469368 0.0438239
0.0807507 0.0541695 0.0430152
0.120333 0.0607767 0.0383307
0.169284 0.0657359 0.0300298
0.225223 0.0686351 0.0196231
0.289082 0.070634 0.012604
0.356786 0.0743267 0.0110628
0.42356 0.0814069 0.00979629
0.487694 0.0910658 0.0100862
0.549661 0.102617 0.0127871
0.60856 0.116884 0.0144045
0.65742 0.133303 0.0170138
0.695277 0.155566 0.0229191
0.730632 0.18938 0.0354772
0.768429 0.235248 0.058732
0.810895 0.294041 0.0965896
0.855802 0.363561 0.147189
0.898024 0.439109 0.20972
0.934173 0.515801 0.276738
0.963241 0.588022 0.341207
0.987152 0.653559 0.40177
0.998795 0.711757 0.458061
1 0.760678 0.507134
1 0.799985 0.54432
1 0.831357 0.569406
1 0.8598 0.601633
1 0.888304 0.64712
0 0.0383612 0.0397803
0 0.038819 0.0398871
0 0.0396735 0.040116
0 0.0414893 0.0406195
0.000686656 0.0446632 0.0419318
0.01178 0.0484321 0.0435645
0.0374304 0.0555428 0.0459907
0.0732586 0.0650492 0.0475776
0.114839 0.073106 0.0437629
0.168231 0.080293 0.0353704
0.229496 0.0840314 0.0233158
0.291768 0.0855268 0.0151064
0.35584 0.0895857 0.0123445
0.421393 0.0975814 0.0105898
0.486839 0.108309 0.00976577
0.55024 0.119524 0.0108797
0.610544 0.13164 0.0119783
0.66157 0.146868 0.0133669
0.70074 0.167742 0.0190433
0.736431 0.200565 0.0315862
0.773938 0.245411 0.0538338
0.815427 0.302525 0.0933852
0.859281 0.370565 0.145602
0.900252 0.444419 0.208957
0.93547 0.5196 0.276326
0.964172 0.59115 0.34139
0.987701 0.655619 0.401846
0.99884 0.712902 0.457954
1 0.761532 0.507179
1 0.80058 0.544366
1 0.831647 0.569375
1 0.860105 0.601755
1 0.888579 0.647395
0 0.0457313 0.0420233
0 0.0466621 0.0422522
0 0.0483864 0.0426184
0 0.051606 0.0431678
0 0.0569619 0.0443732
0.000122072 0.0619516 0.0460975
0.018677 0.0684062 0.0482643
0.0576028 0.0784314 0.0506294
0.10399 0.0885786 0.0501869
0.159442 0.0978714 0.0429389
0.227863 0.105272 0.0302434
0.300481 0.10869 0.0187533
0.36672 0.112886 0.0128328
0.429404 0.120745 0.0100862
0.492561 0.131609 0.00798047
0.554711 0.143923 0.00672923
0.614557 0.156085 0.00657664
0.667826 0.168276 0.00854505
0.708782 0.186557 0.0136416
0.744137 0.215976 0.0251774
0.781399 0.259312 0.0473335
0.821698 0.314412 0.0889296
0.86389 0.380148 0.143511
0.903456 0.45211 0.20824
0.937362 0.525078 0.27602
0.965164 0.594659 0.340993
0.988327 0.658106 0.401755
0.998947 0.714626 0.458045
1 0.762631 0.50721
1 0.801282 0.54432
1 0.832197 0.569436
1 0.860487 0.601923
1 0.888853 0.647623
0 0.0556344 0.0454414
0 0.0571603 0.0457008
0 0.0603799 0.0462043
0 0.0654612 0.0467231
0 0.0728161 0.047425
0 0.0795911 0.0483406
0 0.0865034 0.0505226
0.0296941 0.0967727 0.052842
0.081529 0.10898 0.0535744
0.142947 0.119722 0.0495308
0.215793 0.130541 0.0356298
0.298512 0.138506 0.0209812
0.378042 0.143725 0.0125887
0.446372 0.150988 0.00782788
0.508415 0.161746 0.00480659
0.568185 0.174578 0.00296025
0.625101 0.187991 0.00149538
0.677729 0.200793 0.00143435
0.720119 0.213855 0.00495918
0.755016 0.238148 0.0154574
0.790738 0.27718 0.0374151
0.829709 0.3299 0.0821241
0.869932 0.392874 0.140185
0.907485 0.46183 0.206775
0.93991 0.532357 0.2757
0.966583 0.599603 0.340795
0.989181 0.661387 0.401633
0.999039 0.716564 0.457847
1 0.764035 0.50721
1 0.802182 0.544244
1 0.832715 0.569375
1 0.86096 0.602075
1 0.889204 0.647898
0 0.072282 0.0509346
0 0.0747539 0.0513161
0 0.0788739 0.0516213
0 0.0861067 0.0515145
0 0.0942245 0.0513771
0 0.102602 0.0509346
0 0.110628 0.0516518
0 0.120378 0.0538491
0.0421149 0.134813 0.0528573
0.112749 0.149874 0.0491493
0.195575 0.16083 0.0409247
0.28864 0.173007 0.0204776
0.379934 0.182696 0.00772107
0.460075 0.189242 0.00184634
0.528847 0.198703 0.00015259
0.590463 0.211872 0
0.645319 0.226841 0
0.695094 0.241978 0
0.737469 0.254978 0
0.771282 0.272267 0.00399786
0.803891 0.302937 0.0233158
0.840238 0.350683 0.0687419
0.877638 0.408942 0.13373
0.912612 0.474144 0.204105
0.943084 0.541634 0.274784
0.968414 0.606012 0.340414
0.99025 0.665644 0.401404
0.999176 0.719493 0.457969
1 0.765682 0.506966
1 0.803342 0.544106
1 0.833631 0.569451
1 0.861479 0.602167
1 0.889632 0.648219
0 0.0972763 0.0584268
0 0.100847 0.0587472
0 0.107149 0.0586862
0 0.115404 0.057847
0 0.123964 0.0565957
0 0.132738 0.0545663
0 0.142657 0.0525673
0 0.153689 0.0520333
0 0.167681 0.0511482
0.0639506 0.187518 0.0415808
0.160021 0.203403 0.029984
0.266911 0.213977 0.0151369
0.374456 0.226627 0.00143435
0.467826 0.237644 0
0.545388 0.245716 0
0.613947 0.257389 0
0.672236 0.272663 0
0.720714 0.289754 0
0.761913 0.306081 0
0.795148 0.321111 0
0.823514 0.341756 0.00529488
0.854475 0.378897 0.048661
0.887709 0.430823 0.124025
0.919326 0.490654 0.200076
0.947066 0.553262 0.27277
0.970886 0.614435 0.339864
0.991562 0.671244 0.401038
0.999313 0.723064 0.45774
1 0.768078 0.50692
1 0.804868 0.543877
1 0.834684 0.569421
1 0.862348 0.602579
1 0.890196 0.648615
0 0.13344 0.0681773
0 0.139376 0.0679942
0 0.147112 0.0667124
0 0.155627 0.0648661
0 0.164187 0.0622568
0 0.173037 0.0589456
0 0.183291 0.0552834
0 0.195804 0.0509651
0 0.211368 0.04654
0 0.231327 0.0368811
0.100679 0.25536 0.012665
0.229435 0.269413 0.00103761
0.355093 0.280018 0
0.467735 0.293751 0
0.559457 0.304555 0
0.634073 0.313313 0
0.696971 0.326223 0
0.749355 0.343725 0
0.791241 0.3626 0
0.823972 0.378729 0
0.850736 0.396063 0
0.87483 0.420615 0.021973
0.901091 0.460197 0.108095
0.928008 0.512413 0.193576
0.952163 0.568597 0.269947
0.973999 0.625116 0.338491
0.993149 0.678599 0.400458
0.999481 0.727687 0.457343
1 0.770901 0.506584
1 0.806928 0.543633
1 0.836057 0.56939
1 0.86334 0.60293
1 0.890959 0.64921
0 0.185046 0.0791943
0 0.191959 0.0769207
0 0.199939 0.0738842
0 0.208286 0.0697795
0 0.216358 0.0657359
0 0.224735 0.0593118
0 0.235187 0.0535897
0 0.24773 0.047303
0 0.263264 0.0378271
0 0.282628 0.0265965
0.0105287 0.307942 0.00421149
0.169268 0.333257 0.000198367
0.320806 0.346487 0
0.451804 0.355718 0
0.564599 0.368551 0
0.652171 0.379034 0
0.719799 0.388342 0
0.775448 0.403235 0
0.819516 0.421546 0
0.853605 0.439399 0
0.87982 0.455909 0
0.900267 0.474662 0
0.919112 0.501411 0.0797284
0.938827 0.540291 0.18233
0.958892 0.588815 0.2663
0.97789 0.638666 0.336797
0.995468 0.687785 0.399435
0.999725 0.733761 0.45684
1 0.774563 0.506081
1 0.809506 0.54313
1 0.837827 0.569299
1 0.864637 0.603342
1 0.891829 0.649729
0 0.25185 0.084123
0 0.25861 0.0792248
0 0.266621 0.073518
0 0.274769 0.065507
0 0.283192 0.0574197
0 0.290806 0.0492256
0 0.300359 0.0398718
0 0.312505 0.0287022
0 0.326162 0.0168917
0 0.342168 0.00485237
0 0.36289 0.000335698
0.0759899 0.391897 0
0.266712 0.414755 0
0.422431 0.426032 0
0.551522 0.434546 0
0.659922 0.44683 0
0.740795 0.458015 0
0.800031 0.467643 0
0.845411 0.482231 0
0.880507 0.499641 0
0.906676 0.515877 0
0.925002 0.531594 0
0.939757 0.552697 0.0408789
0.952712 0.578698 0.163134
0.966964 0.614115 0.259327
0.982681 0.656046 0.333928
0.998123 0.699107 0.398215
0.999969 0.741405 0.455879
1 0.779492 0.505486
1 0.812665 0.542519
1 0.840208 0.569284
1 0.866407 0.604013
1 0.892927 0.650339
0 0.332464 0.0754406
0 0.339529 0.0664988
0 0.346761 0.0562905
0 0.354788 0.0451972
0 0.362463 0.0330816
0 0.370169 0.0212558
0 0.37821 0.0124819
0 0.388602 0.00410468
0 0.399756 0.000274662
0 0.41178 0
0 0.42594 0
0 0.446738 0
0.179507 0.474586 0
0.375875 0.494011 0
0.525826 0.503548 0
0.648585 0.511788 0
0.749493 0.523934 0
0.821561 0.535195 0
0.869352 0.543877 0
0.903761 0.556802 0
0.928618 0.57171 0
0.945785 0.586145 0
0.957656 0.603342 0.0116579
0.967636 0.624537 0.142031
0.977035 0.648219 0.249744
0.988571 0.677958 0.329717
0.999039 0.713771 0.396612
1 0.750927 0.454704
1 0.785824 0.50454
1 0.816739 0.541604
1 0.843076 0.568994
1 0.868666 0.604959
1 0.894377 0.651225
0 0.422568 0.0468605
0 0.428641 0.0360723
0 0.435492 0.0243076
0 0.442435 0.0131685
0 0.449592 0.00408942
0 0.455756 0.000228885
0 0.462562 0
0 0.471015 0
0 0.480095 0
0 0.48838 0
0 0.495918 0
0 0.50631 0
0.0490272 0.526268 0
0.291646 0.54992 0
0.483238 0.56614 0
0.623178 0.575525 0
0.736767 0.584207 0
0.827146 0.595376 0
0.887037 0.604456 0
0.922927 0.611597 0
0.946197 0.622232 0
0.961364 0.634989 0
0.971206 0.649699 0.00283818
0.979568 0.668467 0.12755
0.987243 0.687861 0.240726
0.995132 0.707622 0.325185
0.999634 0.73254 0.394491
1 0.763317 0.45388
1 0.79379 0.503258
1 0.822065 0.540368
1 0.846799 0.568795
1 0.871489 0.606058
1 0.896315 0.652735
0 0.512718 0.0128328
0 0.51783 0.00486763
0 0.523247 0.000183108
0 0.529351 0
0 0.534508 0
0 0.539193 0
0 0.544381 0
0 0.549996 0
0 0.555917 0
0 0.561181 0
0 0.564279 0
0 0.567376 0
0 0.575784 0
0.188434 0.594537 0
0.409964 0.614298 0
0.579843 0.628504 0
0.708186 0.638102 0
0.811276 0.647028 0
0.887633 0.65594 0
0.933776 0.662135 0
0.958587 0.668376 0
0.972839 0.677913 0
0.980758 0.690974 0.00262455
0.988022 0.708003 0.127764
0.994583 0.725124 0.240726
0.999588 0.741024 0.323934
1 0.75761 0.393149
1 0.778698 0.452613
1 0.804166 0.502541
1 0.829023 0.539101
1 0.851759 0.56939
1 0.875105 0.607599
1 0.898833 0.654795
0 0.591257 6.10361e-05
0 0.59498 4.57771e-05
0 0.598932 1.5259e-05
0 0.602579 0
0 0.605737 0
0 0.608576 0
0 0.611399 0
0 0.614588 0
0 0.617746 0
0 0.620356 0
0 0.621164 0
0 0.620783 0
0 0.622385 0
0.0614023 0.632395 0
0.314199 0.648753 0
0.51043 0.666178 0
0.66157 0.680812 0
0.778729 0.691508 0
0.870222 0.699184 0
0.931289 0.704982 0
0.963699 0.709545 0
0.979034 0.716014 0
0.98677 0.726513 0.00401312
0.993805 0.741909 0.139864
0.999557 0.75819 0.250065
1 0.77258 0.329915
1 0.785718 0.395514
1 0.799558 0.453101
1 0.817472 0.501793
1 0.838148 0.539376
1 0.858518 0.570703
1 0.879774 0.609751
1 0.901961 0.657649
0 0.648264 0.00537118
0 0.649821 0.00373846
0 0.651682 0.00167849
0 0.653513 0.00128176
0 0.654765 0.00123598
0 0.656107 0.00148013
0 0.657313 0.00144961
0 0.658564 0.00143435
0 0.659617 0.00140383
0 0.660182 0.00157168
0 0.659693 0.00149538
0 0.658457 0.00140383
0 0.658198 0.00122072
0.00611887 0.662043 0.000946059
0.227222 0.674968 0.000640879
0.431846 0.691295 0.000350958
0.594934 0.709041 6.10361e-05
0.729183 0.724392 0
0.835477 0.734829 0
0.912184 0.741024 0
0.958282 0.745144 0
0.979538 0.750469 0
0.989639 0.75877 0.0235447
0.996765 0.771221 0.159457
0.999802 0.786007 0.265599
1 0.799985 0.343267
1 0.811658 0.404791
1 0.823346 0.458747
1 0.835233 0.504112
1 0.849973 0.540795
1 0.867063 0.573587
1 0.885969 0.612802
1 0.905928 0.661524
0 0.67985 0.0689097
0 0.680385 0.0684215
0 0.680995 0.0676127
0 0.681361 0.0659037
0 0.681712 0.0655375
0 0.682002 0.0649729
0 0.682307 0.0638285
0 0.682475 0.0635996
0 0.682551 0.0623484
0 0.682368 0.0602579
0 0.681895 0.0576791
0 0.681117 0.05449
0 0.680797 0.0480354
0 0.683543 0.0388647
0.140337 0.693797 0.0280156
0.357137 0.708156 0.0160067
0.524254 0.725765 0.00598154
0.664836 0.74464 0.00442512
0.785626 0.760281 0.00425727
0.879179 0.769757 0.00381476
0.940276 0.775189 0.00340276
0.973556 0.780102 0.00407416
0.988876 0.788144 0.0765545
0.998611 0.797955 0.195758
0.999954 0.810101 0.285786
1 0.823545 0.360494
1 0.835355 0.421744
1 0.845762 0.47245
1 0.855817 0.514122
1 0.86595 0.548867
1 0.878202 0.579965
1 0.893874 0.620111
1 0.91133 0.667399
0 0.691829 0.169741
0 0.691936 0.17052
0 0.692027 0.170947
0 0.692088 0.171695
0 0.692073 0.172168
0 0.692058 0.172656
0 0.692042 0.173327
0 0.691966 0.173999
0 0.691875 0.174655
0 0.691798 0.175631
0 0.691814 0.176883
0 0.692149 0.177646
0 0.693523 0.177478
0 0.696651 0.176394
0.0784466 0.705867 0.175189
0.295399 0.719921 0.171389
0.460273 0.736904 0.165316
0.600275 0.756848 0.162158
0.726497 0.776867 0.158465
0.83534 0.792218 0.143526
0.914321 0.80061 0.128954
0.960952 0.807095 0.150469
0.985168 0.813611 0.181048
0.997665 0.822309 0.246662
0.999908 0.832258 0.314244
1 0.84387 0.379202
1 0.855848 0.441245
1 0.86656 0.493324
1 0.875715 0.534005
1 0.884657 0.56788
1 0.893004 0.595621
1 0.904005 0.631067
1 0.918395 0.677134
0 0.693523 0.247684
0 0.693599 0.248493
0 0.69369 0.248783
0 0.693828 0.249577
0 0.693935 0.250111
0 0.694011 0.250919
0 0.694102 0.251545
0 0.694301 0.252338
0 0.694575 0.253407
0 0.695003 0.25452
0 0.695766 0.255863
0 0.697063 0.257252
0 0.699428 0.258564
0 0.70367 0.259937
0.052842 0.712688 0.263035
0.246921 0.726329 0.266133
0.406744 0.743236 0.267323
0.539284 0.763287 0.27039
0.66363 0.785382 0.275578
0.779156 0.806241 0.279957
0.875181 0.820798 0.276799
0.940063 0.829129 0.274205
0.975723 0.836576 0.288792
0.995392 0.84387 0.308553
0.999802 0.852811 0.350866
1 0.862882 0.403098
1 0.874586 0.460578
1 0.885496 0.515297
1 0.894591 0.55964
1 0.90277 0.596277
1 0.910674 0.626413
1 0.91812 0.656672
1 0.927962 0.694133
0 0.694347 0.315053
0 0.694591 0.315465
0 0.694865 0.316152
0 0.695109 0.316609
0 0.695369 0.317311
0 0.695613 0.317739
0 0.695888 0.318273
0 0.696376 0.318975
0 0.697032 0.319844
0 0.697917 0.320974
0 0.69926 0.322316
0 0.701228 0.324239
0 0.704097 0.326314
0.000122072 0.708705 0.328511
0.0457465 0.717433 0.332921
0.208057 0.730388 0.337804
0.362814 0.746456 0.341634
0.489113 0.766445 0.346151
0.606836 0.78938 0.352682
0.721233 0.813245 0.361761
0.825254 0.834073 0.36907
0.907851 0.847654 0.36846
0.959747 0.855894 0.369497
0.988708 0.863584 0.38175
0.999512 0.871504 0.399054
1 0.880919 0.433921
1 0.891386 0.480354
1 0.902617 0.533501
1 0.911971 0.582605
1 0.919539 0.623941
1 0.926894 0.660777
1 0.933837 0.692714
1 0.940139 0.721248
0 0.698985 0.37673
0 0.699321 0.377081
0 0.699672 0.377478
0 0.700038 0.378058
0 0.700389 0.378408
0 0.700755 0.378988
0 0.701137 0.379187
0 0.701732 0.379721
0 0.702632 0.380468
0 0.703822 0.381628
0 0.705348 0.382788
0 0.707561 0.384298
0.000122072 0.710689 0.386053
0.00630198 0.715602 0.388968
0.0549477 0.723445 0.393393
0.19115 0.734783 0.398962
0.33341 0.749462 0.404211
0.450492 0.768093 0.40943
0.55935 0.790768 0.416083
0.667338 0.815702 0.425864
0.773465 0.840162 0.436851
0.864057 0.859876 0.445167
0.932937 0.872663 0.446036
0.97499 0.880629 0.447715
0.998871 0.888624 0.458061
1 0.898192 0.476204
1 0.908248 0.509514
1 0.918013 0.550683
1 0.927413 0.599054
1 0.934447 0.642573
1 0.940887 0.682979
1 0.947051 0.717998
1 0.952667 0.748638
0 0.708705 0.431662
0 0.709072 0.432166
0 0.709514 0.4327
0 0.709895 0.433005
1.5259e-05 0.710338 0.433539
3.0518e-05 0.710735 0.433845
3.0518e-05 0.711162 0.434012
6.10361e-05 0.711788 0.434485
0.000122072 0.712779 0.43534
0.000183108 0.714 0.43621
0.000259403 0.715618 0.437308
0.000427253 0.717952 0.438743
0.00784314 0.72134 0.440696
0.0322728 0.726329 0.443763
0.0901961 0.733181 0.447562
0.202075 0.742626 0.452567
0.318242 0.754742 0.458106
0.422522 0.771099 0.464195
0.522698 0.792035 0.471473
0.622766 0.816861 0.480522
0.723674 0.842847 0.492256
0.819409 0.866484 0.504845
0.896605 0.884535 0.513649
0.952911 0.89633 0.515328
0.988418 0.904433 0.51725
0.999619 0.913329 0.52668
1 0.923964 0.547585
1 0.933104 0.577386
1 0.940856 0.614511
1 0.947311 0.654337
1 0.953017 0.695125
1 0.958038 0.730449
1 0.962722 0.761883
0 0.724056 0.484031
3.0518e-05 0.724514 0.484489
0.000885023 0.725002 0.484993
0.00169375 0.725444 0.485298
0.00283818 0.725978 0.485786
0.0034638 0.726314 0.485878
0.0052491 0.72694 0.486458
0.00775158 0.727642 0.486931
0.0111696 0.728603 0.487587
0.0159762 0.7299 0.488411
0.0224918 0.731609 0.489464
0.0370489 0.734081 0.490959
0.0594186 0.737316 0.492897
0.0967422 0.741772 0.495521
0.160037 0.7476 0.498772
0.239445 0.755199 0.50248
0.322484 0.765164 0.507164
0.406867 0.7785 0.513222
0.495613 0.796628 0.520958
0.587366 0.819348 0.530098
0.680827 0.84538 0.540993
0.773785 0.871244 0.554192
0.85745 0.892927 0.567208
0.921798 0.908888 0.576318
0.968627 0.919768 0.578958
0.998871 0.928328 0.581201
1 0.937316 0.590265
1 0.947204 0.613443
1 0.953857 0.640635
1 0.959243 0.673396
1 0.963745 0.707851
1 0.967941 0.740475
1 0.971344 0.769055
0.062974 0.747173 0.536873
0.0660563 0.747646 0.537301
0.0691844 0.748058 0.53756
0.0725872 0.748547 0.538018
0.0757305 0.748959 0.538262
0.0788586 0.749371 0.538521
0.082475 0.749859 0.538811
0.0873274 0.750484 0.539208
0.0938582 0.751339 0.539742
0.104555 0.752636 0.540642
0.11931 0.754147 0.541375
0.140444 0.756329 0.54258
0.168017 0.759091 0.544106
0.205051 0.762646 0.546075
0.247288 0.767452 0.54844
0.29633 0.773571 0.551369
0.348089 0.781567 0.554757
0.409339 0.792569 0.559701
0.480461 0.807355 0.56669
0.561105 0.826795 0.575753
0.647334 0.850446 0.586252
0.734218 0.876554 0.598306
0.816297 0.900679 0.611368
0.887404 0.919966 0.624384
0.940841 0.933532 0.633509
0.981582 0.943526 0.637354
0.999542 0.95111 0.639887
1 0.958404 0.648905
1 0.965179 0.668223
1 0.969818 0.695399
1 0.972808 0.723735
1 0.975448 0.751003
1 0.977722 0.776165
0.217655 0.777417 0.589426
0.22089 0.777813 0.589792
0.224506 0.778271 0.590173
0.227481 0.778607 0.590341
0.230564 0.778881 0.590524
0.233585 0.779217 0.590692
0.237217 0.779614 0.590906
0.241917 0.780163 0.59118
0.248173 0.781018 0.59173
