uploads/pati_day_wnetrze.cube
TITLE "Generated by Resolve"
LUT_3D_SIZE 33
0.012604 0.0207523 0.0341955
0.0128481 0.020798 0.0342107
0.0161898 0.0224918 0.036408
0.0339971 0.0261082 0.0368353
0.0682689 0.0320592 0.0356451
0.113054 0.0391852 0.0328679
0.171145 0.0442359 0.0239414
0.237934 0.0454871 0.0131685
0.302419 0.0448615 0.00866712
0.360906 0.0447242 0.00766003
0.413336 0.048127 0.00947585
0.464256 0.0547646 0.0120699
0.517128 0.0633707 0.0155337
0.568994 0.0732586 0.0191501
0.61529 0.0848249 0.0227665
0.651194 0.0995651 0.0276951
0.682734 0.122087 0.0380713
0.71606 0.157397 0.0545968
0.753506 0.205646 0.0778973
0.79649 0.266499 0.10985
0.842451 0.337377 0.153872
0.885939 0.41355 0.209247
0.923476 0.49041 0.270481
0.954253 0.563714 0.331319
0.979019 0.630091 0.38851
0.994995 0.689738 0.442557
1 0.74078 0.491188
1 0.782574 0.5308
1 0.816022 0.559289
1 0.844404 0.585031
1 0.871565 0.620859
1 0.891066 0.652598
1 0.891066 0.652598
0.0118563 0.0209201 0.0345464
0.0122988 0.0210727 0.0346838
0.0170596 0.0229343 0.036759
0.0357366 0.0266575 0.0368963
0.0663767 0.0321813 0.0359045
0.104189 0.0385443 0.033753
0.151232 0.0439765 0.0277867
0.207797 0.0468452 0.0183719
0.264927 0.0477607 0.0117037
0.31989 0.048127 0.00866712
0.373358 0.0503395 0.0083772
0.425589 0.0559854 0.00956741
0.479438 0.0647593 0.0119783
0.535058 0.0757 0.0150149
0.587701 0.0877852 0.0179446
0.63241 0.101488 0.0212558
0.66865 0.12015 0.0274205
0.70164 0.148013 0.0389105
0.736156 0.187091 0.0571756
0.774975 0.238361 0.0844282
0.818357 0.301534 0.121416
0.862654 0.372671 0.170336
0.903563 0.44828 0.229725
0.937987 0.523171 0.292317
0.96585 0.593576 0.352834
0.988678 0.657206 0.409705
0.999313 0.71252 0.461936
1 0.759304 0.507927
1 0.797101 0.54313
1 0.827466 0.5673
1 0.855207 0.597025
1 0.882445 0.638102
1 0.891279 0.652552
0.00883497 0.0244144 0.0374151
0.00889601 0.0244907 0.0374456
0.0121462 0.0254215 0.0377356
0.0256962 0.0288243 0.0383459
0.0487221 0.0338445 0.0384527
0.0780499 0.0394598 0.037171
0.114275 0.0451667 0.0341039
0.159442 0.0500343 0.027924
0.213794 0.053315 0.0191348
0.273533 0.0551308 0.0122072
0.335271 0.0569162 0.00932326
0.395636 0.0611582 0.00926223
0.4533 0.0691081 0.0100557
0.510491 0.0797894 0.0123598
0.566598 0.0925002 0.0151217
0.618524 0.106203 0.0172274
0.660105 0.122194 0.0209506
0.693889 0.145556 0.0285496
0.727398 0.180133 0.0418555
0.763897 0.225772 0.0660563
0.805249 0.283528 0.100359
0.849058 0.351171 0.146654
0.890455 0.424063 0.203937
0.926619 0.498558 0.266712
0.956039 0.569131 0.328084
0.980377 0.634318 0.386587
0.995377 0.691859 0.440543
1 0.74168 0.489219
1 0.783246 0.529488
1 0.816556 0.558419
1 0.844694 0.584207
1 0.871702 0.620096
1 0.891478 0.652583
0.00187686 0.0303655 0.0383764
0.00233463 0.0303044 0.038407
0.0059205 0.0311742 0.038941
0.0171511 0.034226 0.040116
0.0383612 0.0395666 0.0413825
0.0669108 0.0462654 0.0414588
0.10135 0.0524758 0.0387121
0.143465 0.0579843 0.0329747
0.194598 0.0619821 0.0241398
0.253758 0.0643931 0.0153048
0.318914 0.0665904 0.0108492
0.383825 0.0710002 0.0101778
0.44538 0.0786145 0.00970474
0.504952 0.0887465 0.0110323
0.563165 0.100938 0.0138399
0.617502 0.114977 0.0153811
0.661982 0.130922 0.0184329
0.69662 0.153521 0.0249332
0.730007 0.186908 0.0374914
0.765957 0.231006 0.0602884
0.806271 0.286763 0.0952163
0.849104 0.352514 0.141802
0.890166 0.424414 0.199557
0.925597 0.496941 0.261814
0.954971 0.566842 0.323461
0.979309 0.631662 0.382284
0.994873 0.689235 0.436728
1 0.739437 0.486137
1 0.78117 0.527001
1 0.814771 0.55671
1 0.842954 0.581857
1 0.869963 0.616983
1 0.891615 0.652644
0.00015259 0.0368811 0.0394903
0.000244144 0.0369421 0.0395819
0.00175479 0.0385748 0.0402991
0.00965896 0.041886 0.0417792
0.0294499 0.0473335 0.0437018
0.0596017 0.0552224 0.0452125
0.0960708 0.0630503 0.0435492
0.140078 0.0696574 0.0374762
0.193347 0.0744488 0.0280308
0.252369 0.0770733 0.0180819
0.314778 0.0793164 0.0126497
0.378408 0.0841993 0.0112459
0.441596 0.0924697 0.0100404
0.503243 0.102815 0.0102235
0.562661 0.113985 0.0122072
0.619165 0.127047 0.0134127
0.665583 0.14255 0.0152895
0.701152 0.163867 0.0213626
0.734676 0.196353 0.0337835
0.770459 0.239582 0.0555276
0.809964 0.293904 0.0916457
0.852064 0.358557 0.139681
0.89163 0.428077 0.197406
0.926482 0.499626 0.260288
0.955428 0.568612 0.322255
0.979385 0.632349 0.380957
0.994965 0.68986 0.43595
1 0.73959 0.485359
1 0.781018 0.526268
1 0.814511 0.556161
1 0.84268 0.581216
1 0.869627 0.616159
1 0.891737 0.65272
0 0.0442206 0.0415503
0 0.0449378 0.0416266
0.000122072 0.0483253 0.0424048
0.00291447 0.052842 0.0439612
0.0164797 0.0581826 0.0459297
0.0461738 0.0662547 0.0480812
0.0864271 0.0757153 0.0482795
0.133516 0.0842145 0.0437476
0.191073 0.0913558 0.0341039
0.255589 0.0955825 0.0226444
0.320485 0.0981003 0.0149233
0.382406 0.103288 0.0117494
0.44387 0.111925 0.00988785
0.505501 0.122972 0.00872816
0.565316 0.134585 0.00875868
0.621744 0.146258 0.00929274
0.670497 0.159457 0.0110933
0.707454 0.178943 0.0166323
0.740963 0.209094 0.0284581
0.776745 0.251408 0.0497444
0.815244 0.303975 0.0873426
0.85565 0.366079 0.136797
0.894026 0.433906 0.19556
0.927886 0.5037 0.2589
0.956176 0.571313 0.321141
0.979965 0.634623 0.380545
0.995087 0.690654 0.434974
1 0.73991 0.484489
1 0.781155 0.525628
1 0.814542 0.555749
1 0.842557 0.580682
1 0.869551 0.615702
1 0.891966 0.652903
0 0.0536049 0.0446937
0 0.0555886 0.0447852
0 0.0610208 0.045304
3.0518e-05 0.0673228 0.0464637
0.00451667 0.0733654 0.0482032
0.0256657 0.0814679 0.0504768
0.0674754 0.0921035 0.0518807
0.119677 0.102602 0.0496376
0.181048 0.11194 0.0409857
0.252506 0.119554 0.0275578
0.326711 0.124468 0.0168307
0.394034 0.129534 0.0113832
0.456062 0.138094 0.00825513
0.515572 0.149172 0.00598154
0.573373 0.161471 0.00462348
0.628336 0.173709 0.00392157
0.678019 0.185611 0.00497444
0.716625 0.2009 0.00944533
0.749996 0.227466 0.0203861
0.784619 0.266621 0.0413672
0.821988 0.317082 0.0811322
0.860655 0.376638 0.133074
0.897459 0.442115 0.193378
0.929885 0.509407 0.257343
0.957488 0.575708 0.320455
0.980529 0.637064 0.379507
0.995315 0.692119 0.434119
1 0.740703 0.483757
1 0.781582 0.525048
1 0.814893 0.555444
1 0.842741 0.580392
1 0.869398 0.615
1 0.892195 0.653056
0 0.0687114 0.0496834
0 0.0712444 0.049424
0 0.0785077 0.0491188
0 0.0861677 0.0493324
0 0.0934462 0.0502022
0.00698863 0.101946 0.0521401
0.0367895 0.113359 0.0534524
0.092546 0.126238 0.0517891
0.161349 0.137743 0.045304
0.240284 0.147829 0.0319371
0.32462 0.156664 0.016556
0.404044 0.163821 0.00827039
0.471946 0.171069 0.0040589
0.532876 0.181552 0.0021973
0.589792 0.194461 0.00135805
0.642176 0.208057 0.000671397
0.690745 0.221744 0.000717174
0.730465 0.234195 0.002533
0.762783 0.254475 0.00968948
0.795117 0.28748 0.0293431
0.83061 0.334234 0.0703441
0.867063 0.390188 0.126253
0.902205 0.453193 0.190417
0.932921 0.517784 0.255863
0.958923 0.580758 0.318791
0.981247 0.640208 0.378103
0.995636 0.694026 0.432959
1 0.741802 0.482841
1 0.782452 0.524529
1 0.815213 0.554894
1 0.842786 0.579751
1 0.86923 0.614145
1 0.892454 0.653162
0 0.0915236 0.0565499
0 0.0949722 0.0556802
0 0.102846 0.0540932
0 0.111223 0.0530404
0 0.119951 0.0522164
0 0.129198 0.0524605
0.00987259 0.140963 0.0527504
0.0519265 0.156176 0.0496529
0.128588 0.171221 0.0421607
0.218891 0.183124 0.0299992
0.315526 0.194217 0.013077
0.406485 0.204349 0.00292973
0.48484 0.212299 0.000579843
0.55198 0.221485 0
0.612238 0.234241 0
0.664973 0.24921 0
0.711025 0.264744 0
0.750423 0.27863 0
0.781765 0.294041 0.00210575
0.810758 0.318502 0.0140841
0.842573 0.358022 0.0539101
0.876295 0.409537 0.117021
0.908217 0.467445 0.185626
0.93669 0.528252 0.253315
0.961196 0.588251 0.317296
0.982498 0.645182 0.377066
0.996124 0.697215 0.43212
1 0.744198 0.482597
1 0.783703 0.523995
1 0.815991 0.554452
1 0.84332 0.579492
1 0.869566 0.613977
1 0.892805 0.65333
0 0.124651 0.0653544
0 0.128923 0.0630961
0 0.136202 0.0600748
0 0.144762 0.0576028
0 0.153903 0.0549935
0 0.164355 0.0526284
0 0.177081 0.0505684
0.0149844 0.193317 0.0455024
0.076173 0.212818 0.0331426
0.181903 0.229114 0.0173495
0.294438 0.240055 0.00584421
0.400717 0.251255 0
0.492531 0.26247 0
0.568582 0.271336 0
0.634714 0.282338 0
0.690501 0.296696 0
0.737041 0.31342 0
0.775753 0.330159 0
0.80676 0.34493 0
0.833219 0.363287 0.0027924
0.8598 0.39266 0.0327306
0.888014 0.43476 0.102266
0.916075 0.486351 0.178698
0.941665 0.542168 0.249928
0.964202 0.598108 0.31548
0.984298 0.652323 0.376226
0.996811 0.702129 0.431785
1 0.746807 0.481788
1 0.785351 0.523369
1 0.817121 0.553979
1 0.844053 0.579202
1 0.870176 0.614084
1 0.893309 0.65362
0 0.170657 0.0751202
0 0.174868 0.0705119
0 0.180606 0.0655222
0 0.188251 0.0613565
0 0.197208 0.0569009
0 0.208194 0.0523232
0 0.221851 0.0468605
0 0.239048 0.0390173
0.0246891 0.260151 0.0238651
0.118776 0.282139 0.00495918
0.258549 0.297032 0
0.38265 0.307637 0
0.491798 0.319326 0
0.582284 0.330571 0
0.654322 0.339467 0
0.713817 0.350851 0
0.76376 0.367346 0
0.803372 0.385245 0
0.834867 0.401587 0
0.860288 0.41796 0
0.881987 0.438743 0.0113375
0.903868 0.469718 0.0804913
0.92639 0.511574 0.1673
0.948135 0.560494 0.245289
0.968231 0.611292 0.313558
0.986603 0.661234 0.37499
0.997711 0.708034 0.430777
1 0.750515 0.48101
1 0.787549 0.522545
1 0.818692 0.553399
1 0.845289 0.579171
1 0.870954 0.614176
1 0.89395 0.653986
0 0.231479 0.0809796
0 0.232731 0.0737469
0 0.236637 0.0657969
0 0.243305 0.0593423
0 0.252018 0.05243
0 0.26273 0.0452125
0 0.276295 0.0362402
0 0.291981 0.0256199
0.00263981 0.311955 0.0124666
0.052018 0.336004 0.0009308
0.198062 0.358816 0
0.351217 0.372045 0
0.477378 0.381872 0
0.585077 0.392889 0
0.67042 0.403296 0
0.735988 0.412741 0
0.788479 0.425742 0
0.830304 0.442954 0
0.862486 0.459754 0
0.887404 0.475471 0
0.906508 0.492241 1.5259e-05
0.923049 0.514321 0.0526131
0.939406 0.54493 0.148135
0.956329 0.584314 0.238209
0.973159 0.627771 0.310414
0.989487 0.672267 0.373129
0.998917 0.715389 0.429541
1 0.755398 0.480003
1 0.790875 0.521965
1 0.821073 0.553002
1 0.846815 0.579034
1 0.871992 0.614343
1 0.894713 0.654337
0 0.304921 0.0758373
0 0.303181 0.065507
0 0.305272 0.0543984
0 0.310857 0.0451362
0 0.319463 0.0357671
0 0.328954 0.0263828
0 0.340841 0.0166629
0 0.353964 0.00793469
0 0.369909 0.00177005
0.0185702 0.390845 0
0.116518 0.416754 0
0.300328 0.436973 0
0.450172 0.448112 0
0.573175 0.45655 0
0.67541 0.467369 0
0.754238 0.478477 0
0.811872 0.488396 0
0.854307 0.500847 0
0.886885 0.516197 0
0.911421 0.531365 0
0.929046 0.546075 0
0.942672 0.564187 0.0252995
0.954452 0.586786 0.12372
0.966155 0.614694 0.227176
0.979171 0.648615 0.305653
0.992615 0.686397 0.370886
0.999863 0.72488 0.42826
1 0.761883 0.479103
1 0.794995 0.521065
1 0.823789 0.552285
1 0.848814 0.578897
1 0.873411 0.61471
1 0.89572 0.65481
0 0.387839 0.0544442
0 0.38407 0.0423133
0 0.384039 0.0303655
0 0.390188 0.0196231
0 0.396826 0.0119783
0 0.404791 0.00596628
0 0.41416 0.00151064
0 0.424643 0
0 0.435538 0
0 0.450111 0
0.0464179 0.470497 0
0.214389 0.494163 0
0.405814 0.511254 0
0.548562 0.52076 0
0.664164 0.528969 0
0.759701 0.540673 0
0.829679 0.550881 0
0.875624 0.559014 0
0.90779 0.569924 0
0.93106 0.58291 0
0.947646 0.596643 0
0.959075 0.612055 0.0075227
0.968338 0.630533 0.102983
0.976989 0.651637 0.214588
0.986328 0.675547 0.29926
0.995514 0.704448 0.368002
1 0.737163 0.426963
1 0.769894 0.477882
1 0.800229 0.519768
1 0.82739 0.5514
1 0.851423 0.578836
1 0.875441 0.61561
1 0.897063 0.65565
0 0.474037 0.0240635
0 0.468513 0.0146181
0 0.468315 0.00640879
0 0.47187 0.00137331
0 0.477913 0
0 0.483848 0
0 0.491386 0
0 0.49929 0
0 0.505943 0
0 0.512856 0
0.0125277 0.524361 0
0.104463 0.542992 0
0.33167 0.563775 0
0.507866 0.578393 0
0.639551 0.587579 0
0.746059 0.59617 0
0.831968 0.606226 0
0.889357 0.614664 0
0.924254 0.621363 0
0.947066 0.6309 0
0.961807 0.6421 0
0.971435 0.655436 0.00225834
0.979278 0.671916 0.0928359
0.986435 0.689616 0.205615
0.993347 0.707576 0.294255
0.998352 0.727993 0.365393
1 0.752392 0.425071
1 0.779858 0.476463
1 0.806943 0.518318
1 0.831907 0.550256
1 0.854658 0.578836
1 0.877989 0.616739
1 0.898833 0.657008
0 0.554604 0.00448615
0 0.549676 0
0 0.547219 0
0 0.549996 0
0 0.553857 0
0 0.558236 0
0 0.56347 0
0 0.567941 0
0 0.571618 0
0 0.573892 0
0 0.577523 0
0.0471199 0.587671 0
0.233051 0.605982 0
0.441886 0.623514 0
0.59794 0.636454 0
0.718349 0.645884 0
0.815503 0.654108 0
0.887907 0.662379 0
0.932708 0.668467 0
0.95758 0.674098 0
0.971969 0.682368 0
0.980209 0.693751 0.00227359
0.987045 0.708721 0.0944076
0.993423 0.725231 0.20824
0.998154 0.740398 0.295125
1 0.75523 0.364569
1 0.772122 0.424125
1 0.792691 0.47541
1 0.815778 0.517479
1 0.838178 0.549767
1 0.859266 0.579858
1 0.881178 0.618219
1 0.901045 0.658763
0 0.618982 0.00175479
0 0.614542 0.000167849
0 0.612528 0
0 0.613825 0
0 0.616022 0
0 0.61886 0
0 0.621302 0
0 0.62356 0
0 0.624964 0
0 0.624979 0
0 0.625055 0
0.0162051 0.62887 0
0.119722 0.639628 0
0.359457 0.655512 0
0.535698 0.67155 0
0.674434 0.685206 0
0.784253 0.695872 0
0.870726 0.703029 0
0.928786 0.708309 0
0.960845 0.712718 0
0.977142 0.718532 0
0.985595 0.727611 0.00474556
0.992325 0.7411 0.104829
0.997909 0.756085 0.218494
1 0.770291 0.302449
1 0.782834 0.368917
1 0.795254 0.425788
1 0.809552 0.475685
1 0.827115 0.517296
1 0.846113 0.550362
1 0.865202 0.581476
1 0.885252 0.620249
1 0.903899 0.661448
0 0.661784 0.0306096
0 0.65893 0.0173648
0 0.657496 0.0089723
0 0.657771 0.00665293
0 0.6589 0.00656138
0 0.659724 0.00573739
0 0.660685 0.00541695
0 0.661112 0.00457771
0 0.661143 0.0043946
0 0.660258 0.00396735
0 0.659297 0.00344854
0.00173953 0.660304 0.00292973
0.059266 0.666316 0.00224308
0.276173 0.679561 0.00138857
0.464271 0.695338 0.000595102
0.613825 0.712154 6.10361e-05
0.738277 0.726604 0
0.837842 0.73637 0
0.909697 0.742046 0
0.954452 0.7458 0
0.976577 0.75079 0
0.987762 0.758434 0.0208286
0.995041 0.769162 0.124773
0.998978 0.782422 0.234653
1 0.795789 0.315755
1 0.807736 0.379599
1 0.81883 0.43357
1 0.82974 0.480217
1 0.84181 0.519387
1 0.85626 0.552285
1 0.872618 0.584268
1 0.890669 0.623468
1 0.9075 0.665064
0 0.684382 0.105409
0 0.683101 0.0869612
0 0.682231 0.0725719
0 0.682246 0.068986
0 0.682414 0.066865
0 0.682567 0.0655833
0 0.682597 0.0638132
0 0.682506 0.0617685
0 0.682185 0.0595102
0 0.681575 0.0563058
0 0.680873 0.0510567
0 0.681498 0.0437171
0.0354162 0.686046 0.0334478
0.192981 0.697063 0.0226444
0.394873 0.711421 0.0119783
0.54757 0.728328 0.00271611
0.678935 0.746197 0.0018616
0.791714 0.760678 0.00181582
0.878614 0.769177 0.00108339
0.936385 0.774517 0.00199893
0.969619 0.779156 0.00222782
0.986206 0.786282 0.0607614
0.996262 0.795209 0.164843
0.999725 0.80592 0.258152
1 0.818143 0.332479
1 0.830152 0.395911
1 0.840574 0.447929
1 0.850019 0.491371
1 0.859525 0.527718
1 0.869657 0.559075
1 0.88217 0.590341
1 0.897673 0.630396
1 0.912276 0.670085
0 0.692393 0.194278
0 0.692271 0.1823
0 0.692103 0.173144
0 0.692027 0.171221
0 0.69189 0.170336
0 0.691798 0.170413
0 0.691646 0.170169
0 0.691554 0.170901
0 0.691463 0.171283
0 0.691508 0.171527
0 0.692012 0.17026
0 0.693843 0.169451
0.0214694 0.698466 0.16788
0.131792 0.708659 0.166278
0.33698 0.722591 0.16051
0.487175 0.739116 0.154635
0.617426 0.757992 0.151781
0.736416 0.776654 0.147616
0.837659 0.790555 0.133303
0.911147 0.798383 0.120516
0.956329 0.804593 0.138186
0.981277 0.81062 0.167483
0.994812 0.818402 0.224948
0.99942 0.827634 0.290623
1 0.838178 0.35375
1 0.849515 0.413794
1 0.860029 0.46685
1 0.869398 0.510567
1 0.877821 0.54583
1 0.886305 0.576013
1 0.894957 0.603876
1 0.906325 0.639857
1 0.918639 0.678843
0 0.693797 0.265843
0 0.693812 0.255131
0 0.693828 0.247211
0 0.693858 0.245335
0 0.693889 0.244694
0 0.694011 0.24509
0 0.694209 0.245548
0 0.694484 0.245853
0 0.694957 0.246708
0 0.695796 0.247349
0 0.697353 0.248569
0 0.700145 0.249653
0.0148775 0.70547 0.251133
0.0997787 0.71519 0.253223
0.287861 0.728878 0.25452
0.433906 0.745296 0.255375
0.559625 0.764569 0.25742
0.677272 0.785443 0.261952
0.785168 0.804349 0.263478
0.873426 0.817411 0.259785
0.934936 0.82533 0.258824
0.970779 0.832181 0.271641
0.991211 0.839338 0.294377
0.99881 0.847349 0.331487
1 0.85658 0.379522
1 0.867033 0.432822
1 0.877668 0.485664
1 0.88719 0.532326
1 0.895644 0.571084
1 0.903151 0.602747
1 0.910567 0.630762
1 0.918486 0.661372
1 0.927153 0.693568
0 0.695476 0.328389
0 0.695048 0.318105
0 0.695079 0.310842
0 0.695277 0.309224
0 0.695521 0.309468
0 0.695842 0.309194
0 0.69633 0.309102
0 0.697002 0.309804
0 0.697978 0.310719
0 0.699413 0.311894
0 0.701564 0.313603
0 0.704799 0.314992
0.0128634 0.710353 0.31754
0.0852064 0.719753 0.32166
0.247471 0.73283 0.325505
0.391455 0.748775 0.328725
0.510323 0.768017 0.332906
0.622415 0.7897 0.338979
0.730449 0.811658 0.346517
0.827237 0.830259 0.351675
0.903624 0.842527 0.350805
0.953826 0.850706 0.353338
0.983474 0.858 0.364538
0.996857 0.865538 0.383124
1 0.873991 0.413474
1 0.883574 0.455329
1 0.893797 0.503334
1 0.903716 0.551934
1 0.911711 0.594263
1 0.918883 0.630747
1 0.92575 0.663081
1 0.932311 0.692378
1 0.93814 0.717464
0 0.700664 0.385412
0 0.69958 0.376333
0 0.699428 0.368917
0 0.699672 0.368124
0 0.699962 0.367727
0 0.700374 0.367407
0 0.701045 0.367803
0 0.70193 0.367941
0 0.703105 0.368277
0 0.704829 0.369589
0 0.707256 0.371191
0.0015259 0.710765 0.373022
0.0180056 0.716289 0.375891
0.0861677 0.724849 0.379889
0.225895 0.736782 0.385489
0.360159 0.751568 0.390127
0.471122 0.769787 0.394736
0.576272 0.791531 0.400839
0.679301 0.814847 0.410117
0.778866 0.837064 0.419623
0.863828 0.854612 0.425483
0.927657 0.866377 0.426917
0.969055 0.874418 0.429984
0.992798 0.881941 0.439796
1 0.890288 0.45713
1 0.899718 0.486259
1 0.909194 0.524514
1 0.918471 0.5682
1 0.926513 0.611917
1 0.932937 0.651133
1 0.939071 0.68687
1 0.945052 0.718547
1 0.949737 0.742947
0 0.710246 0.436576
0 0.708736 0.428199
0 0.708141 0.422415
0 0.708156 0.4206
0 0.708446 0.420188
0 0.708843 0.419898
0 0.709529 0.42005
0 0.710643 0.421241
0 0.711879 0.421561
0 0.713664 0.422568
0.00201419 0.716197 0.423713
0.0115969 0.71986 0.425437
0.0400702 0.72517 0.428305
0.109407 0.73283 0.432853
0.224964 0.742855 0.43743
0.340337 0.755627 0.442634
0.441367 0.772091 0.448005
0.539147 0.792706 0.454597
0.635721 0.816251 0.46334
0.732464 0.840375 0.474418
0.821393 0.861631 0.485039
0.893919 0.877821 0.491661
0.947066 0.888838 0.493889
0.981979 0.897002 0.497292
0.997086 0.905241 0.506447
1 0.914611 0.525002
1 0.923858 0.55256
1 0.932113 0.58703
1 0.939284 0.625574
1 0.945251 0.663996
1 0.950759 0.701228
1 0.955749 0.733608
1 0.959731 0.758709
0.00228885 0.725185 0.486412
0.000839246 0.722866 0.477638
0.0016022 0.721645 0.471916
0.00209049 0.721569 0.470527
0.00282292 0.721767 0.469947
0.00418097 0.722286 0.47013
0.00616464 0.723049 0.470497
0.0087129 0.723888 0.47039
0.0122835 0.725246 0.471107
0.0184939 0.727092 0.472053
0.0303502 0.729625 0.473182
0.0521553 0.733242 0.475303
0.092668 0.738216 0.47834
0.158206 0.744503 0.481392
0.245823 0.752789 0.485328
0.335515 0.7635 0.490227
0.421836 0.777508 0.495888
0.510445 0.796033 0.50338
0.599924 0.81828 0.511803
0.690059 0.842664 0.522286
0.778347 0.866224 0.53434
0.856291 0.885939 0.545327
0.918151 0.900649 0.552117
0.962722 0.911223 0.556069
0.990814 0.919585 0.559274
1 0.928222 0.56849
1 0.937194 0.587076
1 0.945113 0.613642
1 0.951263 0.644587
1 0.956497 0.678614
1 0.961028 0.712428
1 0.965103 0.743267
1 0.968185 0.767086
0.0631418 0.746914 0.535943
0.0561074 0.743587 0.527276
0.0511635 0.741375 0.521263
0.0508278 0.740948 0.519585
0.0526589 0.741192 0.519387
0.0558022 0.74168 0.519554
0.0594949 0.742184 0.519432
0.0653697 0.743038 0.519677
0.0741131 0.744228 0.520043
0.0873884 0.745876 0.520638
0.108507 0.74844 0.522225
0.136263 0.751431 0.523629
0.17557 0.755489 0.525719
0.226795 0.760845 0.52845
0.285481 0.767437 0.531106
0.348058 0.776318 0.535241
0.416281 0.788174 0.540734
0.491112 0.803647 0.547463
0.571694 0.823453 0.556268
0.655634 0.84651 0.565911
0.739574 0.870802 0.577539
0.818586 0.892912 0.589609
0.885466 0.910765 0.600793
0.936965 0.923858 0.608469
0.975509 0.933532 0.612238
0.995422 0.941665 0.61619
1 0.949432 0.626047
1 0.956664 0.643809
1 0.962325 0.667933
1 0.966461 0.696132
1 0.969802 0.725063
1 0.972778 0.7523
1 0.97496 0.773541
0.207416 0.775311 0.585595
0.185931 0.770748 0.577035
0.170031 0.767315 0.570489
0.16817 0.76669 0.568963
0.170809 0.766949 0.568948
0.17258 0.766995 0.568414
0.17612 0.767315 0.568185
0.182483 0.768093 0.56846
0.190661 0.768994 0.568612
0.204181 0.770642 0.569543
0.220539 0.772473 0.570214
0.242512 0.774975 0.571374
0.269474 0.778164 0.572686
0.301396 0.782513 0.574609
0.337591 0.787976 0.576776
0.379858 0.795483 0.580224
0.428717 0.805112 0.584405
0.486976 0.817853 0.590158
0.5552 0.834302 0.597452
0.63093 0.854673 0.60679
0.709072 0.877974 0.618082
0.784329 0.900725 0.629389
0.852308 0.920501 0.64097
0.907805 0.93576 0.651438
0.952071 0.946593 0.658457
0.984161 0.954726 0.662928
0.998322 0.961196 0.667643
1 0.96669 0.676616
1 0.971222 0.692149
1 0.974502 0.713863
1 0.976745 0.738048
1 0.978515 0.761456
1 0.979751 0.77998
0.344259 0.810193 0.633829
0.322011 0.804105 0.625177
0.307881 0.799985 0.619257
0.30547 0.799039 0.617716
0.305623 0.798779 0.61706
0.3075 0.798901 0.616876
0.31017 0.799176 0.616739
0.314153 0.799741 0.616846
0.319173 0.800488 0.616999
