uploads/pati_day_plener.cube
TITLE "Generated by Resolve"
LUT_3D_SIZE 5
0.012604 0.0207523 0.0341955
0.171908 0.0441138 0.0236973
0.603067 0.0781872 0.0212406
0.928801 0.500938 0.277913
1 0.887831 0.647044
0 0.0556344 0.0454414
0.081529 0.10898 0.0535744
0.625101 0.187991 0.00149538
0.93991 0.532357 0.2757
1 0.889204 0.647898
0 0.512718 0.0128328
0 0.555917 0
0.708186 0.638102 0
0.994583 0.725124 0.240726
1 0.898833 0.654795
0 0.708705 0.431662
0.000122072 0.712779 0.43534
0.318242 0.754742 0.458106
0.988418 0.904433 0.51725
1 0.962722 0.761883
0.804364 0.976974 0.790158
0.807675 0.977707 0.790631
0.821958 0.98024 0.791669
0.919478 0.985351 0.802014
1 0.985962 0.815442
0.0180056 0.0274357 0.11812
0.13463 0.0430152 0.117159
0.608927 0.0465705 0.102541
0.923827 0.491295 0.308522
1 0.887068 0.649927
0 0.0671855 0.125414
0.0728923 0.0937819 0.118914
0.635859 0.146639 0.0876326
0.934691 0.522774 0.308156
1 0.888563 0.650935
0 0.496483 0.114611
0 0.536477 0.0286564
0.685573 0.633753 0
0.991165 0.727947 0.285115
1 0.8981 0.657069
0 0.708293 0.43061
0 0.712245 0.434333
0.315038 0.754162 0.456992
0.988388 0.904128 0.516289
1 0.962509 0.762676
0.803449 0.976715 0.789929
0.80676 0.977462 0.790433
0.821118 0.980011 0.791455
0.919203 0.985351 0.801907
1 0.985962 0.815427
0.0692149 0.0850996 0.556771
0.143542 0.103334 0.561837
0.573144 0.00755322 0.466484
0.924971 0.490562 0.516747
1 0.883345 0.675807
0.0614481 0.0915541 0.554498
0.152972 0.116564 0.559487
0.583551 0.0276341 0.469429
0.931716 0.512764 0.521126
1 0.884611 0.676387
0 0.459648 0.444327
0 0.496895 0.474144
0.63621 0.665309 0.58703
0.96994 0.715663 0.546456
1 0.894545 0.68098
0 0.699641 0.488579
0 0.703944 0.492515
0.127977 0.747845 0.515999
0.979721 0.914275 0.600412
1 0.961028 0.769604
0.801129 0.976181 0.789548
0.804456 0.976944 0.790036
0.819059 0.979538 0.791074
0.918334 0.98529 0.801648
1 0.985962 0.815427
0.389929 0.720577 0.768185
0.390875 0.721126 0.768399
0.634989 0.744045 0.792538
0.92929 0.630671 0.809155
1 0.889479 0.826307
0.390524 0.720913 0.768338
0.39147 0.721431 0.768536
0.63798 0.744137 0.79292
0.929549 0.631037 0.809354
1 0.890059 0.826459
0.381842 0.722713 0.768292
0.411872 0.728252 0.771176
0.655436 0.747662 0.795834
0.941222 0.656748 0.811109
1 0.893919 0.827146
0 0.742184 0.693065
0 0.751263 0.701778
0.00370794 0.819532 0.758206
0.967697 0.936797 0.83563
1 0.928344 0.827893
0.76643 0.979797 0.813458
0.770397 0.980331 0.813642
0.788235 0.982101 0.813718
0.90811 0.984817 0.821073
1 0.986252 0.822049
1 0.961532 0.942916
1 0.961501 0.942901
1 0.96144 0.942885
1 0.927581 0.948547
1 0.853391 0.927153
1 0.961608 0.942931
1 0.961578 0.942916
1 0.961532 0.942916
1 0.92755 0.948577
1 0.853468 0.927199
1 0.961624 0.942931
1 0.961624 0.942931
1 0.961593 0.942931
1 0.926635 0.948669
1 0.85362 0.927214
0.998825 0.963088 0.942824
0.998871 0.963088 0.942824
1 0.961288 0.94342
1 0.924514 0.948592
1 0.863294 0.925093
0.878584 0.984649 0.951095
0.881758 0.984634 0.951064
0.899138 0.984146 0.950896
0.998947 0.983276 0.94667
1 0.981338 0.864363
