uploads/pati_day_wnetrze.cube
TITLE "Generated by Resolve"
LUT_3D_SIZE 9
0.012604 0.0207523 0.0341955
0.0682689 0.0320592 0.0356451
0.302419 0.0448615 0.00866712
0.517128 0.0633707 0.0155337
0.682734 0.122087 0.0380713
0.842451 0.337377 0.153872
0.979019 0.630091 0.38851
1 0.816022 0.559289
1 0.891066 0.652598
0.00015259 0.0368811 0.0394903
0.0294499 0.0473335 0.0437018
0.193347 0.0744488 0.0280308
0.441596 0.0924697 0.0100404
0.665583 0.14255 0.0152895
0.809964 0.293904 0.0916457
0.955428 0.568612 0.322255
1 0.781018 0.526268
1 0.891737 0.65272
0 0.0915236 0.0565499
0 0.119951 0.0522164
0.128588 0.171221 0.0421607
0.48484 0.212299 0.000579843
0.711025 0.264744 0
0.842573 0.358022 0.0539101
0.961196 0.588251 0.317296
1 0.783703 0.523995
1 0.892805 0.65333
0 0.304921 0.0758373
0 0.319463 0.0357671
0 0.369909 0.00177005
0.450172 0.448112 0
0.811872 0.488396 0
0.929046 0.546075 0
0.979171 0.648615 0.305653
1 0.794995 0.521065
1 0.89572 0.65481
0 0.618982 0.00175479
0 0.616022 0
0 0.624964 0
0.119722 0.639628 0
0.784253 0.695872 0
0.977142 0.718532 0
1 0.770291 0.302449
1 0.827115 0.517296
1 0.903899 0.661448
0 0.693797 0.265843
0 0.693889 0.244694
0 0.694957 0.246708
0.0148775 0.70547 0.251133
0.559625 0.764569 0.25742
0.934936 0.82533 0.258824
1 0.85658 0.379522
1 0.895644 0.571084
1 0.927153 0.693568
0.00228885 0.725185 0.486412
0.00282292 0.721767 0.469947
0.0122835 0.725246 0.471107
0.092668 0.738216 0.47834
0.421836 0.777508 0.495888
0.778347 0.866224 0.53434
0.990814 0.919585 0.559274
1 0.951263 0.644587
1 0.968185 0.767086
0.460472 0.851164 0.680293
0.425544 0.837369 0.664302
0.430808 0.837995 0.663508
0.455634 0.84361 0.665202
0.52517 0.861479 0.671672
0.697917 0.90866 0.691585
0.910048 0.969421 0.725002
1 0.98143 0.747311
1 0.984726 0.794034
0.807034 0.977737 0.790814
0.80798 0.977905 0.79089
0.809644 0.97818 0.790982
0.814603 0.979034 0.791302
0.827909 0.981247 0.792218
0.860426 0.983337 0.794568
0.932509 0.985855 0.803601
0.999832 0.987198 0.808316
1 0.985962 0.815473
0.0139773 0.024155 0.0600748
0.0484474 0.0305791 0.0636912
0.320043 0.0431983 0.0534066
0.545541 0.0486763 0.0616922
0.674907 0.0967422 0.0776837
0.833448 0.318746 0.179828
0.974716 0.619684 0.392981
1 0.81149 0.560006
1 0.890806 0.654505
0.0012665 0.035584 0.0621805
0.0255741 0.0393835 0.0585641
0.202396 0.0642405 0.0476234
0.467216 0.0769818 0.0305333
0.659998 0.115816 0.0451209
0.801526 0.274113 0.125872
0.949889 0.556023 0.330007
1 0.77525 0.52604
1 0.891508 0.65449
0 0.0915084 0.0790112
0 0.111803 0.0684977
0.14197 0.155489 0.0668803
0.469566 0.189166 0.0177462
0.700786 0.243519 0.0077821
0.834363 0.340703 0.103761
0.955749 0.575967 0.325612
1 0.777905 0.523751
1 0.89247 0.654917
0 0.289403 0.1028
0 0.298207 0.0681468
0 0.343282 0.0212558
0.428412 0.426947 0
0.792248 0.476722 0
0.919524 0.539437 0.0043946
0.974365 0.638453 0.314519
1 0.789395 0.520943
1 0.894804 0.655497
0 0.605997 0.00852979
0 0.604486 3.0518e-05
0 0.615244 0
0.0775006 0.628626 0
0.770855 0.68954 0
0.967437 0.716289 0
0.999237 0.766796 0.309911
1 0.821897 0.516258
1 0.902678 0.661219
0 0.693645 0.256718
0 0.693599 0.234211
0 0.694377 0.236286
0.00758373 0.703197 0.239887
0.55053 0.760876 0.242069
0.930465 0.821744 0.245426
1 0.854261 0.382956
1 0.892027 0.565454
1 0.925704 0.692042
0 0.722759 0.479545
0.00205997 0.7196 0.463233
0.00923171 0.722896 0.464363
0.0752728 0.735378 0.471321
0.411704 0.774395 0.489021
0.772396 0.862547 0.526345
0.989349 0.916548 0.551186
1 0.948959 0.639521
1 0.967071 0.766827
0.445182 0.845502 0.674144
0.409598 0.831403 0.657816
0.416022 0.83241 0.65745
0.440909 0.837827 0.659022
0.511543 0.855634 0.665537
0.68748 0.903563 0.686107
0.906142 0.967071 0.720455
1 0.980896 0.743328
1 0.984588 0.793439
0.806928 0.977707 0.790799
0.807858 0.977874 0.790875
0.809461 0.978149 0.790967
0.814237 0.978973 0.791272
0.827192 0.981201 0.792157
0.858991 0.983261 0.794461
0.929915 0.985779 0.803357
0.999863 0.987228 0.808179
1 0.985962 0.815488
0.0203708 0.0226139 0.182864
0.0449073 0.0285344 0.187976
0.270069 0.0348821 0.187213
0.529305 0.0193027 0.185397
0.667872 0.0641947 0.186358
0.824628 0.298909 0.240208
0.971237 0.612497 0.412848
1 0.809018 0.566705
1 0.890227 0.658244
0.0120241 0.0314488 0.184436
0.0354772 0.0387579 0.163378
0.217411 0.0525673 0.158389
0.495796 0.0524147 0.142916
0.656031 0.0831311 0.145922
0.792889 0.251545 0.183154
0.945983 0.548043 0.351812
1 0.772656 0.532097
1 0.891051 0.657267
0 0.110262 0.194949
0 0.123857 0.187076
0.113878 0.150027 0.179324
0.4795 0.167742 0.147631
0.694835 0.210391 0.141161
0.82594 0.320211 0.178653
0.951873 0.568551 0.348455
1 0.775235 0.529717
1 0.891737 0.657176
0 0.317433 0.226154
0 0.321752 0.199588
0 0.353063 0.168383
0.429068 0.426474 0.117006
0.770108 0.472724 0.0685435
0.90959 0.543526 0.118273
0.970367 0.632593 0.340749
1 0.786648 0.52668
1 0.894072 0.65774
0 0.587671 0.145113
0 0.586496 0.105852
0 0.596963 0.0738994
0.0309148 0.607706 0.0303807
0.746227 0.688655 0.00407416
0.955459 0.721935 0.0879835
0.997772 0.768856 0.338369
1 0.819959 0.521889
1 0.901976 0.662898
0 0.690959 0.267094
0 0.690669 0.247059
0 0.69163 0.249363
0.00416571 0.700236 0.254139
0.53782 0.760876 0.266529
0.925475 0.824781 0.282765
1 0.856291 0.404547
1 0.891676 0.568826
1 0.924834 0.69221
0 0.722072 0.478019
0.00161746 0.719066 0.462135
0.00834669 0.722286 0.463035
0.0695201 0.734508 0.469581
0.408927 0.773709 0.48777
0.77142 0.862028 0.525246
0.989242 0.916304 0.551995
1 0.948653 0.642527
1 0.966873 0.76762
0.442664 0.844663 0.673304
0.407004 0.830533 0.656947
0.413321 0.831479 0.656535
0.438209 0.836866 0.658076
0.509682 0.854917 0.664851
0.685969 0.902892 0.68542
0.905455 0.966598 0.719493
1 0.980819 0.742901
1 0.984543 0.793866
0.806729 0.977676 0.790784
0.807691 0.977844 0.790845
0.809277 0.978103 0.790951
0.814038 0.978927 0.791241
0.826978 0.98117 0.792142
0.858808 0.983261 0.794461
0.929564 0.985748 0.803311
0.999832 0.987243 0.808179
1 0.985962 0.815503
0.0594644 0.0208743 0.428855
0.084596 0.0231022 0.437476
0.238514 0.0282902 0.420554
0.47808 0 0.368277
0.660258 0.0335546 0.374563
0.833005 0.310323 0.400687
0.966674 0.599527 0.473884
1 0.802243 0.588159
1 0.88864 0.669703
0.053254 0.0210575 0.412482
0.0668803 0.0200656 0.387243
0.189715 0.0241245 0.366171
0.435035 0.00344854 0.319203
0.638361 0.0332952 0.32871
0.79202 0.24329 0.340459
0.93901 0.531868 0.414939
1 0.766033 0.551095
1 0.889769 0.665385
0.00445563 0.095552 0.385458
0.0163729 0.0990158 0.40177
0.175677 0.12842 0.39263
0.475395 0.0996719 0.36054
0.678614 0.128939 0.342092
0.816312 0.294453 0.349386
0.943358 0.549477 0.413489
1 0.768017 0.548394
1 0.890288 0.664912
0 0.324453 0.379873
0 0.331319 0.382712
0 0.367803 0.411017
0.396811 0.434394 0.419944
0.754849 0.442786 0.391669
0.886625 0.515663 0.385107
0.959533 0.61355 0.413016
1 0.780148 0.545754
1 0.892668 0.6654
0 0.556848 0.368368
0 0.55816 0.360143
0 0.57499 0.36669
0.0133516 0.609232 0.363516
0.717464 0.707759 0.39408
0.931304 0.740627 0.379995
0.993408 0.773465 0.413382
1 0.815183 0.540627
1 0.900557 0.669581
0 0.674922 0.348928
0 0.674357 0.333013
0 0.677073 0.335546
0 0.689677 0.341436
0.483314 0.764172 0.358785
0.905898 0.838102 0.39765
1 0.862501 0.462409
1 0.891524 0.581613
1 0.923323 0.695064
0 0.719402 0.486946
0 0.716243 0.471138
0.0028687 0.719554 0.472511
0.0411078 0.731365 0.478691
0.383658 0.772076 0.498192
0.763363 0.863874 0.539895
0.987778 0.918257 0.571649
1 0.948409 0.654017
1 0.96643 0.769574
0.439094 0.843565 0.67245
0.403815 0.829633 0.65626
0.408682 0.830045 0.655222
0.434897 0.835859 0.657252
0.506889 0.853941 0.664057
0.684199 0.90219 0.684825
0.905104 0.966339 0.719066
1 0.980758 0.743145
1 0.984482 0.795422
0.80618 0.977554 0.790707
0.807172 0.977737 0.790784
0.808774 0.978012 0.790875
0.81355 0.978836 0.79118
0.826505 0.981079 0.792065
0.858351 0.98323 0.794385
0.929351 0.985748 0.803296
0.999863 0.987243 0.808164
1 0.985962 0.815488
0.0254368 0.224674 0.597436
0.0370489 0.243214 0.605814
0.23241 0.283757 0.624872
0.527871 0.247379 0.615351
0.689021 0.1467 0.572442
0.843305 0.364034 0.595438
0.977981 0.625635 0.629999
1 0.791241 0.651209
1 0.885664 0.702739
0.0379339 0.185794 0.589685
0.065156 0.168246 0.589868
0.198825 0.193957 0.596567
0.457069 0.169299 0.573281
0.631693 0.0538491 0.5196
0.802014 0.285893 0.538888
0.949676 0.555032 0.575998
1 0.752438 0.609064
1 0.88719 0.690211
0.0217136 0.200671 0.583978
0.0536355 0.185992 0.587152
0.196689 0.211215 0.593423
0.46566 0.189212 0.574075
0.643046 0.103883 0.522301
0.818372 0.318471 0.545403
0.952148 0.566369 0.57615
1 0.753552 0.606226
1 0.887419 0.689113
0 0.327855 0.519371
0 0.330465 0.535958
0.00189212 0.367361 0.570184
0.471138 0.389838 0.605341
0.727275 0.34902 0.575341
0.875669 0.444053 0.573999
0.962158 0.611399 0.582391
1 0.76379 0.604288
1 0.889601 0.689036
0 0.517708 0.475578
0 0.520272 0.481163
0 0.547173 0.508339
0.00077821 0.618753 0.58265
0.703532 0.729366 0.633555
0.920729 0.728145 0.61648
0.980896 0.760372 0.59646
1 0.800702 0.602029
1 0.897658 0.691615
0 0.653849 0.508156
0 0.65275 0.502876
0 0.661418 0.514321
0 0.690105 0.542107
0.388266 0.797482 0.577371
0.893172 0.868742 0.617472
0.997696 0.879377 0.603159
1 0.892073 0.623316
1 0.919615 0.707286
0 0.715434 0.546532
0 0.71107 0.532219
0 0.714183 0.533669
0.000686656 0.725536 0.540368
0.253742 0.770977 0.561257
0.731212 0.872496 0.602152
0.982742 0.925521 0.639811
1 0.948775 0.68658
1 0.965316 0.776699
0.411994 0.841428 0.680003
0.374746 0.827497 0.664118
0.381811 0.828092 0.663355
0.409644 0.83357 0.665049
0.486061 0.85182 0.671946
0.670085 0.900938 0.691844
0.903258 0.9664 0.728145
1 0.980819 0.753185
1 0.984268 0.799863
0.804486 0.977218 0.790494
0.805646 0.977432 0.790585
0.807263 0.977707 0.790692
0.81207 0.978531 0.790997
0.824857 0.980728 0.791791
0.856977 0.983093 0.79411
0.928771 0.985718 0.803174
0.999802 0.987243 0.808118
1 0.985962 0.815534
0.085008 0.540642 0.699123
0.088426 0.54435 0.700679
0.240574 0.569436 0.715023
0.521553 0.599817 0.734249
0.756802 0.521309 0.731517
0.863584 0.484916 0.744091
0.982315 0.646433 0.768963
1 0.819684 0.773877
1 0.882155 0.77673
0.0377508 0.489738 0.678477
0.0228885 0.465476 0.668956
0.121233 0.486061 0.683436
0.455421 0.523217 0.704662
0.703899 0.450675 0.70341
0.825025 0.402823 0.702831
0.952789 0.586221 0.733501
1 0.778271 0.742077
1 0.879896 0.750515
0.038407 0.490303 0.678691
0.0248722 0.466163 0.66952
0.142107 0.487953 0.684932
0.460716 0.52137 0.704234
0.703731 0.44686 0.702251
0.824048 0.40087 0.701152
0.95494 0.592355 0.732372
1 0.778576 0.740261
1 0.880323 0.749172
0.0250095 0.497398 0.675578
0.0269169 0.479759 0.671946
0.159243 0.503563 0.68838
0.470008 0.533455 0.706188
0.712139 0.467369 0.705531
0.838376 0.441703 0.706462
0.964904 0.620218 0.734462
1 0.785855 0.739864
1 0.881941 0.748745
0 0.566171 0.633158
0 0.562173 0.639109
0 0.589364 0.662669
0.204654 0.656535 0.709743
0.72694 0.671916 0.745983
0.916243 0.649378 0.737575
0.983917 0.716594 0.73962
1 0.808682 0.740642
1 0.888823 0.749462
0 0.639872 0.576089
0 0.637186 0.575189
0 0.65211 0.593866
0 0.695918 0.644526
0.306813 0.809049 0.726436
0.881544 0.880369 0.769741
0.990234 0.87509 0.755428
1 0.877165 0.745342
1 0.910262 0.753353
0 0.745205 0.665553
0 0.736019 0.653635
0 0.739239 0.656489
0 0.753506 0.66952
0.0906233 0.800793 0.702419
0.710384 0.899779 0.738964
0.978851 0.940154 0.766522
1 0.951049 0.763302
1 0.959136 0.790326
0.312306 0.850706 0.726207
0.257115 0.834806 0.710964
0.268666 0.835264 0.710353
0.312078 0.840284 0.712123
0.415869 0.857053 0.718486
0.620798 0.904219 0.732158
0.894911 0.966583 0.760235
1 0.980621 0.77908
1 0.98378 0.81004
0.792874 0.976944 0.795346
0.796185 0.977005 0.794369
0.798016 0.97734 0.794369
0.802655 0.978225 0.794507
0.816556 0.980346 0.795346
0.849683 0.982849 0.797482
0.925597 0.985565 0.80676
0.997421 0.987381 0.810407
1 0.985977 0.816526
0.562112 0.810178 0.808865
0.552758 0.805753 0.806577
0.557046 0.807523 0.807477
0.630488 0.816373 0.815564
0.777676 0.813825 0.833616
0.919112 0.741604 0.828809
0.975769 0.711101 0.845853
1 0.796811 0.855802
1 0.884657 0.852262
0.480018 0.770733 0.78883
0.446967 0.752361 0.781262
0.449332 0.753201 0.781628
0.537316 0.765866 0.789792
0.702144 0.767987 0.807568
0.882475 0.690135 0.805234
0.946639 0.663005 0.822629
1 0.766827 0.836728
1 0.89131 0.836652
0.481117 0.771328 0.78909
0.446799 0.752239 0.781216
0.448463 0.752285 0.781277
0.538354 0.764843 0.789487
0.702037 0.765759 0.806821
0.881132 0.687007 0.804089
0.94519 0.660166 0.821347
1 0.767422 0.835492
1 0.891447 0.835554
0.484398 0.773129 0.789837
0.449195 0.753567 0.781781
0.455909 0.75375 0.78204
0.548241 0.766094 0.790494
0.707866 0.764279 0.807004
0.881666 0.685313 0.803845
0.945647 0.661097 0.821149
1 0.773526 0.834852
1 0.892088 0.835111
0.463203 0.776532 0.789303
0.433875 0.758572 0.781826
0.468711 0.762539 0.784665
0.559014 0.773617 0.792859
0.714519 0.773342 0.810162
0.889509 0.704738 0.808011
0.960601 0.691142 0.821485
1 0.793118 0.834134
1 0.895048 0.835081
0.0612039 0.787457 0.76112
0.0926528 0.776501 0.754116
0.142061 0.784939 0.760937
0.29659 0.809369 0.779965
0.622858 0.84892 0.811795
0.898634 0.853742 0.834226
0.989319 0.832731 0.823499
1 0.851301 0.833066
1 0.903944 0.835142
0 0.786221 0.743435
0 0.77583 0.729992
0 0.781247 0.734142
0 0.802152 0.750759
0.0799115 0.854322 0.787717
0.714748 0.922179 0.828244
0.972717 0.941955 0.842008
1 0.932967 0.838605
1 0.932189 0.836027
0.246708 0.926879 0.834714
0.162463 0.910246 0.821958
0.172259 0.910399 0.821469
0.224125 0.913863 0.822431
0.384985 0.925353 0.825223
0.628489 0.948959 0.826398
0.909148 0.975402 0.827741
0.999512 0.979538 0.829465
1 0.979294 0.834836
0.769818 0.983261 0.824628
0.770672 0.982452 0.819547
0.772839 0.982452 0.819211
0.778775 0.982513 0.819226
0.794675 0.983322 0.818845
0.838499 0.98381 0.820966
0.919936 0.985397 0.825544
0.991089 0.987411 0.822126
1 0.986252 0.823911
0.919127 0.934096 0.925368
0.905928 0.930236 0.920409
0.907408 0.930663 0.920958
0.908675 0.930922 0.921355
0.948241 0.927581 0.927443
0.990127 0.904723 0.928862
0.997833 0.844907 0.908263
1 0.811582 0.911971
1 0.84831 0.903655
0.857649 0.915633 0.901656
0.833295 0.907942 0.891707
0.833494 0.908003 0.891783
0.834241 0.908141 0.891997
0.880522 0.907607 0.90074
0.955169 0.89015 0.906432
0.982376 0.830686 0.885634
1 0.788937 0.898756
1 0.859464 0.886961
0.858167 0.915801 0.901854
0.832563 0.907713 0.891402
0.831815 0.907469 0.891096
0.831846 0.907408 0.891035
0.878141 0.906661 0.89958
0.95314 0.88922 0.90515
0.98146 0.829587 0.884398
1 0.787549 0.897932
1 0.860136 0.886015
0.860533 0.916533 0.902815
0.834348 0.908263 0.892119
0.832593 0.907713 0.891417
0.832868 0.907561 0.891325
0.879652 0.906523 0.899809
0.953002 0.888685 0.904692
0.981247 0.829053 0.883955
1 0.786892 0.897658
1 0.861021 0.885573
0.862959 0.917296 0.903807
0.836072 0.908812 0.892836
0.833753 0.90808 0.89189
0.838056 0.907927 0.892393
0.885496 0.906264 0.901015
0.954314 0.887617 0.904219
0.981552 0.828489 0.883787
1 0.787259 0.897597
1 0.8645 0.885054
0.856321 0.920806 0.9037
0.829053 0.912261 0.892729
0.830808 0.911711 0.892393
0.847501 0.911543 0.894621
0.893843 0.909819 0.902968
0.958724 0.892729 0.906432
0.986343 0.838743 0.887053
1 0.808728 0.8934
1 0.875029 0.883925
0.658183 0.953246 0.907698
0.611536 0.941207 0.895796
0.625742 0.941421 0.895735
0.670161 0.944015 0.898039
0.768902 0.948318 0.904082
0.919066 0.947265 0.91426
0.993286 0.918944 0.897795
1 0.886641 0.887617
1 0.901976 0.8822
0.213901 0.977371 0.930144
0.148623 0.970245 0.921324
0.158618 0.970352 0.921004
0.217929 0.972335 0.921935
0.411292 0.97734 0.924376
0.694102 0.982025 0.920012
0.943038 0.982284 0.892622
0.999329 0.970336 0.869764
1 0.956725 0.869764
0.852125 0.984527 0.921965
0.844648 0.98471 0.911742
0.845533 0.984726 0.910658
0.849683 0.984726 0.909316
0.862211 0.984604 0.906996
0.900328 0.984909 0.899504
0.965301 0.985504 0.88452
0.999817 0.987503 0.858824
1 0.986084 0.843
1 0.961547 0.942916
1 0.961501 0.942901
1 0.961501 0.942901
1 0.961471 0.942885
1 0.960678 0.94313
1 0.948196 0.945708
1 0.90132 0.946044
1 0.85452 0.932097
1 0.853651 0.927047
1 0.961608 0.942931
1 0.961578 0.942916
1 0.961532 0.942916
1 0.961517 0.942901
1 0.961486 0.942901
1 0.953857 0.944533
1 0.918547 0.948348
1 0.859388 0.938766
1 0.853681 0.927062
1 0.961639 0.942931
1 0.961608 0.942931
1 0.961578 0.942916
1 0.961547 0.942916
1 0.961532 0.942916
1 0.95407 0.944503
1 0.919417 0.948409
1 0.859754 0.939269
1 0.853697 0.927108
1 0.961639 0.942931
1 0.961639 0.942931
1 0.961608 0.942931
1 0.961578 0.942916
1 0.961563 0.942916
1 0.954055 0.944533
1 0.919661 0.948455
1 0.859861 0.939467
1 0.853681 0.927153
1 0.961624 0.942931
1 0.961624 0.942931
1 0.961624 0.942931
1 0.961593 0.942916
1 0.961517 0.942962
1 0.953719 0.94461
1 0.919203 0.94847
1 0.8598 0.939467
1 0.853681 0.927184
1 0.961593 0.942931
1 0.961593 0.942931
1 0.961593 0.942931
1 0.961593 0.942931
1 0.960861 0.943175
1 0.952346 0.944869
1 0.91751 0.948425
1 0.859434 0.939193
1 0.853803 0.927123
0.986969 0.967895 0.942718
0.992065 0.965972 0.942794
0.993088 0.965759 0.942824
0.995575 0.96527 0.942992
0.999878 0.963211 0.943603
1 0.955245 0.944778
1 0.922515 0.947768
1 0.867109 0.938964
1 0.866163 0.924392
0.848066 0.983291 0.947631
0.876463 0.981933 0.946365
0.881743 0.981735 0.946227
0.890562 0.981552 0.94612
0.914366 0.981109 0.946014
0.957321 0.981262 0.946105
0.998428 0.978408 0.939986
1 0.935973 0.920195
1 0.914412 0.90576
0.881849 0.984588 0.95108
0.882979 0.984588 0.95108
0.884855 0.984588 0.951064
0.889662 0.984543 0.951019
0.906004 0.984085 0.950835
0.948333 0.98352 0.9505
0.999664 0.983597 0.943908
1 0.987381 0.900084
1 0.981659 0.864057
