uploads/pati_day_plener.cube
TITLE "Generated by Resolve"
LUT_3D_SIZE 9
0.012604 0.0207523 0.0341955
0.0220035 0.0239261 0.0368811
0.171908 0.0441138 0.0236973
0.401984 0.0449989 0.00877394
0.603067 0.0781872 0.0212406
0.748028 0.198703 0.0728466
0.928801 0.500938 0.277913
1 0.758206 0.507744
1 0.887831 0.647044
0.00546273 0.0263676 0.0377813
0.0124819 0.0292515 0.0389563
0.123796 0.0506142 0.0344396
0.365927 0.0629282 0.00975052
0.607141 0.106981 0.0157321
0.763867 0.226993 0.062501
0.932921 0.512383 0.27686
1 0.760082 0.507195
1 0.888197 0.647074
0 0.0556344 0.0454414
0 0.0728161 0.047425
0.081529 0.10898 0.0535744
0.378042 0.143725 0.0125887
0.625101 0.187991 0.00149538
0.790738 0.27718 0.0374151
0.93991 0.532357 0.2757
1 0.764035 0.50721
1 0.889204 0.647898
0 0.185046 0.0791943
0 0.216358 0.0657359
0 0.263264 0.0378271
0.320806 0.346487 0
0.719799 0.388342 0
0.87982 0.455909 0
0.958892 0.588815 0.2663
1 0.774563 0.506081
1 0.891829 0.649729
0 0.512718 0.0128328
0 0.534508 0
0 0.555917 0
0 0.575784 0
0.708186 0.638102 0
0.958587 0.668376 0
0.994583 0.725124 0.240726
1 0.804166 0.502541
1 0.898833 0.654795
0 0.691829 0.169741
0 0.692073 0.172168
0 0.691875 0.174655
0 0.693523 0.177478
0.460273 0.736904 0.165316
0.914321 0.80061 0.128954
0.999908 0.832258 0.314244
1 0.875715 0.534005
1 0.918395 0.677134
0 0.708705 0.431662
1.5259e-05 0.710338 0.433539
0.000122072 0.712779 0.43534
0.00784314 0.72134 0.440696
0.318242 0.754742 0.458106
0.723674 0.842847 0.492256
0.988418 0.904433 0.51725
1 0.940856 0.614511
1 0.962722 0.761883
0.363592 0.81529 0.640833
0.369665 0.816617 0.641703
0.377569 0.818357 0.642618
0.400046 0.823331 0.644816
0.464057 0.838605 0.650919
0.631846 0.88304 0.669734
0.886915 0.959396 0.708171
1 0.979492 0.734142
1 0.984283 0.790951
0.804364 0.976974 0.790158
0.806195 0.977417 0.790478
0.807675 0.977707 0.790631
0.811551 0.978424 0.790967
0.821958 0.98024 0.791669
0.849592 0.982498 0.793439
0.919478 0.985351 0.802014
0.999741 0.987305 0.807813
1 0.985962 0.815442
0.0132601 0.0228428 0.045182
0.0175021 0.0238499 0.0453803
0.168872 0.0451514 0.0361181
0.4383 0.0439155 0.0206149
0.608255 0.0653086 0.0367895
0.745785 0.187793 0.0967269
0.926802 0.497276 0.290623
1 0.756909 0.510521
1 0.887495 0.648112
0.00944533 0.024445 0.0433204
0.0152438 0.0263828 0.0439002
0.144854 0.0483864 0.0383459
0.39585 0.0586252 0.0166781
0.614816 0.0906233 0.0292973
0.761761 0.21622 0.0915389
0.930846 0.508522 0.289693
1 0.758709 0.509957
1 0.887739 0.647944
0 0.0542611 0.0490578
0 0.0677653 0.0504463
0.0890974 0.101106 0.0576944
0.372244 0.129992 0.0194553
0.630884 0.172335 0.0103609
0.789136 0.268299 0.0745861
0.937743 0.528542 0.288701
1 0.762844 0.510124
1 0.888899 0.648966
0 0.179675 0.0842756
0 0.208423 0.072343
0 0.252079 0.0473793
0.31371 0.334646 0
0.71313 0.384298 0
0.876204 0.454322 0
0.956878 0.58613 0.280308
1 0.773602 0.509194
1 0.891432 0.650629
0 0.507225 0.0231479
0 0.529015 0
0 0.550759 0
0 0.571267 0
0.704677 0.636545 0
0.9514 0.669718 0
0.993271 0.726223 0.258289
1 0.803449 0.50544
1 0.898421 0.655421
0 0.691752 0.168505
0 0.692012 0.170947
0 0.691844 0.173739
0 0.693339 0.176013
0.459495 0.736629 0.163699
0.913863 0.80032 0.127413
0.999771 0.833585 0.327901
1 0.875624 0.535912
1 0.91809 0.677455
0 0.708598 0.431434
0 0.710079 0.432898
4.57771e-05 0.712505 0.43473
0.00737011 0.721157 0.440452
0.317174 0.754498 0.457511
0.72311 0.842542 0.4916
0.988403 0.904311 0.516808
1 0.94078 0.616571
1 0.9626 0.762036
0.362615 0.815045 0.640558
0.368612 0.816373 0.641428
0.376654 0.818112 0.642344
0.398795 0.822919 0.644343
0.463676 0.838483 0.650858
0.631281 0.882811 0.66949
0.886717 0.959258 0.707973
1 0.979477 0.733974
1 0.984268 0.791089
0.803555 0.976745 0.789944
0.805737 0.977295 0.790372
0.807248 0.9776 0.790539
0.810758 0.97821 0.790753
0.821561 0.980133 0.791562
0.849485 0.982498 0.793423
0.919371 0.985351 0.801984
0.999802 0.987305 0.807736
1 0.985962 0.815412
0.0180056 0.0274357 0.11812
0.021912 0.0286564 0.11664
0.13463 0.0430152 0.117159
0.426703 0.0348974 0.0968643
0.608927 0.0465705 0.102541
0.740917 0.169924 0.134188
0.923827 0.491295 0.308522
1 0.755367 0.515282
1 0.887068 0.649927
0.0153048 0.029572 0.116518
0.0218204 0.0314183 0.114229
0.141909 0.0450599 0.112718
0.429282 0.048249 0.0955825
0.61912 0.0702373 0.0986496
0.756268 0.197162 0.132616
0.927596 0.502098 0.308186
1 0.757031 0.514717
1 0.887297 0.64976
0 0.0671855 0.125414
0 0.077409 0.126406
0.0728923 0.0937819 0.118914
0.386145 0.117449 0.0955978
0.635859 0.146639 0.0876326
0.78468 0.251789 0.127703
0.934691 0.522774 0.308156
1 0.761044 0.514763
1 0.888563 0.650935
0 0.201068 0.155627
0 0.227832 0.149096
0 0.262608 0.12549
0.331746 0.331762 0.0698711
0.701534 0.378805 0.0162356
0.870115 0.454337 0.0404364
0.953567 0.581445 0.302892
1 0.772 0.513893
1 0.891112 0.652628
0 0.496483 0.114611
0 0.515938 0.0715343
0 0.536477 0.0286564
0 0.550729 0.00108339
0.685573 0.633753 0
0.939559 0.671901 0.000732433
0.991165 0.727947 0.285115
1 0.802228 0.510048
1 0.8981 0.657069
0 0.689586 0.177829
0 0.689967 0.180255
0 0.689921 0.18323
0 0.691417 0.186908
0.450889 0.736004 0.184207
0.910597 0.802502 0.175372
0.999588 0.835874 0.34963
1 0.875456 0.538796
1 0.917723 0.678309
0 0.708293 0.43061
0 0.709834 0.432319
0 0.712245 0.434333
0.00654612 0.720836 0.439872
0.315038 0.754162 0.456992
0.72282 0.84239 0.491295
0.988388 0.904128 0.516289
1 0.940749 0.619654
1 0.962509 0.762676
0.361791 0.814893 0.640421
0.367376 0.816068 0.641093
0.37496 0.817655 0.64181
0.398169 0.822782 0.644221
0.462821 0.838178 0.650538
0.630686 0.882536 0.6692
0.886275 0.959121 0.707835
1 0.979431 0.733761
1 0.984253 0.791455
0.803449 0.976715 0.789929
0.804898 0.977066 0.790173
0.80676 0.977462 0.790433
0.810285 0.978088 0.790646
0.821118 0.980011 0.791455
0.849119 0.982422 0.793332
0.919203 0.985351 0.801907
0.999786 0.987305 0.807691
1 0.985962 0.815427
0.038468 0.0125734 0.323766
0.0428016 0.0130922 0.319722
0.110277 0.0184787 0.29749
0.362112 0.0105135 0.258534
0.589288 0.00106813 0.263966
0.734371 0.144823 0.265888
0.916899 0.476265 0.361547
1 0.750164 0.529793
1 0.886015 0.655894
0.0372015 0.0136416 0.323522
0.0429084 0.0145724 0.318212
0.117723 0.0217594 0.297856
0.369421 0.0146487 0.259724
0.601999 0.0206302 0.268086
0.747173 0.169696 0.269368
0.92015 0.486519 0.362036
1 0.751827 0.529244
1 0.886336 0.655894
0.0100252 0.0422675 0.321553
0.0160372 0.0482032 0.330571
0.113909 0.0715648 0.31635
0.397421 0.0589914 0.290532
0.627314 0.0756847 0.27602
0.769696 0.214466 0.276692
0.926131 0.504997 0.36376
1 0.75552 0.52932
1 0.887373 0.656748
0 0.22269 0.31574
0 0.245808 0.326116
0 0.279866 0.347707
0.297383 0.335744 0.348547
0.689052 0.341238 0.309529
0.849867 0.426413 0.307317
0.943923 0.564248 0.364752
1 0.766903 0.528695
1 0.890043 0.658488
0 0.490837 0.319249
0 0.506127 0.315373
0 0.52433 0.312322
0 0.545174 0.296391
0.651759 0.644388 0.312993
0.911528 0.685298 0.295537
0.984527 0.730617 0.357626
1 0.797894 0.524712
1 0.897139 0.662715
0 0.671183 0.262486
0 0.672557 0.264561
0 0.673991 0.267323
0 0.678523 0.271412
0.394903 0.733516 0.280888
0.890089 0.813519 0.31339
0.99913 0.842817 0.409552
1 0.875364 0.549691
1 0.916655 0.681346
0 0.706676 0.43621
0 0.708232 0.437583
0 0.710597 0.439445
0.00112917 0.718883 0.444999
0.292821 0.752819 0.463325
0.716869 0.843534 0.500587
0.987015 0.905974 0.531746
1 0.940642 0.629786
1 0.962158 0.764096
0.358984 0.814191 0.639811
0.364706 0.815396 0.640513
0.373236 0.817273 0.641611
0.39617 0.822248 0.643824
0.460899 0.837568 0.649989
0.629496 0.882109 0.668833
0.886397 0.958999 0.70753
1 0.9794 0.733639
1 0.984207 0.79266
0.802335 0.97644 0.7897
0.804532 0.976989 0.790112
0.806012 0.977295 0.790295
0.809552 0.977905 0.790509
0.820462 0.979858 0.791318
0.8486 0.982361 0.793179
0.91899 0.985336 0.801862
0.999832 0.987305 0.807706
1 0.985962 0.815396
0.0692149 0.0850996 0.556771
0.0754711 0.0877089 0.558541
0.143542 0.103334 0.561837
0.360174 0.102586 0.527947
0.573144 0.00755322 0.466484
0.748898 0.180835 0.474678
0.924971 0.490562 0.516747
1 0.736538 0.577279
1 0.883345 0.675807
0.0694743 0.0841535 0.556298
0.078645 0.087129 0.558495
0.150561 0.104097 0.560922
0.364446 0.101045 0.526955
0.57348 0.00694286 0.465675
0.758618 0.201404 0.478798
0.927413 0.498772 0.518074
1 0.737911 0.576883
1 0.883635 0.675731
0.0614481 0.0915541 0.554498
0.0748455 0.0974136 0.557992
0.152972 0.116564 0.559487
0.373953 0.115389 0.528099
0.583551 0.0276341 0.469429
0.775082 0.234989 0.486641
0.931716 0.512764 0.521126
1 0.741466 0.577188
1 0.884611 0.676387
0 0.224887 0.488167
0 0.24744 0.511879
1.5259e-05 0.2757 0.5364
0.382712 0.300526 0.555001
0.657588 0.245228 0.516426
0.832288 0.353262 0.514794
0.943481 0.555856 0.528801
1 0.751278 0.576852
1 0.887312 0.677806
0 0.459648 0.444327
0 0.474372 0.455085
0 0.496895 0.474144
0 0.554253 0.537682
0.63621 0.665309 0.58703
0.8972 0.668025 0.566812
0.96994 0.715663 0.546456
1 0.783459 0.57467
1 0.894545 0.68098
0 0.635142 0.457008
0 0.639963 0.463264
0 0.646708 0.472282
0 0.667536 0.494957
0.252827 0.760021 0.523613
0.873167 0.845518 0.568597
0.995895 0.860426 0.55346
1 0.875639 0.587915
1 0.913832 0.693904
0 0.699641 0.488579
0 0.701305 0.490257
0 0.703944 0.492515
0 0.712367 0.498436
0.127977 0.747845 0.515999
0.681773 0.850233 0.55552
0.979721 0.914275 0.600412
1 0.941115 0.660899
1 0.961028 0.769604
0.33846 0.812558 0.644358
0.345022 0.813733 0.64509
0.353887 0.815305 0.645853
0.378302 0.820356 0.648173
0.445853 0.835843 0.654612
0.619425 0.881346 0.673335
0.884978 0.958999 0.713375
1 0.979461 0.741466
1 0.984009 0.796551
0.801129 0.976181 0.789548
0.802976 0.976623 0.789868
0.804456 0.976944 0.790036
0.808377 0.977661 0.790356
0.819059 0.979538 0.791074
0.847456 0.982238 0.792935
0.918334 0.98529 0.801648
0.999771 0.987305 0.807614
1 0.985962 0.815427
0.00538643 0.404211 0.645121
0.00556954 0.404898 0.64538
0.031281 0.415595 0.654017
0.34902 0.458518 0.680568
0.644892 0.403616 0.682185
0.789776 0.333776 0.667216
0.93164 0.535882 0.698497
1 0.756008 0.713207
1 0.877455 0.731121
0.0052491 0.403662 0.644907
0.00544747 0.404349 0.645167
0.0362249 0.41651 0.654948
0.353506 0.45832 0.680583
0.645716 0.402487 0.681956
0.789685 0.333303 0.666957
0.933928 0.541207 0.699016
1 0.757244 0.713115
1 0.877668 0.730983
0.00543221 0.404257 0.645151
0.0056611 0.404959 0.645426
0.0446021 0.419364 0.656886
0.362676 0.4598 0.681208
0.648142 0.401923 0.682048
0.790326 0.334051 0.667292
0.937865 0.550546 0.700832
1 0.760021 0.713619
1 0.878553 0.731426
0.00294499 0.406958 0.643656
0.00660716 0.411276 0.646876
0.0650034 0.430045 0.661006
0.382422 0.467521 0.68249
0.656092 0.412558 0.683558
0.802213 0.368215 0.672114
0.948638 0.577295 0.705028
1 0.767605 0.714382
1 0.880964 0.732296
0 0.48748 0.600809
0 0.502373 0.614954
0 0.52517 0.635782
0.078996 0.587915 0.683146
0.674586 0.603647 0.717952
0.884245 0.57406 0.708568
0.97174 0.669932 0.714244
1 0.788846 0.715572
1 0.887678 0.733883
0 0.604608 0.540887
0 0.611719 0.549111
0 0.62417 0.564385
0 0.662196 0.610895
0.0961013 0.769833 0.698253
0.85919 0.861967 0.749859
0.986358 0.85452 0.732357
1 0.861616 0.720439
1 0.906569 0.738338
0 0.713817 0.620859
0 0.716243 0.623697
0 0.719585 0.627543
0 0.731121 0.639246
0.00151064 0.769863 0.66862
0.643153 0.881666 0.711009
0.972839 0.932708 0.747936
1 0.944656 0.743175
1 0.954528 0.779904
0.213535 0.81529 0.685649
0.222461 0.816434 0.68629
0.236011 0.818006 0.687053
0.276036 0.822965 0.689494
0.368322 0.837507 0.695506
0.565118 0.882231 0.710338
0.875547 0.959014 0.743969
0.999924 0.979309 0.769238
1 0.98352 0.806439
0.79411 0.975723 0.791882
0.795651 0.976089 0.792081
0.797223 0.976455 0.792233
0.801282 0.977234 0.792523
0.812528 0.97908 0.79321
0.842084 0.982116 0.795163
0.915969 0.985183 0.804013
0.997742 0.987366 0.809186
1 0.985962 0.816144
0.389929 0.720577 0.768185
0.390372 0.720836 0.768292
0.390875 0.721126 0.768399
0.458106 0.73196 0.77435
0.634989 0.744045 0.792538
0.850752 0.665888 0.790417
0.92929 0.630671 0.809155
1 0.754131 0.824125
1 0.889479 0.826307
0.389395 0.720287 0.768078
0.389838 0.720531 0.76817
0.390341 0.720821 0.768277
0.459892 0.732036 0.774441
0.635416 0.743725 0.792493
0.850752 0.665446 0.790311
0.929198 0.630411 0.809079
1 0.755352 0.823957
1 0.889586 0.826246
0.390524 0.720913 0.768338
0.390967 0.721157 0.768429
0.39147 0.721431 0.768536
0.464179 0.733104 0.774975
0.63798 0.744137 0.79292
0.851591 0.665736 0.790631
0.929549 0.631037 0.809354
1 0.757733 0.824186
1 0.890059 0.826459
0.392172 0.721813 0.768719
0.392615 0.722072 0.768811
0.393042 0.722301 0.768902
0.475837 0.735409 0.776211
0.643977 0.744289 0.793713
0.853361 0.66566 0.791135
0.930159 0.631861 0.809766
1 0.764294 0.824506
1 0.891142 0.82678
0.381842 0.722713 0.768292
0.383825 0.723476 0.768612
0.411872 0.728252 0.771176
0.498589 0.741268 0.778729
0.655436 0.747662 0.795834
0.859785 0.675135 0.793896
0.941222 0.656748 0.811109
1 0.782361 0.824537
1 0.893919 0.827146
0.0630045 0.74168 0.739086
0.0709544 0.748348 0.743908
0.0846418 0.756893 0.750118
0.203998 0.781415 0.767971
0.576959 0.822889 0.798138
0.875105 0.827817 0.824399
0.984482 0.803281 0.811093
1 0.836652 0.824613
1 0.901274 0.826963
0 0.742184 0.693065
0 0.745983 0.696712
0 0.751263 0.701778
0 0.769909 0.718624
0.00370794 0.819532 0.758206
0.638743 0.906004 0.815518
0.967697 0.936797 0.83563
1 0.92784 0.830747
1 0.928344 0.827893
0.0861677 0.888121 0.802853
0.0938888 0.889326 0.803586
0.10457 0.890715 0.804288
0.145937 0.894255 0.805814
0.301137 0.905699 0.810086
0.556649 0.932113 0.815167
0.885618 0.970352 0.819867
0.999695 0.978943 0.825223
1 0.979904 0.831464
0.76643 0.979797 0.813458
0.769024 0.980209 0.813565
0.770397 0.980331 0.813642
0.774716 0.980697 0.813687
0.788235 0.982101 0.813718
0.82475 0.983139 0.814984
0.90811 0.984817 0.821073
0.988922 0.987335 0.819516
1 0.986252 0.822049
0.808743 0.900175 0.881651
0.809079 0.900282 0.881804
0.809674 0.900481 0.882033
0.8094 0.900389 0.881941
0.841978 0.900633 0.887617
0.929839 0.888991 0.899474
0.972229 0.828611 0.878752
1 0.78027 0.892989
1 0.858824 0.882216
0.808392 0.900069 0.881514
0.808759 0.900191 0.881666
0.809003 0.900267 0.881773
0.809064 0.900282 0.881788
0.841749 0.90045 0.887419
0.929564 0.888808 0.899275
0.972091 0.828412 0.878523
1 0.780179 0.892943
1 0.858961 0.882139
0.809308 0.900359 0.881895
0.809659 0.900465 0.882033
0.810269 0.900664 0.882277
0.809964 0.900572 0.882155
0.843122 0.900725 0.887861
0.930617 0.889036 0.899657
0.97232 0.828565 0.878752
1 0.780377 0.893156
1 0.859556 0.88217
0.810437 0.90071 0.882353
0.811109 0.900923 0.882628
0.811414 0.901015 0.88275
0.811429 0.90103 0.882765
0.846113 0.901167 0.888747
0.932036 0.889067 0.900008
0.972793 0.828656 0.879133
1 0.780728 0.893507
1 0.861021 0.882185
0.811963 0.901183 0.882979
0.812619 0.901396 0.883253
0.812924 0.901503 0.883391
0.81297 0.901503 0.883391
0.852293 0.901534 0.890272
0.935119 0.888594 0.900328
0.973449 0.828443 0.879423
1 0.781048 0.893919
1 0.864591 0.881971
0.809369 0.902403 0.882979
0.809995 0.902586 0.883223
0.810956 0.902724 0.883482
0.823789 0.902983 0.885512
0.865049 0.902464 0.893065
0.940719 0.889326 0.901015
0.97673 0.833219 0.881392
1 0.796948 0.891585
1 0.873762 0.881392
0.632761 0.930419 0.882536
0.642161 0.931289 0.883452
0.652522 0.932189 0.884337
0.684367 0.934401 0.886885
0.766217 0.938582 0.893919
0.908629 0.940444 0.906264
0.989029 0.91429 0.894499
1 0.877623 0.884688
1 0.898939 0.880186
0.0469978 0.960601 0.911772
0.051667 0.961349 0.912245
0.0606546 0.962341 0.912871
0.0932326 0.96466 0.914076
0.271092 0.971542 0.918227
0.614435 0.979507 0.917617
0.920195 0.981918 0.891661
0.999817 0.969818 0.869032
1 0.955413 0.86949
0.831449 0.984817 0.904234
0.83331 0.984833 0.904311
0.834913 0.984848 0.904128
0.83888 0.984817 0.903563
0.850126 0.98468 0.9019
0.884123 0.984833 0.89601
0.952117 0.985382 0.882551
0.999588 0.98735 0.857954
1 0.986023 0.841886
1 0.961532 0.942916
1 0.961532 0.942916
1 0.961501 0.942901
1 0.961471 0.942885
1 0.96144 0.942885
1 0.956909 0.943984
1 0.927581 0.948547
1 0.862516 0.941207
1 0.853391 0.927153
1 0.961578 0.942916
1 0.961578 0.942916
1 0.961532 0.942916
1 0.961501 0.942901
1 0.961501 0.942901
1 0.956954 0.943999
1 0.927687 0.948547
1 0.862608 0.941299
1 0.853407 0.927184
1 0.961608 0.942931
1 0.961608 0.942931
1 0.961578 0.942916
1 0.961532 0.942916
1 0.961532 0.942916
1 0.956939 0.944015
1 0.92755 0.948577
1 0.862501 0.941299
1 0.853468 0.927199
1 0.961639 0.942931
1 0.961639 0.942931
1 0.961608 0.942931
1 0.961563 0.942916
1 0.961578 0.942916
1 0.956847 0.944045
1 0.92726 0.948623
1 0.862257 0.941238
1 0.853544 0.927214
1 0.961624 0.942931
1 0.961624 0.942931
1 0.961624 0.942931
1 0.961593 0.942931
1 0.961593 0.942931
1 0.956573 0.944121
1 0.926635 0.948669
1 0.861967 0.941192
1 0.85362 0.927214
1 0.961608 0.942931
1 0.961608 0.942931
1 0.961608 0.942931
1 0.961608 0.942931
1 0.961608 0.942931
1 0.955673 0.944274
1 0.924956 0.94876
1 0.861387 0.940932
1 0.853742 0.927153
0.998825 0.963088 0.942824
0.998825 0.963104 0.942824
0.998871 0.963088 0.942824
0.999252 0.963012 0.942855
1 0.961288 0.94342
1 0.954772 0.944518
1 0.924514 0.948592
1 0.864973 0.940642
1 0.863294 0.925093
0.897948 0.980789 0.945281
0.899062 0.980758 0.945281
0.900526 0.980713 0.945281
0.906126 0.980545 0.94522
0.922744 0.980407 0.945174
0.958328 0.980285 0.945388
0.999786 0.978302 0.941039
1 0.931685 0.923827
1 0.908431 0.909026
0.878584 0.984649 0.951095
0.880186 0.984634 0.95108
0.881758 0.984634 0.951064
0.885924 0.984619 0.951049
0.899138 0.984146 0.950896
0.937362 0.983627 0.950576
0.998947 0.983276 0.94667
1 0.987259 0.90425
1 0.981338 0.864363
