uploads/V2_Sl3Sg3_BW_HC2.cube
TITLE "Generated by Resolve"
LUT_3D_SIZE 33
0 0 0
7.62951e-05 4.57771e-05 3.0518e-05
0.000167849 7.62951e-05 4.57771e-05
0.000244144 0.000122072 7.62951e-05
0.00030518 0.00015259 0.000106813
0.000381476 0.000183108 0.000137331
0.00047303 0.000228885 0.000183108
0.000579843 0.000259403 0.000228885
0.000671397 0.000289921 0.000289921
0.000717174 0.000289921 0.000350958
0.000717174 0.000274662 0.000396735
0.000656138 0.000244144 0.000427253
0.000534066 0.000167849 0.000442512
0.00030518 7.62951e-05 0.000396735
0.00030518 0.000274662 0.000534066
0.00363165 0.00334173 0.00337224
0.00657664 0.00614939 0.00608835
0.00924697 0.00880446 0.00885023
0.0117952 0.0115053 0.0119478
0.0139315 0.0139773 0.015198
0.0178531 0.0178836 0.0187991
0.0220188 0.022034 0.0226291
0.0261082 0.0261234 0.0263981
0.0303655 0.0303502 0.0302892
0.0352636 0.03505 0.0345922
0.0400702 0.0397955 0.0389258
0.044892 0.0447395 0.0433967
0.0504311 0.0502174 0.0483711
0.0565194 0.0561685 0.0537728
0.062089 0.0618143 0.0588388
0.0678111 0.0677348 0.06421
0.0745251 0.0745556 0.0705882
0.0817121 0.0817426 0.0772106
0.000259403 0.000122072 9.15541e-05
0.000335698 0.000167849 0.000122072
0.000427253 0.000198367 0.00015259
0.000534066 0.000244144 0.000198367
0.00062562 0.000274662 0.000259403
0.000686656 0.000289921 0.000320439
0.000717174 0.000289921 0.000366217
0.000701915 0.000259403 0.000411994
0.00062562 0.000213626 0.000442512
0.000442512 0.000122072 0.000427253
0.000167849 3.0518e-05 0.000350958
0.00164797 0.00151064 0.00166323
0.00482185 0.00447089 0.00444038
0.00767529 0.00723278 0.007187
0.0102846 0.00987259 0.0100404
0.0126955 0.0125277 0.0132296
0.0155184 0.0155489 0.0166476
0.0194247 0.0194553 0.0202487
0.0235294 0.0235447 0.0240177
0.0277562 0.0277562 0.0279088
0.0321965 0.0320745 0.0318761
0.0369268 0.0366674 0.0360723
0.0419471 0.0417029 0.04065
0.0467842 0.0467384 0.0451972
0.0527352 0.0524453 0.0503853
0.0584573 0.0581216 0.0555276
0.06421 0.0640116 0.0608072
0.0704356 0.0704204 0.0667277
0.0772259 0.0772717 0.0730907
0.0842756 0.0842756 0.0795453
0.0914168 0.0912947 0.0860151
0.0987716 0.0989395 0.0937057
0.105806 0.106004 0.100649
0.000564584 0.000259403 0.000228885
0.000656138 0.000289921 0.000289921
0.000701915 0.000289921 0.000350958
0.000717174 0.000274662 0.000396735
0.000671397 0.000244144 0.000427253
0.000549325 0.000183108 0.000442512
0.000350958 9.15541e-05 0.000411994
3.0518e-05 0 0.000289921
0.00294499 0.00270085 0.00276188
0.00590524 0.00550851 0.00544747
0.00877394 0.00833143 0.00833143
0.0112459 0.0108949 0.0112154
0.0134127 0.0133516 0.0143587
0.0170291 0.0170596 0.0180362
0.0209964 0.0210269 0.0216983
0.0250401 0.0250553 0.0254063
0.0292668 0.0292668 0.0292973
0.0339971 0.033814 0.033463
0.0387579 0.0384985 0.0377356
0.0436103 0.0434119 0.0421912
0.0491188 0.0489509 0.0472114
0.0549325 0.0545968 0.0523537
0.0606088 0.0603037 0.057496
0.0660258 0.065919 0.062501
0.0729992 0.0730144 0.0691539
0.079942 0.0799878 0.0756085
0.0869612 0.0869154 0.0819562
0.0940261 0.0940414 0.0887922
0.101335 0.101534 0.0962692
0.108629 0.108797 0.103334
0.116045 0.11603 0.110216
0.123766 0.123522 0.117418
0.131655 0.131334 0.125078
0.000701915 0.000274662 0.000396735
0.000640879 0.000228885 0.000427253
0.000488289 0.00015259 0.000442512
0.000244144 6.10361e-05 0.000381476
0.000839246 0.000762951 0.000976577
0.00416571 0.00384527 0.00384527
0.00698863 0.00656138 0.00650034
0.00959792 0.00917067 0.00924697
0.0121157 0.0118715 0.0123903
0.014435 0.0144808 0.0156558
0.0183566 0.0183871 0.0192569
0.0225223 0.0225376 0.0230869
0.026627 0.026627 0.0268559
0.0309148 0.0308537 0.0307622
0.0357977 0.0355688 0.0350652
0.040589 0.0403296 0.0393988
0.0453956 0.0452735 0.0438697
0.0510414 0.0507973 0.0489052
0.0571145 0.0567788 0.0543069
0.0626841 0.0624247 0.0593881
0.0684672 0.0684062 0.0648356
0.075288 0.0753338 0.0713054
0.0823987 0.082414 0.0778515
0.0895705 0.0894636 0.0842908
0.0966964 0.0968032 0.0915847
0.103838 0.104051 0.0987411
0.111009 0.111147 0.105592
0.118547 0.118456 0.112474
0.126589 0.126314 0.12018
0.134539 0.134218 0.127855
0.14258 0.142245 0.135424
0.150988 0.150668 0.143175
0.160281 0.159792 0.151614
0.000137331 3.0518e-05 0.000350958
0.0019379 0.00177005 0.00190738
0.00508125 0.00471504 0.00468452
0.00796521 0.00750744 0.00747692
0.0105135 0.010132 0.0103151
0.0128939 0.0127413 0.0135195
0.0158236 0.0158541 0.0169375
0.0198062 0.0198215 0.0205844
0.0237736 0.0237888 0.0242466
0.0281376 0.0281376 0.0282444
0.0325322 0.0323949 0.032166
0.0373236 0.0370642 0.0364233
0.0423285 0.0420996 0.041001
0.0472572 0.0471809 0.045594
0.0531014 0.0528115 0.0507362
0.0589151 0.0585794 0.0559396
0.0645762 0.0643931 0.0611429
0.0709087 0.0708934 0.0671702
0.0776989 0.0777447 0.0735485
0.0846723 0.0846571 0.0799115
0.091722 0.0916152 0.0863355
0.0991073 0.0992752 0.0940414
0.106264 0.106477 0.101091
0.113573 0.113634 0.107958
0.121218 0.121019 0.114916
0.129046 0.12874 0.12256
0.137072 0.136736 0.130251
0.145449 0.145113 0.138094
0.153918 0.153628 0.145846
0.163699 0.163119 0.154726
0.173754 0.173022 0.163836
0.183993 0.183307 0.173068
0.194278 0.19379 0.182269
0.0087129 0.00827039 0.00828565
0.0112764 0.0109407 0.0112764
0.0135195 0.0134737 0.0145266
0.0172122 0.0172427 0.0182193
0.0211948 0.02121 0.0218662
0.0252384 0.0252384 0.0255741
0.0294041 0.0294041 0.0294041
0.0342107 0.0340124 0.0336461
0.0389563 0.0386816 0.0379034
0.0438087 0.0436103 0.0423743
0.0492714 0.0491035 0.0473487
0.0551614 0.0548257 0.0525521
0.0607614 0.0604562 0.0576333
0.0661173 0.0660105 0.0625925
0.0731823 0.0732128 0.0693217
0.0800336 0.0800793 0.0757
0.087068 0.0870069 0.0820478
0.0941329 0.0941482 0.0888991
0.101228 0.101427 0.0961624
0.108629 0.108797 0.103334
0.116045 0.11603 0.110216
0.123629 0.1234 0.117296
0.131655 0.131334 0.125078
0.13962 0.139269 0.132647
0.147936 0.147601 0.140383
0.156725 0.156344 0.148379
0.166644 0.166003 0.157397
0.177081 0.176364 0.166842
0.187396 0.186755 0.17612
0.197757 0.197391 0.185443
0.209171 0.209201 0.197131
0.221149 0.221332 0.208911
0.233524 0.2336 0.2206
0.0182193 0.0182498 0.0191348
0.0225223 0.0225376 0.0230869
0.026627 0.026627 0.0268559
0.0309148 0.0308537 0.0307622
0.0357977 0.0355688 0.0350652
0.04065 0.0403906 0.0394598
0.0454566 0.0453346 0.0439307
0.0510414 0.0507973 0.0489052
0.0570382 0.0567025 0.0542458
0.0626078 0.0623484 0.0593271
0.0684672 0.0684062 0.0648356
0.0751965 0.075227 0.0712139
0.0820935 0.0821241 0.0775769
0.0893721 0.0892805 0.0841077
0.0964828 0.0965896 0.0913558
0.103502 0.103716 0.0984054
0.110658 0.110796 0.105257
0.118181 0.11809 0.112123
0.12607 0.125795 0.119677
0.134142 0.133822 0.127474
0.142184 0.141833 0.135058
0.150561 0.150256 0.142794
0.159792 0.159319 0.151171
0.169772 0.169085 0.160235
0.179934 0.179217 0.169421
0.190127 0.189548 0.178576
0.200885 0.200656 0.188693
0.212451 0.212558 0.200397
0.22501 0.225177 0.212604
0.237552 0.237537 0.224323
0.25034 0.250004 0.236057
0.262699 0.262913 0.249195
0.275517 0.275914 0.26215
0.0323949 0.0322728 0.0320592
0.0371862 0.0369268 0.0363012
0.0422065 0.0419623 0.0408789
0.0471809 0.0471046 0.0455329
0.0531014 0.0528115 0.0507362
0.0588388 0.0585031 0.0558633
0.0644388 0.0642405 0.0610056
0.0707256 0.0707103 0.0669871
0.0775158 0.0775616 0.0733654
0.0844739 0.0844739 0.0797284
0.0915084 0.0914015 0.0861219
0.0987716 0.0989395 0.0937057
0.105806 0.106004 0.100649
0.113085 0.113161 0.1075
0.120592 0.120394 0.11429
0.128389 0.128099 0.121935
0.1364 0.136065 0.129625
0.144762 0.144427 0.137453
0.153216 0.152926 0.145205
0.16289 0.162325 0.153979
0.172915 0.172198 0.163073
0.183139 0.182452 0.172305
0.193576 0.193072 0.181659
0.204623 0.204517 0.192523
0.216175 0.216327 0.204074
0.228504 0.228656 0.215915
0.241001 0.240894 0.227466
0.253773 0.253635 0.23978
0.266331 0.266636 0.252918
0.279332 0.279713 0.265888
0.292988 0.293111 0.278889
0.306966 0.306538 0.291737
0.320073 0.319905 0.305379
0.0490425 0.0488746 0.0471504
0.0550851 0.0547494 0.052491
0.0607614 0.0604562 0.0576333
0.0661173 0.0660105 0.0625925
0.0729076 0.0729229 0.0690623
0.079942 0.0799878 0.0756085
0.0869612 0.0869154 0.0819562
0.0939193 0.0939193 0.0886854
0.100893 0.101091 0.0958267
0.108034 0.108217 0.102785
0.115541 0.115557 0.109758
0.123247 0.123018 0.116915
0.131121 0.130816 0.124575
0.139071 0.138735 0.132143
0.147234 0.146914 0.139742
0.155917 0.155566 0.147646
0.165988 0.165362 0.156802
0.176257 0.175525 0.166094
0.186542 0.185901 0.175357
0.197055 0.196643 0.184756
0.208408 0.208423 0.196353
0.220157 0.22034 0.207935
0.232471 0.232563 0.219623
0.245365 0.245106 0.231388
0.257877 0.257939 0.24416
0.270436 0.270817 0.257099
0.28365 0.284001 0.270069
0.29752 0.29749 0.283085
0.311131 0.310811 0.296132
0.324163 0.324041 0.309545
0.337469 0.337377 0.322774
0.351263 0.351019 0.336034
0.365316 0.364752 0.349081
0.0683604 0.0683146 0.064744
0.0751049 0.0751354 0.0711223
0.0820935 0.0821241 0.0775769
0.0893721 0.0892805 0.0841077
0.096376 0.0964828 0.091249
0.10338 0.103593 0.0982834
0.110536 0.110674 0.105135
0.117922 0.117845 0.11191
0.125689 0.125414 0.119295
0.133883 0.133562 0.12723
0.141909 0.141573 0.134798
0.150149 0.149828 0.142412
0.159304 0.158846 0.150729
0.169284 0.168597 0.159777
0.179431 0.178714 0.168963
0.189624 0.189029 0.178119
0.200336 0.200076 0.188113
0.211872 0.211963 0.199817
0.223987 0.22417 0.211627
0.236484 0.2365 0.223346
0.249546 0.249149 0.235187
0.26186 0.262043 0.248325
0.274846 0.275242 0.261494
0.288045 0.288304 0.274266
0.302129 0.3019 0.287297
0.315343 0.315114 0.300526
0.328542 0.32845 0.313954
0.342016 0.341894 0.327184
0.355734 0.355398 0.34023
0.369497 0.36907 0.353292
0.382132 0.382361 0.36643
0.395071 0.39556 0.379355
0.408316 0.408667 0.392065
0.0914168 0.0912947 0.0860151
0.0987716 0.0989395 0.0937057
0.105806 0.106004 0.100649
0.113085 0.113161 0.1075
0.120714 0.120531 0.114412
0.128389 0.128099 0.121935
0.1364 0.136065 0.129625
0.144488 0.144152 0.137209
0.152941 0.152636 0.144961
0.162722 0.162158 0.153841
0.172763 0.172045 0.162936
0.182803 0.182116 0.172
0.19324 0.192721 0.181353
0.204242 0.204135 0.192126
0.215778 0.21593 0.203677
0.227878 0.228046 0.215335
0.240574 0.240467 0.22707
0.253361 0.253208 0.239338
0.26569 0.26598 0.252262
0.278645 0.279042 0.265232
0.292271 0.292424 0.278233
0.30631 0.305867 0.291051
0.319158 0.31899 0.304463
0.332753 0.332662 0.318135
0.346365 0.346197 0.33138
0.36025 0.359808 0.344427
0.373495 0.373327 0.357519
0.386313 0.386664 0.370657
0.399191 0.399664 0.383352
0.412589 0.412818 0.396078
0.426535 0.426139 0.408804
0.438056 0.438392 0.421256
0.449485 0.450355 0.433463
0.115419 0.115434 0.109651
0.123247 0.123018 0.116915
0.131121 0.130816 0.124575
0.139208 0.138872 0.132265
0.147372 0.147051 0.139864
0.156085 0.155734 0.147799
0.165988 0.165362 0.156802
0.175921 0.175189 0.165789
0.186206 0.18555 0.175051
0.196872 0.196475 0.184588
0.208026 0.208026 0.195972
0.219944 0.220127 0.207752
0.232044 0.232151 0.219226
0.244938 0.244694 0.231006
0.257465 0.257496 0.243717
0.270008 0.270375 0.256657
0.283192 0.283543 0.269627
0.296803 0.296788 0.282429
0.31046 0.31014 0.295445
0.323476 0.323354 0.308858
0.336751 0.33666 0.322072
0.35053 0.350301 0.335332
0.364553 0.364019 0.348394
0.377325 0.377356 0.361501
0.390066 0.390494 0.374426
0.403098 0.403555 0.387121
0.416663 0.416754 0.399847
0.430106 0.429755 0.412375
0.441581 0.44213 0.425086
0.453193 0.454139 0.437293
0.465126 0.465995 0.449226
0.477592 0.477958 0.461143
0.490135 0.489708 0.472786
0.141772 0.141436 0.134676
0.150149 0.149828 0.142412
0.159472 0.158999 0.150881
0.169451 0.168765 0.15993
0.179431 0.178714 0.168963
0.189792 0.189197 0.178271
0.200336 0.200076 0.188113
0.211673 0.211765 0.199634
0.223575 0.223758 0.211246
0.236057 0.236088 0.22295
0.249134 0.248737 0.234745
0.261433 0.261616 0.247883
0.274403 0.2748 0.261051
0.287816 0.288075 0.274037
0.30164 0.301427 0.286854
0.3149 0.314656 0.300069
0.327855 0.327764 0.313268
0.341299 0.341176 0.326497
0.354986 0.354665 0.339529
0.369055 0.368597 0.352834
0.381445 0.381643 0.365728
0.394354 0.394827 0.378653
0.407553 0.407935 0.391363
0.421042 0.420935 0.403861
0.433722 0.433707 0.416449
0.445167 0.445884 0.428916
0.456718 0.457694 0.440864
0.468803 0.469581 0.452796
0.481193 0.481315 0.464469
0.49308 0.492943 0.476097
0.503487 0.504036 0.487465
0.514336 0.51519 0.498787
0.525643 0.526406 0.510094
0.172763 0.172045 0.162936
0.182971 0.182284 0.172152
0.193408 0.192905 0.181506
0.204242 0.204135 0.192126
0.215976 0.216129 0.203876
0.228092 0.228244 0.215518
0.240574 0.240467 0.22707
0.253361 0.253208 0.239338
0.26569 0.26598 0.252262
0.278645 0.279042 0.265232
0.292027 0.292195 0.278004
0.306065 0.305638 0.290837
0.318944 0.318761 0.304219
0.332052 0.33196 0.317433
0.345403 0.345235 0.330449
0.359487 0.359075 0.343725
0.372824 0.37261 0.356817
0.38584 0.386175 0.370199
0.398703 0.399176 0.382879
0.412085 0.412329 0.395605
0.425742 0.425391 0.408103
0.4374 0.43769 0.420539
0.448798 0.449653 0.432746
0.460533 0.461479 0.444694
0.472786 0.473396 0.456611
0.485344 0.485176 0.468269
0.496284 0.496391 0.479652
0.506828 0.507515 0.491005
0.517815 0.518685 0.502327
0.529015 0.529702 0.513375
0.540642 0.540764 0.524392
0.551827 0.551537 0.535149
0.561807 0.56202 0.545846
0.207843 0.207828 0.195773
0.219944 0.220127 0.207752
0.232258 0.232349 0.219425
0.245151 0.244907 0.231189
0.257679 0.25771 0.243931
0.270222 0.270588 0.25687
0.283192 0.283543 0.269627
0.296803 0.296788 0.282429
0.31046 0.31014 0.295445
0.323476 0.323354 0.308858
0.336751 0.33666 0.322072
0.350286 0.350057 0.335103
0.364294 0.36376 0.34815
0.377096 0.377111 0.361273
0.389593 0.390021 0.373953
0.402609 0.403067 0.386648
0.416144 0.416266 0.399374
0.429694 0.429282 0.411902
0.440925 0.441428 0.424369
0.452491 0.453422 0.436576
0.464393 0.465278 0.448508
0.476829 0.477226 0.460426
0.489494 0.489021 0.472068
0.499748 0.500099 0.483452
0.510445 0.511223 0.494789
0.521584 0.522423 0.506096
0.532921 0.533455 0.517128
0.544457 0.54432 0.527901
0.555261 0.555169 0.538872
0.565347 0.565682 0.549569
0.575753 0.576257 0.560235
0.586267 0.586648 0.570642
0.597086 0.597131 0.581033
0.249134 0.248737 0.234745
0.261433 0.261616 0.247883
0.274617 0.275029 0.261265
0.288045 0.288304 0.274266
0.301885 0.301656 0.287068
0.315114 0.314885 0.300298
0.328313 0.328222 0.313726
0.341527 0.341405 0.326726
0.35523 0.35491 0.339757
0.369055 0.368597 0.352834
0.381445 0.381643 0.365728
0.394354 0.394827 0.378653
0.407309 0.407691 0.391119
0.421042 0.420935 0.403861
0.433509 0.433478 0.41622
0.444724 0.445426 0.428443
0.456245 0.457206 0.440391
0.468315 0.469093 0.452323
0.480674 0.480842 0.463996
0.492653 0.49247 0.475624
0.503044 0.503563 0.486992
0.513649 0.514488 0.498085
0.52491 0.525704 0.509377
0.536645 0.536995 0.520653
0.548562 0.548104 0.531655
0.558511 0.558587 0.542367
0.568704 0.569116 0.553048
0.579217 0.579705 0.563714
0.589837 0.590143 0.574105
0.600763 0.600626 0.584482
0.611399 0.611093 0.594827
0.621073 0.621393 0.605112
0.630854 0.631479 0.615137
0.292271 0.292424 0.278233
0.306523 0.306096 0.291279
0.319387 0.319219 0.304692
0.332509 0.332433 0.317906
0.34612 0.345953 0.331151
0.359991 0.359564 0.344182
0.373053 0.372854 0.357046
0.38584 0.386175 0.370199
0.398703 0.399176 0.382879
0.412085 0.412329 0.395605
0.426001 0.425635 0.408331
0.4374 0.43769 0.420539
0.448798 0.449653 0.432746
0.460533 0.461479 0.444694
0.472541 0.473167 0.456367
0.485084 0.484932 0.468025
0.496071 0.496162 0.479423
0.5066 0.507271 0.490776
0.517586 0.518456 0.502098
0.528771 0.529458 0.513146
0.540398 0.540536 0.524163
0.551614 0.551308 0.53492
0.561578 0.561791 0.545617
0.571878 0.572335 0.556298
0.582498 0.58294 0.566949
0.59321 0.593393 0.57734
0.604486 0.604135 0.58793
0.614588 0.614527 0.59826
0.624369 0.624826 0.60853
0.634256 0.634928 0.618555
0.644678 0.645274 0.628779
0.655192 0.655421 0.638743
0.66601 0.665583 0.648692
0.336996 0.336904 0.322316
0.350774 0.350545 0.335561
0.365057 0.364508 0.348852
0.377554 0.3776 0.361746
0.390311 0.390738 0.374655
0.403342 0.403784 0.387366
0.416663 0.416754 0.399847
0.430106 0.429755 0.412375
0.441138 0.441657 0.424598
0.452491 0.453422 0.436576
0.464393 0.465278 0.448508
0.476585 0.476997 0.460182
0.489494 0.489021 0.472068
0.499748 0.500099 0.483452
0.510445 0.511223 0.494789
0.52134 0.522194 0.505852
0.532677 0.533227 0.516899
0.544457 0.54432 0.527901
0.555047 0.55494 0.538643
0.565118 0.565454 0.54934
0.575296 0.575784 0.559777
0.586023 0.586419 0.570413
0.596841 0.596887 0.580804
0.60798 0.607431 0.59115
0.617594 0.617731 0.60145
0.627268 0.627817 0.61149
0.637461 0.638148 0.621729
0.647745 0.64828 0.631724
0.658595 0.658656 0.641917
0.66923 0.668956 0.65211
0.678294 0.678782 0.662104
0.687694 0.688594 0.672068
0.697459 0.698405 0.682002
0.381903 0.382116 0.366201
0.394842 0.395315 0.379126
0.408057 0.408423 0.391836
0.42182 0.421683 0.404562
0.43415 0.43418 0.416938
0.445396 0.446128 0.42916
0.456718 0.457694 0.440864
0.468803 0.469581 0.452796
0.481193 0.481315 0.464469
0.492866 0.492699 0.475868
0.503044 0.503563 0.486992
0.513878 0.514717 0.498329
0.52491 0.525704 0.509377
0.536645 0.536995 0.520653
0.548302 0.547875 0.531411
0.558297 0.558358 0.542138
0.568704 0.569116 0.553048
0.578988 0.579477 0.563485
0.589593 0.589899 0.573877
0.600519 0.600397 0.584253
0.611185 0.610864 0.594598
0.620859 0.621164 0.604883
0.630854 0.631479 0.615137
0.64094 0.641596 0.625147
0.651331 0.651728 0.635126
0.662287 0.66212 0.645304
0.672068 0.672084 0.655283
0.681239 0.681895 0.665278
0.690761 0.691722 0.675227
0.700633 0.701534 0.685145
0.71133 0.711803 0.695476
0.72192 0.72163 0.705318
0.731044 0.731228 0.715084
0.426001 0.425635 0.408331
0.438056 0.438392 0.421256
0.449256 0.450126 0.433219
0.461006 0.461952 0.445167
0.473289 0.473884 0.457084
0.485863 0.485649 0.468742
0.496498 0.49662 0.479896
0.507057 0.507744 0.491249
0.517815 0.518685 0.502327
0.529015 0.529702 0.513375
0.540642 0.540764 0.524392
0.551614 0.551308 0.53492
0.561578 0.561791 0.545617
0.571878 0.572335 0.556298
0.582254 0.582712 0.56672
0.592966 0.593164 0.577111
0.603983 0.603677 0.587472
0.61416 0.614069 0.597803
0.624155 0.624598 0.608301
0.634256 0.634928 0.618555
0.64445 0.645045 0.62855
0.654948 0.655192 0.638529
0.665766 0.665354 0.648478
0.675166 0.675425 0.658701
0.684443 0.685252 0.668681
0.694087 0.695064 0.678614
0.704082 0.70489 0.688518
0.714427 0.714702 0.69839
0.72491 0.724514 0.708217
0.733669 0.734051 0.717968
0.742763 0.743587 0.727672
0.752407 0.753338 0.737545
0.761929 0.762646 0.746929
0.464637 0.465522 0.448753
0.477089 0.47747 0.460655
0.489921 0.489479 0.472541
0.500404 0.500786 0.484154
0.510903 0.511696 0.495262
0.522057 0.522896 0.506569
0.533181 0.5337 0.517372
0.544701 0.544549 0.528145
0.555261 0.555169 0.538872
0.565347 0.565682 0.549569
0.575525 0.576013 0.560006
0.586267 0.586648 0.570642
0.596841 0.596887 0.580804
0.60798 0.607431 0.59115
0.617594 0.617731 0.60145
0.627268 0.627817 0.61149
0.637461 0.638148 0.621729
0.647745 0.64828 0.631724
0.658351 0.658427 0.641688
0.669032 0.668742 0.651881
0.678294 0.678782 0.662104
0.687694 0.688594 0.672068
0.697459 0.698405 0.682002
0.707561 0.708232 0.69189
0.718029 0.718059 0.701747
0.727855 0.727764 0.711543
0.736736 0.737301 0.721279
0.745937 0.746838 0.730968
0.755261 0.756146 0.740383
0.764874 0.765454 0.749767
0.774823 0.774746 0.759106
0.783703 0.783795 0.768292
0.791348 0.792187 0.776898
0.503487 0.504036 0.487465
0.514336 0.51519 0.498787
0.525643 0.526406 0.510094
0.537133 0.537469 0.521111
0.548821 0.548348 0.531884
0.558724 0.558816 0.542596
0.568933 0.569345 0.553277
0.579461 0.57995 0.563943
0.590082 0.590372 0.574334
0.601007 0.60087 0.58471
0.611399 0.611093 0.594827
0.621073 0.621393 0.605112
0.630854 0.631479 0.615137
0.64094 0.641596 0.625147
0.651331 0.651728 0.635126
0.662043 0.661891 0.64509
0.672068 0.672084 0.655283
0.681239 0.681895 0.665278
0.690761 0.691722 0.675227
0.700633 0.701534 0.685145
0.710857 0.71136 0.695033
0.721675 0.721416 0.705104
0.730846 0.731014 0.71487
0.739834 0.740551 0.72459
0.749157 0.750088 0.734249
0.758572 0.759396 0.743664
0.768078 0.768475 0.752804
0.778119 0.777783 0.762127
0.786099 0.786465 0.771023
0.794034 0.795041 0.779828
0.801907 0.803174 0.788174
0.810086 0.811292 0.79646
0.818341 0.819165 0.804501
0.540902 0.541009 0.524636
0.552254 0.551995 0.535607
0.562234 0.562478 0.546319
0.572549 0.573022 0.557
0.582956 0.583413 0.567407
0.593683 0.593866 0.577798
0.60473 0.604379 0.588174
0.614588 0.614527 0.59826
0.624369 0.624826 0.60853
0.634485 0.635157 0.618784
0.644678 0.645274 0.628779
0.655192 0.655421 0.638743
0.66601 0.665583 0.648692
0.675166 0.675425 0.658701
0.684443 0.685252 0.668681
0.694087 0.695064 0.678614
0.704082 0.70489 0.688518
0.714427 0.714702 0.69839
0.72491 0.724514 0.708217
0.733669 0.734051 0.717968
0.742763 0.743587 0.727672
0.752407 0.753338 0.737545
0.761929 0.762646 0.746929
0.771542 0.771725 0.756069
0.780987 0.780713 0.765118
0.788708 0.789319 0.773968
0.796368 0.797482 0.782345
0.804334 0.805615 0.790661
0.812802 0.813916 0.799146
0.821164 0.821775 0.807172
0.829801 0.829618 0.815152
0.835874 0.836301 0.822278
0.841611 0.842725 0.82919
0.575982 0.576486 0.560464
0.58674 0.587121 0.571115
0.597574 0.597589 0.581491
0.608652 0.608118 0.591852
0.61825 0.618418 0.602136
0.627924 0.628504 0.612177
0.637919 0.638605 0.622187
0.648234 0.648737 0.632181
0.658839 0.658885 0.642145
0.66923 0.668956 0.65211
0.678294 0.678782 0.662104
0.687922 0.688807 0.672297
0.697688 0.698634 0.682231
0.707805 0.708461 0.692119
0.718273 0.718288 0.701976
0.728054 0.727977 0.711772
0.73695 0.737514 0.721492
0.745937 0.746838 0.730968
0.755261 0.756146 0.740383
0.764874 0.765454 0.749767
0.774578 0.774533 0.758877
0.783703 0.783795 0.768292
0.791348 0.792187 0.776898
0.79913 0.800336 0.78526
0.807187 0.808454 0.793561
0.815564 0.816541 0.801831
0.823789 0.824201 0.809628
0.832242 0.832044 0.817685
0.837812 0.838499 0.824643
0.843656 0.844907 0.831556
0.849607 0.851087 0.838224
0.855802 0.857221 0.844846
0.862455 0.863462 0.851575
0.612024 0.61178 0.595514
0.621729 0.62208 0.605798
0.631754 0.63241 0.616053
0.641871 0.642512 0.626047
0.652293 0.652659 0.636027
0.663035 0.662806 0.645991
0.672694 0.672755 0.65597
0.681666 0.682338 0.665736
0.691203 0.692164 0.675685
0.701091 0.701976 0.685603
0.71133 0.711803 0.695476
0.72192 0.72163 0.705318
0.731258 0.731456 0.715312
0.740261 0.740993 0.725017
0.749371 0.750301 0.734478
0.758801 0.759609 0.743877
0.768307 0.768704 0.753017
0.778119 0.777783 0.762127
0.786099 0.786465 0.771023
0.793851 0.794842 0.779629
0.801907 0.803174 0.788174
0.810086 0.811292 0.79646
0.818341 0.819165 0.804501
0.826886 0.827008 0.812497
0.833967 0.834089 0.819898
0.83978 0.840696 0.827024
0.845716 0.847089 0.833906
0.851759 0.853254 0.840558
0.858045 0.859373 0.84715
0.864424 0.865263 0.853529
0.871412 0.871443 0.860197
0.876585 0.876707 0.865843
0.880995 0.881636 0.871077
0.645151 0.645747 0.629236
0.655924 0.656107 0.639429
0.667018 0.666499 0.649607
0.67599 0.676326 0.659602
0.685313 0.686137 0.669581
0.694987 0.695949 0.679515
0.704768 0.705547 0.689204
0.715145 0.715373 0.699062
0.72549 0.725155 0.708888
0.734279 0.734707 0.718624
0.743191 0.744015 0.728099
0.752621 0.753552 0.737758
0.762158 0.76286 0.747143
0.772015 0.772152 0.756497
0.781338 0.781125 0.765545
0.788891 0.789532 0.774182
0.796567 0.797681 0.782544
0.804532 0.805814 0.790875
0.812802 0.813916 0.799146
0.821378 0.821988 0.80737
0.829801 0.829618 0.815152
0.835874 0.836301 0.822278
0.841611 0.842725 0.82919
0.847486 0.84892 0.835889
0.853941 0.855406 0.842878
0.860151 0.861341 0.849287
0.866789 0.867384 0.855817
0.873487 0.873213 0.862119
0.878035 0.878355 0.867597
0.88249 0.883268 0.872816
0.887114 0.888121 0.877989
0.891905 0.892943 0.883116
0.897017 0.897856 0.888319
0.67892 0.679438 0.662791
0.68835 0.689265 0.67274
0.69836 0.699306 0.682902
0.708736 0.709346 0.693019
0.719234 0.719173 0.702861
0.728847 0.728847 0.712657
0.73756 0.73817 0.722164
