uploads/V2_Sl3Sg3_BW_HC2.cube
TITLE "Generated by Resolve"
LUT_3D_SIZE 5
0 0 0
0.000671397 0.000289921 0.000289921
0.00657664 0.00614939 0.00608835
0.0352636 0.03505 0.0345922
0.0817121 0.0817426 0.0772106
0.0490425 0.0488746 0.0471504
0.100893 0.101091 0.0958267
0.165988 0.165362 0.156802
0.257877 0.257939 0.24416
0.365316 0.364752 0.349081
0.292271 0.292424 0.278233
0.398703 0.399176 0.382879
0.496071 0.496162 0.479423
0.582498 0.58294 0.566949
0.66601 0.665583 0.648692
0.612024 0.61178 0.595514
0.691203 0.692164 0.675685
0.768307 0.768704 0.753017
0.833967 0.834089 0.819898
0.880995 0.881636 0.871077
0.849928 0.851423 0.838575
0.89369 0.894667 0.884947
0.926543 0.92723 0.919539
0.952178 0.952544 0.9467
0.970535 0.970672 0.967269
0.000518807 0.000244144 0.000198367
0.000549325 0.000183108 0.000442512
0.0149996 0.0150454 0.0161746
0.0514992 0.0512551 0.0493172
0.104875 0.105089 0.0997482
0.0674296 0.0673533 0.0638437
0.125429 0.12517 0.119051
0.199969 0.199695 0.187732
0.301396 0.301198 0.286625
0.408804 0.409155 0.392538
0.336996 0.336904 0.322316
0.44181 0.442374 0.42533
0.533669 0.534157 0.51783
0.61912 0.619333 0.603052
0.698817 0.699748 0.683345
0.646571 0.64712 0.630594
0.726879 0.72668 0.710445
0.798535 0.799725 0.784634
0.855634 0.857053 0.844663
0.898421 0.899168 0.889723
0.873869 0.873533 0.86247
0.910842 0.91104 0.902342
0.939132 0.939742 0.932921
0.96051 0.961303 0.956481
0.976181 0.976532 0.973846
0.000717174 0.000289921 0.000366217
0.00390631 0.00360113 0.00360113
0.0283207 0.0283207 0.0284276
0.0709087 0.0708934 0.0671702
0.130465 0.130159 0.123949
0.0900893 0.0899672 0.0847334
0.152941 0.152636 0.144961
0.240574 0.240467 0.22707
0.347341 0.347158 0.332311
0.452262 0.453193 0.436332
0.382818 0.383078 0.367132
0.484047 0.48397 0.467079
0.57232 0.572793 0.556756
0.655924 0.656107 0.639429
0.734691 0.735134 0.719066
0.682734 0.683467 0.666865
0.760143 0.760906 0.74519
0.829343 0.829221 0.81474
0.878401 0.878767 0.86804
0.914702 0.915358 0.906905
0.891096 0.892149 0.882261
0.924666 0.925475 0.917662
0.95024 0.950851 0.944854
0.969268 0.969238 0.965652
0.981292 0.981552 0.979416
0.000488289 0.00015259 0.000442512
0.0121157 0.0118715 0.0123903
0.0427253 0.0424964 0.0413672
0.0929732 0.0929427 0.0876783
0.157687 0.157275 0.149264
0.114305 0.114351 0.108629
0.184833 0.184176 0.173831
0.282277 0.282643 0.268757
0.390784 0.391211 0.375128
0.493294 0.493172 0.476341
0.426795 0.426383 0.409049
0.52134 0.522194 0.505852
0.608865 0.608347 0.592081
0.689219 0.69015 0.673655
0.766934 0.767407 0.75172
0.716823 0.716945 0.700633
0.791165 0.791974 0.776684
0.850919 0.85243 0.839658
0.895201 0.896132 0.886503
0.9281 0.928664 0.92108
0.908873 0.908766 0.899931
0.937423 0.937758 0.930816
0.958816 0.959472 0.954406
0.974456 0.974899 0.972
0.985565 0.98558 0.983963
0.00151064 0.00137331 0.0015259
0.0218204 0.0218357 0.022446
0.0597238 0.0594034 0.0566873
0.117678 0.117601 0.111681
0.189792 0.189197 0.178271
0.139483 0.139132 0.132525
0.220752 0.220935 0.20853
0.32578 0.325673 0.311177
0.434806 0.434882 0.417655
0.529992 0.530632 0.514321
0.46659 0.46743 0.45066
0.558724 0.558816 0.542596
0.642573 0.643214 0.626734
0.723384 0.722972 0.706661
0.796765 0.797894 0.782757
0.748516 0.749432 0.733593
0.820294 0.820981 0.806348
0.874098 0.873808 0.86276
0.911498 0.911803 0.903136
0.939498 0.940154 0.933364
0.921248 0.922133 0.914107
0.94725 0.948119 0.941894
0.966567 0.967025 0.963058
0.980041 0.980117 0.977859
0.988022 0.988266 0.987045
