uploads/V2_Sl3Sg3_BW_HC2.cube
TITLE "Generated by Resolve"
LUT_3D_SIZE 9
0 0 0
0.00030518 0.00015259 0.000106813
0.000671397 0.000289921 0.000289921
0.000534066 0.000167849 0.000442512
0.00657664 0.00614939 0.00608835
0.0178531 0.0178836 0.0187991
0.0352636 0.03505 0.0345922
0.0565194 0.0561685 0.0537728
0.0817121 0.0817426 0.0772106
0.000137331 3.0518e-05 0.000350958
0.0105135 0.010132 0.0103151
0.0237736 0.0237888 0.0242466
0.0423285 0.0420996 0.041001
0.0645762 0.0643931 0.0611429
0.091722 0.0916152 0.0863355
0.121218 0.121019 0.114916
0.153918 0.153628 0.145846
0.194278 0.19379 0.182269
0.0490425 0.0488746 0.0471504
0.0729076 0.0729229 0.0690623
0.100893 0.101091 0.0958267
0.131121 0.130816 0.124575
0.165988 0.165362 0.156802
0.208408 0.208423 0.196353
0.257877 0.257939 0.24416
0.311131 0.310811 0.296132
0.365316 0.364752 0.349081
0.141772 0.141436 0.134676
0.179431 0.178714 0.168963
0.223575 0.223758 0.211246
0.274403 0.2748 0.261051
0.327855 0.327764 0.313268
0.381445 0.381643 0.365728
0.433722 0.433707 0.416449
0.481193 0.481315 0.464469
0.525643 0.526406 0.510094
0.292271 0.292424 0.278233
0.34612 0.345953 0.331151
0.398703 0.399176 0.382879
0.448798 0.449653 0.432746
0.496071 0.496162 0.479423
0.540398 0.540536 0.524163
0.582498 0.58294 0.566949
0.624369 0.624826 0.60853
0.66601 0.665583 0.648692
0.464637 0.465522 0.448753
0.510903 0.511696 0.495262
0.555261 0.555169 0.538872
0.596841 0.596887 0.580804
0.637461 0.638148 0.621729
0.678294 0.678782 0.662104
0.718029 0.718059 0.701747
0.755261 0.756146 0.740383
0.791348 0.792187 0.776898
0.612024 0.61178 0.595514
0.652293 0.652659 0.636027
0.691203 0.692164 0.675685
0.731258 0.731456 0.715312
0.768307 0.768704 0.753017
0.801907 0.803174 0.788174
0.833967 0.834089 0.819898
0.858045 0.859373 0.84715
0.880995 0.881636 0.871077
0.743816 0.744671 0.728771
0.781888 0.78175 0.766171
0.81323 0.814313 0.799558
0.841932 0.843061 0.829557
0.866972 0.867552 0.855985
0.887114 0.888121 0.877989
0.907149 0.906996 0.89807
0.921569 0.922438 0.914443
0.936645 0.936843 0.929839
0.849928 0.851423 0.838575
0.875395 0.875334 0.864378
0.89369 0.894667 0.884947
0.911879 0.91223 0.903593
0.926543 0.92723 0.919539
0.940093 0.94081 0.934066
0.952178 0.952544 0.9467
0.96144 0.962264 0.957565
0.970535 0.970672 0.967269
0.000228885 0.000106813 7.62951e-05
0.000488289 0.000228885 0.000183108
0.000717174 0.000274662 0.000381476
0.000106813 1.5259e-05 0.000335698
0.0106508 0.0102693 0.0104829
0.024033 0.0240482 0.0244755
0.0424659 0.042237 0.0411231
0.0647898 0.064622 0.0613565
0.0923476 0.0922713 0.0870069
0.00376898 0.00347906 0.00347906
0.0139315 0.0139773 0.015198
0.0301671 0.0301518 0.0301061
0.0502022 0.0499886 0.0481575
0.074342 0.0743572 0.0704051
0.102586 0.1028 0.0975052
0.133227 0.132906 0.126589
0.168795 0.168109 0.159335
0.211673 0.211765 0.199634
0.0577096 0.0573739 0.0548562
0.0832837 0.083299 0.078645
0.111864 0.111986 0.106371
0.143542 0.143206 0.136324
0.18146 0.180743 0.170779
0.226444 0.226612 0.213962
0.277531 0.277928 0.264134
0.331334 0.331258 0.316747
0.384909 0.385214 0.369253
0.154345 0.154055 0.146227
0.195315 0.194858 0.1832
0.242954 0.242786 0.229221
0.294652 0.294713 0.280446
0.348318 0.348119 0.333242
0.401633 0.40209 0.385718
0.451575 0.452491 0.435615
0.498878 0.499168 0.482506
0.543694 0.543603 0.527199
0.313344 0.313069 0.298436
0.367727 0.367193 0.351431
0.419486 0.419455 0.402441
0.466835 0.467674 0.450889
0.512947 0.513787 0.497383
0.557427 0.557458 0.541207
0.599542 0.599466 0.583337
0.640009 0.640681 0.624231
0.680613 0.681224 0.664591
0.484306 0.484199 0.467323
0.528283 0.528984 0.512673
0.571191 0.571649 0.555596
0.613733 0.613611 0.597345
0.653986 0.654261 0.637613
0.692973 0.69395 0.677485
0.733074 0.733394 0.717296
0.770855 0.771069 0.755413
0.804135 0.805417 0.790448
0.627039 0.627588 0.611261
0.66923 0.668956 0.65211
0.707103 0.70779 0.691447
0.745312 0.746181 0.730297
0.783154 0.783185 0.767651
0.814923 0.81593 0.801205
0.843336 0.844572 0.831189
0.868803 0.869169 0.85774
0.888426 0.889464 0.879423
0.758801 0.759609 0.743877
0.79443 0.795453 0.780255
0.826886 0.827008 0.812497
0.851591 0.853086 0.840375
0.876463 0.87657 0.86569
0.895064 0.895994 0.886351
0.912947 0.91342 0.90486
0.927977 0.928557 0.920974
0.940993 0.941802 0.935103
0.860151 0.861341 0.849287
0.882612 0.883391 0.872969
0.901854 0.902312 0.89308
0.917617 0.918441 0.91017
0.933242 0.933257 0.926009
0.944717 0.945663 0.939254
0.956603 0.956863 0.951461
0.965087 0.965728 0.961563
0.97293 0.973342 0.97026
0.000518807 0.000244144 0.000198367
0.000701915 0.000289921 0.000320439
0.000549325 0.000183108 0.000442512
0.00502022 0.004654 0.00462348
0.0149996 0.0150454 0.0161746
0.0313878 0.0313115 0.0311742
0.0514992 0.0512551 0.0493172
0.0760662 0.0760967 0.0720226
0.104875 0.105089 0.0997482
0.00898756 0.00854505 0.00856031
0.0208133 0.0208286 0.0215152
0.0383764 0.0381018 0.0373693
0.0599527 0.0596323 0.0568856
0.0860609 0.0860304 0.0811627
0.115541 0.115557 0.109758
0.147646 0.147326 0.140124
0.186709 0.186069 0.175509
0.23331 0.233387 0.220401
0.0674296 0.0673533 0.0638437
0.0955215 0.0955825 0.0903487
0.125429 0.12517 0.119051
0.158831 0.158373 0.150301
0.199969 0.199695 0.187732
0.24892 0.248524 0.234546
0.301396 0.301198 0.286625
0.355978 0.355642 0.340459
0.408804 0.409155 0.392538
0.171923 0.171221 0.162173
0.215381 0.215534 0.203296
0.265248 0.265538 0.251835
0.318715 0.318532 0.30399
0.372824 0.37261 0.356817
0.426001 0.425635 0.408331
0.473793 0.474357 0.457572
0.519219 0.520088 0.503746
0.563348 0.563622 0.547478
0.336996 0.336904 0.322316
0.390539 0.390982 0.374884
0.44181 0.442374 0.42533
0.490135 0.489708 0.472786
0.533669 0.534157 0.51783
0.576913 0.577401 0.561395
0.61912 0.619333 0.603052
0.660319 0.660273 0.643503
0.698817 0.699748 0.683345
0.504585 0.505196 0.48864
0.550134 0.549722 0.533288
0.591272 0.591531 0.575494
0.632441 0.633097 0.616739
0.673503 0.67364 0.656886
0.71252 0.712917 0.696605
0.750454 0.751385 0.735561
0.787579 0.788098 0.772702
0.820508 0.82118 0.806561
0.646571 0.64712 0.630594
0.68661 0.68748 0.670939
0.726879 0.72668 0.710445
0.763745 0.76437 0.748669
0.798535 0.799725 0.784634
0.831662 0.831357 0.816953
0.855634 0.857053 0.844663
0.879377 0.879866 0.8692
0.898421 0.899168 0.889723
0.777646 0.77734 0.7617
0.810086 0.811292 0.79646
0.83978 0.840696 0.827024
0.864607 0.865431 0.853697
0.885557 0.886503 0.876265
0.905516 0.905577 0.896544
0.920302 0.921187 0.9131
0.935821 0.935851 0.928771
0.946838 0.947723 0.941466
0.873869 0.873533 0.86247
0.89218 0.893217 0.883391
0.910842 0.91104 0.902342
0.925322 0.926085 0.918334
0.939132 0.939742 0.932921
0.950942 0.951476 0.945525
0.96051 0.961303 0.956481
0.969833 0.969818 0.966308
0.976181 0.976532 0.973846
0.000671397 0.000289921 0.000289921
0.000686656 0.000259403 0.000411994
0.000137331 3.0518e-05 0.000350958
0.00979629 0.00936904 0.00947585
0.0216373 0.0216526 0.0222782
0.0392157 0.0389563 0.0381476
0.0610513 0.0607614 0.0578927
0.0877699 0.0877089 0.0826734
0.11754 0.117479 0.111559
0.0129549 0.0128176 0.0136263
0.0276951 0.0276951 0.0278477
0.0462196 0.0461433 0.0446479
0.0698711 0.0698405 0.0661784
0.0982223 0.0983749 0.0931411
0.128786 0.128481 0.122316
0.163378 0.162799 0.154421
0.205188 0.205097 0.193088
0.254795 0.254704 0.240864
0.078584 0.0786297 0.074342
0.108034 0.108217 0.102785
0.139071 0.138735 0.132143
0.175921 0.175189 0.165789
0.219944 0.220127 0.207752
0.270436 0.270817 0.257099
0.324392 0.324285 0.309789
0.378698 0.378775 0.362921
0.432013 0.431846 0.414542
0.189441 0.188846 0.177966
0.236271 0.236286 0.223148
0.288045 0.288304 0.274266
0.342016 0.341894 0.327184
0.39556 0.396033 0.379828
0.446754 0.447532 0.430594
0.495216 0.495247 0.478477
0.539895 0.540063 0.52369
0.582498 0.58294 0.566949
0.360494 0.360067 0.344656
0.413596 0.413809 0.397009
0.462943 0.463859 0.447074
0.5093 0.510063 0.493599
0.554192 0.55404 0.537713
0.596353 0.596429 0.580331
0.637461 0.638148 0.621729
0.678294 0.678782 0.662104
0.718029 0.718059 0.701747
0.524437 0.525246 0.508919
0.568475 0.568887 0.552819
0.611185 0.610864 0.594598
0.651331 0.651728 0.635126
0.690761 0.691722 0.675227
0.730648 0.7308 0.714641
0.768307 0.768704 0.753017
0.802716 0.803998 0.788998
0.834836 0.835111 0.820996
0.666514 0.666041 0.649149
0.704768 0.705547 0.689204
0.743191 0.744015 0.728099
0.781521 0.781338 0.765759
0.81387 0.814923 0.800183
0.84271 0.8439 0.830472
0.868254 0.868681 0.857221
0.888426 0.889464 0.879423
0.908415 0.908217 0.899351
0.792691 0.793606 0.778363
0.826215 0.826398 0.811887
0.851255 0.85275 0.840009
0.876341 0.876432 0.865553
0.894926 0.895872 0.886213
0.912947 0.91342 0.90486
0.927871 0.928466 0.920867
0.940841 0.941634 0.934936
0.952972 0.953246 0.947463
0.882368 0.883131 0.872679
0.902007 0.902449 0.893217
0.917723 0.918547 0.910292
0.933242 0.933257 0.926009
0.944564 0.94551 0.939086
0.956313 0.956512 0.951064
0.964782 0.965454 0.961242
0.972564 0.972946 0.969818
0.979522 0.979461 0.977157
0.000717174 0.000289921 0.000366217
0.000503548 0.00015259 0.000442512
0.00390631 0.00360113 0.00360113
0.0133822 0.0133211 0.0142977
0.0283207 0.0283207 0.0284276
0.0468605 0.0468147 0.0452583
0.0709087 0.0708934 0.0671702
0.0995499 0.099733 0.0944839
0.130465 0.130159 0.123949
0.0181582 0.0181888 0.019089
0.0348669 0.0346532 0.0342412
0.0554665 0.0551308 0.0528267
0.0809186 0.0809491 0.0764935
0.110658 0.110796 0.105257
0.142321 0.14197 0.13518
0.179934 0.179217 0.169421
0.225208 0.225391 0.212802
0.276188 0.276585 0.262806
0.0900893 0.0899672 0.0847334
0.12047 0.120272 0.114168
0.152941 0.152636 0.144961
0.193057 0.192554 0.181201
0.240574 0.240467 0.22707
0.293217 0.293339 0.279118
0.347341 0.347158 0.332311
0.401129 0.401602 0.385245
0.452262 0.453193 0.436332
0.207843 0.207828 0.195773
0.257465 0.257496 0.243717
0.310903 0.310582 0.295903
0.365316 0.364752 0.349081
0.418463 0.418479 0.401495
0.467567 0.468376 0.451606
0.513878 0.514717 0.498329
0.558953 0.559045 0.542824
0.601755 0.601572 0.585412
0.382818 0.383078 0.367132
0.43566 0.435813 0.418616
0.484047 0.48397 0.467079
0.528771 0.529458 0.513146
0.57232 0.572793 0.556756
0.615015 0.614984 0.598703
0.655924 0.656107 0.639429
0.695201 0.696178 0.679744
0.734691 0.735134 0.719066
0.544701 0.544549 0.528145
0.586969 0.58735 0.571344
0.628382 0.628962 0.612634
0.669841 0.669627 0.652781
0.708263 0.708904 0.692561
0.747005 0.747921 0.732067
0.784802 0.785031 0.769543
0.817914 0.818753 0.804089
0.845716 0.847089 0.833906
0.682734 0.683467 0.666865
0.723384 0.722972 0.706661
0.760143 0.760906 0.74519
0.795789 0.796872 0.781704
0.829343 0.829221 0.81474
0.854109 0.855573 0.843061
0.878401 0.878767 0.86804
0.897429 0.898253 0.888747
0.914702 0.915358 0.906905
0.807401 0.808652 0.793774
0.838407 0.839185 0.825376
0.863172 0.864118 0.852293
0.884779 0.885695 0.87541
0.904479 0.904662 0.895582
0.91957 0.920455 0.912306
0.93521 0.935088 0.927977
0.946181 0.947097 0.940795
0.957321 0.957732 0.952438
0.891096 0.892149 0.882261
0.91046 0.910613 0.901884
0.924666 0.925475 0.917662
0.938491 0.93901 0.932128
0.95024 0.950851 0.944854
0.959869 0.960616 0.955703
0.969268 0.969238 0.965652
0.975525 0.975937 0.973159
0.981292 0.981552 0.979416
0.000656138 0.000244144 0.000427253
0.000183108 4.57771e-05 0.000366217
0.00849927 0.00805676 0.00805676
0.0187228 0.0187533 0.0196078
0.0353399 0.035111 0.0346532
0.0561379 0.0558022 0.0534371
0.0818952 0.0819257 0.0773938
0.111864 0.111986 0.106371
0.143816 0.143481 0.136568
0.0245365 0.0245518 0.0249485
0.0422675 0.0420386 0.04094
0.0643626 0.0641642 0.0609445
0.092134 0.0920577 0.0867933
0.123003 0.122774 0.11667
0.156237 0.155886 0.147951
0.196872 0.196475 0.184588
0.245808 0.245533 0.231785
0.298726 0.298634 0.284199
0.102129 0.102342 0.0970626
0.133364 0.133028 0.126711
0.168627 0.167941 0.159182
0.211292 0.211368 0.199237
0.261219 0.261402 0.247669
0.315114 0.314885 0.300298
0.36994 0.369543 0.353765
0.423911 0.423667 0.406455
0.472786 0.473396 0.456611
0.227054 0.227222 0.214542
0.278645 0.279042 0.265232
0.332753 0.332662 0.318135
0.386542 0.386892 0.370901
0.439155 0.439551 0.422446
0.488762 0.488304 0.471351
0.533181 0.5337 0.517372
0.576684 0.577173 0.561166
0.61912 0.619333 0.603052
0.404578 0.405005 0.38854
0.455543 0.456504 0.439673
0.503044 0.503563 0.486992
0.548562 0.548104 0.531655
0.590555 0.590829 0.574807
0.631983 0.632639 0.616281
0.673304 0.673426 0.656657
0.71252 0.712917 0.696605
0.750881 0.751812 0.736004
0.562676 0.562936 0.546777
0.605982 0.605554 0.589319
0.645853 0.646433 0.629908
0.685954 0.686809 0.670253
0.726085 0.725811 0.709545
0.763287 0.763943 0.748241
0.798733 0.799924 0.784848
0.832517 0.83238 0.818051
0.85684 0.858213 0.845914
0.699275 0.700191 0.683803
0.73901 0.739681 0.723705
0.777417 0.777127 0.761486
0.8103 0.81149 0.796674
0.840238 0.841215 0.827558
0.86569 0.866407 0.854749
0.886732 0.887724 0.877562
0.906844 0.906737 0.897795
0.921248 0.922133 0.914107
0.822248 0.822782 0.808194
0.849104 0.850599 0.83769
0.874922 0.874784 0.863798
0.893278 0.89427 0.88452
0.911879 0.91223 0.903593
0.926543 0.92723 0.919539
0.939803 0.94049 0.933715
0.951812 0.952239 0.946365
0.960891 0.9617 0.956924
0.90013 0.90074 0.891402
0.916609 0.917372 0.909056
0.93196 0.932143 0.924819
0.943526 0.944457 0.937957
0.955718 0.955734 0.950195
0.963775 0.964523 0.960174
0.971801 0.972107 0.968887
0.978637 0.978698 0.976287
0.983352 0.983642 0.98175
0.000488289 0.00015259 0.000442512
0.00251774 0.00230411 0.00239567
0.0121157 0.0118715 0.0123903
0.024979 0.0249943 0.0253452
0.0427253 0.0424964 0.0413672
0.0649424 0.0647746 0.0614786
0.0929732 0.0929427 0.0876783
0.124269 0.124025 0.117922
0.157687 0.157275 0.149264
0.0310521 0.0309911 0.030869
0.0502785 0.0500649 0.0482338
0.0750134 0.0750439 0.0710307
0.104189 0.104402 0.0990768
0.135744 0.135409 0.128985
0.172091 0.171374 0.162325
0.215198 0.215335 0.203098
0.26569 0.26598 0.252262
0.319844 0.319677 0.30515
0.114305 0.114351 0.108629
0.14641 0.146075 0.138979
0.184833 0.184176 0.173831
0.230793 0.230915 0.218051
0.282277 0.282643 0.268757
0.336751 0.33666 0.322072
0.390784 0.391211 0.375128
0.443366 0.444007 0.426993
0.493294 0.493172 0.476341
0.247578 0.247242 0.233371
0.300664 0.300496 0.285969
0.354986 0.354665 0.339529
0.408316 0.408667 0.392065
0.458854 0.459815 0.443015
0.506371 0.507042 0.490532
0.552254 0.551995 0.535607
0.594903 0.595026 0.578958
0.636088 0.636774 0.620371
0.426795 0.426383 0.409049
0.476066 0.476509 0.459709
0.52134 0.522194 0.505852
0.56556 0.565911 0.549798
0.608865 0.608347 0.592081
0.649424 0.649882 0.63331
0.689219 0.69015 0.673655
0.729259 0.729274 0.7131
0.766934 0.767407 0.75172
0.580148 0.580636 0.56463
0.622385 0.622766 0.60647
0.664027 0.663737 0.646891
0.702235 0.70309 0.686732
0.741299 0.742077 0.726131
0.780087 0.77969 0.764065
0.81323 0.814313 0.799558
0.842557 0.843732 0.830289
0.868437 0.868849 0.857389
0.716823 0.716945 0.700633
0.754589 0.755505 0.739727
0.791165 0.791974 0.776684
0.824887 0.825193 0.810651
0.850919 0.85243 0.839658
0.876341 0.876432 0.865553
0.895201 0.896132 0.886503
0.913237 0.913741 0.905196
0.9281 0.928664 0.92108
0.835279 0.835615 0.821546
0.860319 0.861509 0.849454
0.88275 0.883528 0.873106
0.902144 0.902586 0.893355
0.918029 0.918868 0.910628
0.933593 0.933562 0.926345
0.944717 0.945663 0.939254
0.956466 0.95668 0.951263
0.964721 0.965408 0.961181
0.908873 0.908766 0.899931
0.923156 0.92401 0.916106
0.937423 0.937758 0.930816
0.948775 0.949538 0.94342
0.958816 0.959472 0.954406
0.967971 0.968185 0.964416
0.974456 0.974899 0.972
0.980652 0.980835 0.978637
0.985565 0.98558 0.983963
0.000213626 4.57771e-05 0.000381476
0.0069276 0.00650034 0.00643931
0.0159457 0.0159915 0.0170596
0.0314488 0.0313725 0.0312352
0.05066 0.0504311 0.0485695
0.0754864 0.0755169 0.0714733
0.104997 0.105196 0.099855
0.136797 0.136461 0.129992
0.173419 0.172702 0.163531
0.0379797 0.037705 0.0370184
0.0591287 0.0588083 0.0561379
0.0856641 0.0856489 0.0807965
0.116548 0.116518 0.110658
0.148898 0.148577 0.141268
0.188083 0.187457 0.17673
0.235004 0.23505 0.221973
0.286885 0.28716 0.273152
0.341527 0.341405 0.326726
0.126452 0.126177 0.120058
0.160616 0.160098 0.151919
0.201816 0.201617 0.189639
0.25095 0.250645 0.236713
0.304585 0.304234 0.289509
0.359243 0.358831 0.343496
0.412589 0.412818 0.396078
0.463416 0.464332 0.447547
0.510674 0.511467 0.495018
0.267399 0.267735 0.254017
0.321889 0.321736 0.30724
0.376196 0.376165 0.360327
0.430106 0.429755 0.412375
0.479393 0.479637 0.462806
0.524681 0.525475 0.509148
0.569146 0.569574 0.553521
0.612451 0.612238 0.595972
0.653498 0.653803 0.637171
0.446067 0.44683 0.429877
0.495216 0.495247 0.478477
0.540398 0.540536 0.524163
0.582956 0.583413 0.567407
0.62504 0.625513 0.609216
0.667216 0.666728 0.649836
0.70547 0.706218 0.689876
0.744457 0.745327 0.729427
0.782788 0.782773 0.767239
0.597818 0.597818 0.58172
0.639307 0.639994 0.62356
0.679545 0.68011 0.663462
0.719478 0.719402 0.70309
0.757015 0.757885 0.742138
0.793454 0.79443 0.779202
0.828 0.828016 0.813519
0.853254 0.854749 0.842161
0.878035 0.878355 0.867597
0.732662 0.732967 0.716854
0.770855 0.771069 0.755413
0.805142 0.806424 0.791485
0.836912 0.837491 0.82356
0.862089 0.863142 0.851225
0.884138 0.885023 0.874693
0.904036 0.90428 0.895155
0.919356 0.920241 0.912093
0.935088 0.93492 0.927794
0.845396 0.846754 0.833539
0.871794 0.871763 0.860548
0.890837 0.891875 0.881971
0.910079 0.91017 0.901427
0.924453 0.925261 0.917449
0.938415 0.938918 0.932052
0.949981 0.950622 0.94461
0.959594 0.960342 0.955383
0.968872 0.968917 0.965286
0.914702 0.915358 0.906905
0.9299 0.930312 0.92285
0.941894 0.942763 0.936141
0.954345 0.954376 0.948699
0.962386 0.963211 0.958648
0.970947 0.971145 0.967803
0.977432 0.977661 0.975113
0.982422 0.982727 0.980743
0.986786 0.986969 0.985534
0.00151064 0.00137331 0.0015259
0.0108797 0.0105135 0.0107729
0.0218204 0.0218357 0.022446
0.0384985 0.0382391 0.0374914
0.0597238 0.0594034 0.0566873
0.0865644 0.0865187 0.0816052
0.117678 0.117601 0.111681
0.150286 0.149966 0.142535
0.189792 0.189197 0.178271
0.0452125 0.0450752 0.0436866
0.0684672 0.0684062 0.0648356
0.0973526 0.0974746 0.092256
0.129168 0.128878 0.122698
0.163867 0.163272 0.154879
0.205554 0.205493 0.193469
0.255406 0.255344 0.241535
0.309804 0.309453 0.294743
0.365057 0.364508 0.348852
0.139483 0.139132 0.132525
0.176593 0.17586 0.166384
0.220752 0.220935 0.20853
0.271534 0.271916 0.258198
0.32578 0.325673 0.311177
0.380529 0.380682 0.364797
0.434806 0.434882 0.417655
0.484825 0.484688 0.467796
0.529992 0.530632 0.514321
0.289448 0.289677 0.275578
0.344182 0.34403 0.32929
0.397971 0.398459 0.382177
0.449729 0.450599 0.433692
0.498665 0.498939 0.482261
0.544701 0.544549 0.528145
0.587457 0.587808 0.571801
0.629282 0.629877 0.61355
0.671046 0.67097 0.654154
0.46659 0.46743 0.45066
0.513649 0.514488 0.498085
0.558724 0.558816 0.542596
0.601511 0.601328 0.585168
0.642573 0.643214 0.626734
0.682948 0.68368 0.667094
0.723384 0.722972 0.706661
0.761028 0.761776 0.746059
0.796765 0.797894 0.782757
0.615869 0.6159 0.599619
0.65713 0.657267 0.640558
0.696101 0.697078 0.680644
0.735515 0.736004 0.719951
0.773877 0.773892 0.758236
0.808011 0.809262 0.7944
0.83917 0.840024 0.826291
0.864973 0.865751 0.854047
0.886336 0.887312 0.877134
0.748516 0.749432 0.733593
0.786465 0.786862 0.77145
0.820294 0.820981 0.806348
0.847486 0.84892 0.835889
0.874098 0.873808 0.86276
0.892729 0.893751 0.883955
0.911498 0.911803 0.903136
0.926207 0.926909 0.919219
0.939498 0.940154 0.933364
0.856672 0.858045 0.845731
0.880491 0.881086 0.870497
0.89984 0.900481 0.891127
0.916304 0.917067 0.908705
0.931624 0.931838 0.924483
0.943221 0.944137 0.937621
0.955581 0.95555 0.949996
0.963424 0.964202 0.959792
0.971542 0.971832 0.968566
0.921248 0.922133 0.914107
0.93637 0.936507 0.929488
0.94725 0.948119 0.941894
0.957916 0.958434 0.953231
0.966567 0.967025 0.963058
0.973495 0.973922 0.970916
0.980041 0.980117 0.977859
0.984604 0.984771 0.983032
0.988022 0.988266 0.987045
